;FLAVOR:Marlin
;TIME:1654
;Filament used: 3.64743m
;Layer height: 0.26
;MINX:117.578
;MINY:143.712
;MINZ:0.26
;MAXX:212.422
;MAXY:186.288
;MAXZ:4.94
;Generated with Cura_SteamEngine 5.4.0
M140 S60


; Pre-Processed for Cancel-Object support by preprocess_cancellation v0.2.0
; 1 known objects
EXCLUDE_OBJECT_DEFINE NAME=Anet_Elegoo_Adapter_stl CENTER=165.115,166.105 POLYGON=[[117.578,143.712],[117.578,186.288],[212.422,186.288],[212.422,143.712]]
M105
M190 S60
M104 S210
M105
M109 S210
M82 ;absolute extrusion mode
START_GCODE
G92 E0
G92 E0
G1 F1500 E-1
;LAYER_COUNT:19
;LAYER:0
M107
G0 F6000 X118.966 Y144.398 Z0.26
;TYPE:SKIRT
G1 F1500 E0
G1 F1800 X119.408 Y144.118 E0.04779
G1 X119.888 Y143.91 E0.09557
G1 X120.394 Y143.777 E0.14336
G1 X120.998 Y143.713 E0.19884
G1 X208.342 Y143.712 E8.1769
G1 X209.04 Y143.722 E8.24066
G1 X209.561 Y143.77 E8.28845
G1 X210.068 Y143.896 E8.33617
G1 X210.55 Y144.098 E8.38391
G1 X210.996 Y144.371 E8.43167
G1 X211.395 Y144.709 E8.47943
G1 X211.738 Y145.104 E8.52722
G1 X212.017 Y145.546 E8.57496
G1 X212.225 Y146.025 E8.62266
G1 X212.358 Y146.531 E8.67045
G1 X212.421 Y147.134 E8.72583
G1 X212.422 Y182.162 E11.92531
G1 X212.413 Y182.889 E11.99172
G1 X212.366 Y183.41 E12.0395
G1 X212.241 Y183.918 E12.08728
G1 X212.04 Y184.4 E12.13498
G1 X211.768 Y184.847 E12.18278
G1 X211.431 Y185.246 E12.23048
G1 X211.037 Y185.59 E12.27826
G1 X210.595 Y185.87 E12.32605
G1 X210.116 Y186.079 E12.37378
G1 X209.61 Y186.212 E12.42157
G1 X209.003 Y186.277 E12.47733
G1 X184.799 Y186.278 E14.68814
G1 X183.232 Y186.288 E14.83128
G1 X146.434 Y186.288 E18.19243
G1 X145.02 Y186.278 E18.32159
G1 X121.663 Y186.278 E20.45503
G1 X120.965 Y186.269 E20.51879
G1 X120.444 Y186.222 E20.56657
G1 X119.937 Y186.097 E20.61427
G1 X119.454 Y185.895 E20.66209
G1 X119.008 Y185.623 E20.70981
G1 X118.608 Y185.286 E20.75758
G1 X118.265 Y184.891 E20.80537
G1 X117.985 Y184.449 E20.85316
G1 X117.777 Y183.97 E20.90086
G1 X117.643 Y183.465 E20.94858
G1 X117.579 Y182.853 E21.00479
G1 X117.578 Y147.762 E24.21002
G1 X117.587 Y147.097 E24.27077
G1 X117.634 Y146.576 E24.31855
G1 X117.76 Y146.068 E24.36636
G1 X117.962 Y145.586 E24.41409
G1 X118.234 Y145.14 E24.46181
G1 X118.572 Y144.741 E24.50957
G1 X118.966 Y144.398 E24.55729
G1 F1500 E23.55729
;MESH:Anet Elegoo Adapter.stl
EXCLUDE_OBJECT_START NAME=Anet_Elegoo_Adapter_stl
G0 F6000 X138.151 Y157.135
G0 X138.784 Y158.191
G0 X139.492 Y159.183
G0 X139.529 Y159.144
;TYPE:WALL-INNER
G1 F1500 E24.55729
G1 F1800 X138.917 Y158.42 E24.64388
G1 X138.629 Y157.747 E24.71074
G1 X138.521 Y157.127 E24.76823
G1 X138.559 Y156.371 E24.83737
G1 X138.835 Y155.567 E24.91501
G1 X139.423 Y154.82 E25.00185
G1 X140.178 Y154.321 E25.08451
G1 X140.852 Y154.107 E25.1491
G1 X141.25 Y154.067 E25.18564
G1 X141.8 Y154.094 E25.23594
G1 X142.122 Y154.165 E25.26605
G1 X142.848 Y154.467 E25.33788
G1 X143.316 Y154.824 E25.39164
G1 X143.768 Y155.325 E25.45327
G1 X144.039 Y155.851 E25.50732
G1 X144.227 Y156.543 E25.57282
G1 X144.244 Y157.22 E25.63468
G1 X144.085 Y157.876 E25.69633
G1 X143.909 Y158.284 E25.73692
G1 X143.431 Y158.962 E25.81269
G1 X142.744 Y159.453 E25.88982
G1 X142.215 Y159.671 E25.94208
G1 X141.526 Y159.795 E26.00603
G1 X140.733 Y159.728 E26.07872
G1 X140.14 Y159.512 E26.13636
G1 X139.529 Y159.144 E26.20151
G1 F1500 E25.20151
G0 F6000 X139.492 Y159.183
G0 X140.475 Y159.637
G0 X142.322 Y160.024
G0 X151.177 Y160.027
G0 X151.544 Y170.904
G0 X152.045 Y172.328
G0 X152.081 Y172.286
G1 F1500 E26.20151
G1 F1800 X151.736 Y171.704 E26.26331
G1 X151.627 Y171.423 E26.29084
G1 X151.544 Y170.898 E26.33939
G1 X151.546 Y153.149 E27.9606
G1 X151.576 Y152.973 E27.97691
G1 X151.774 Y152.457 E28.02739
G1 X152.048 Y152.024 E28.07419
G1 X152.508 Y151.603 E28.13115
G1 X152.968 Y151.371 E28.17821
G1 X153.62 Y151.201 E28.23975
G1 X175.896 Y151.201 E30.27446
G1 X176.372 Y151.26 E30.31827
G1 X176.968 Y151.485 E30.37646
G1 X177.447 Y151.837 E30.43075
G1 X177.702 Y152.139 E30.46686
G1 X178.025 Y152.767 E30.53136
G1 X178.114 Y153.182 E30.57013
G1 X178.112 Y171.092 E32.20604
G1 X178.057 Y171.354 E32.23049
G1 X177.872 Y171.819 E32.2762
G1 X177.718 Y172.094 E32.30499
G1 X177.38 Y172.474 E32.35145
G1 X177.12 Y172.666 E32.38097
G1 X176.625 Y172.92 E32.43179
G1 X176.023 Y173.034 E32.48775
G1 X153.67 Y173.037 E34.52949
G1 X153.171 Y172.957 E34.57565
G1 X152.622 Y172.731 E34.62988
G1 X152.081 Y172.286 E34.69386
G1 F1500 E33.69386
G0 F6000 X152.045 Y172.328
G0 X152.437 Y173.052
G0 X149.273 Y175.886
G0 X148.618 Y177.121
G0 X148.583 Y178.101
G0 X146.884 Y180.392
G1 F1500 E34.69386
G1 F1405.7 X146.257 Y180.413 E34.76724
G1 F1399.3 X145.88 Y180.377 E34.81174
G1 F1533.3 X145.377 Y180.121 E34.87226
G1 F1762.5 X144.727 Y179.755 E34.94184
G1 F1800 X144.512 Y179.585 E34.96688
G1 X144.118 Y179.161 E35.01975
G1 X143.944 Y178.9 E35.0484
G1 X143.711 Y178.404 E35.09845
G1 X143.624 Y178.096 E35.12769
G1 X143.543 Y177.31 E35.19986
G1 X143.687 Y176.528 E35.27249
G1 X143.957 Y175.953 E35.33051
G1 X144.255 Y175.547 E35.37652
G1 X144.709 Y175.129 E35.43288
G1 X145.179 Y174.848 E35.4829
G1 X145.805 Y174.628 E35.54351
G1 X146.475 Y174.567 E35.60496
G1 X147.217 Y174.68 E35.67352
G1 X147.779 Y174.919 E35.7293
G1 X148.449 Y175.394 E35.80432
G1 X148.931 Y176.072 E35.8803
G1 X149.173 Y176.638 E35.93653
G1 X149.28 Y177.366 E36.00374
G1 X149.195 Y178.092 E36.0705
G1 X149.082 Y178.458 E36.10549
G1 X148.873 Y178.891 E36.14941
G1 X148.667 Y179.194 E36.18287
G1 X148.353 Y179.537 E36.22535
G1 X147.866 Y179.907 E36.28122
G1 F1662.3 X147.058 Y180.294 E36.36983
G1 F1463.9 X146.884 Y180.392 E36.39225
G1 F1500 E35.39225
G0 F6000 X143.473 Y178.842
G0 X133.927 Y176.745
G0 X131.386 Y177.254
G0 X131.385 Y177.197
G1 F1500 E36.39225
G1 F1800 X130.37 Y177.037 E36.48611
G1 X129.992 Y176.914 E36.52242
G1 X129.069 Y176.443 E36.61707
G1 X128.198 Y175.569 E36.72977
G1 X127.641 Y174.474 E36.84199
G1 X127.451 Y173.258 E36.95441
G1 X127.644 Y172.043 E37.06678
G1 X128.203 Y170.945 E37.17932
G1 X129.073 Y170.075 E37.2917
G1 X130.15 Y169.528 E37.40204
G1 X131.374 Y169.326 E37.51535
G1 X132.592 Y169.52 E37.628
G1 X133.541 Y169.995 E37.72494
G1 X133.807 Y170.183 E37.75469
G1 X134.566 Y170.949 E37.85319
G1 X135.054 Y171.896 E37.9505
G1 X135.149 Y172.174 E37.97733
G1 X135.305 Y173.151 E38.0677
G1 X135.291 Y173.46 E38.09595
G1 X135.124 Y174.488 E38.19108
G1 X134.571 Y175.575 E38.30248
G1 X133.704 Y176.443 E38.41454
G1 X132.781 Y176.914 E38.50919
G1 X132.424 Y177.034 E38.54359
G1 X131.385 Y177.197 E38.63966
G1 F1500 E37.63966
G0 F6000 X131.386 Y177.254
G0 X132.601 Y177.002
G0 X133.588 Y176.498
G0 X135.402 Y174.756
G0 X143.591 Y175.799
G0 X148.608 Y175.077
G0 X149.239 Y175.905
G0 X184.278 Y180.304
G1 F1500 E38.63966
G1 F1356.8 X183.668 Y180.367 E38.71397
G1 F1354.4 X182.929 Y180.306 E38.80398
G1 F1476.7 X182.638 Y180.104 E38.84342
G1 F1730.4 X182.185 Y179.858 E38.8924
G1 F1800 X181.7 Y179.514 E38.94671
G1 X181.479 Y179.296 E38.97506
G1 X181.139 Y178.832 E39.02761
G1 X180.903 Y178.328 E39.07844
G1 X180.768 Y177.783 E39.12972
G1 X180.754 Y177.051 E39.1966
G1 X180.857 Y176.548 E39.2435
G1 X181.101 Y175.961 E39.30156
G1 X181.519 Y175.392 E39.36605
G1 X182.014 Y174.973 E39.42529
G1 X182.695 Y174.645 E39.49433
G1 X183.512 Y174.498 E39.57015
G1 X184.144 Y174.544 E39.62803
G1 X184.762 Y174.748 E39.68748
G1 X185.282 Y175.045 E39.74218
G1 X185.831 Y175.539 E39.80963
G1 X186.262 Y176.27 E39.88715
G1 X186.436 Y176.881 E39.94517
G1 X186.469 Y177.663 E40.01667
G1 X186.293 Y178.356 E40.08197
G1 X186.133 Y178.713 E40.11771
G1 X185.744 Y179.274 E40.18006
G1 X185.309 Y179.674 E40.23404
G1 F1778.9 X184.617 Y180.057 E40.30714
G1 F1514.9 X184.278 Y180.304 E40.35266
G1 F1500 E39.35266
G0 F6000 X186.647 Y178.517
G0 X195.162 Y175.791
G0 X197.438 Y177.001
G0 X198.654 Y177.254
G0 X198.653 Y177.197
G1 F1500 E40.35266
G1 F1800 X197.634 Y177.036 E40.44689
G1 X197.257 Y176.914 E40.48309
G1 X196.339 Y176.445 E40.57725
G1 X195.467 Y175.573 E40.68989
G1 X194.916 Y174.489 E40.80096
G1 X194.742 Y173.411 E40.9007
G1 X194.749 Y173.063 E40.93249
G1 X194.88 Y172.233 E41.00924
G1 X194.971 Y171.929 E41.03822
G1 X195.464 Y170.961 E41.13745
G1 X196.249 Y170.171 E41.23918
G1 X196.489 Y170.001 E41.26604
G1 X197.454 Y169.514 E41.36477
G1 X198.661 Y169.326 E41.47635
G1 X199.888 Y169.527 E41.58992
G1 X200.971 Y170.079 E41.70095
G1 X201.838 Y170.946 E41.81294
G1 X202.398 Y172.045 E41.92561
G1 X202.589 Y173.261 E42.03804
G1 X202.398 Y174.479 E42.15065
G1 X201.839 Y175.575 E42.26303
G1 X200.968 Y176.446 E42.37554
G1 X200.051 Y176.913 E42.46954
G1 X199.694 Y177.033 E42.50394
G1 X198.653 Y177.197 E42.6002
G1 F1500 E41.6002
G0 F6000 X198.654 Y177.254
G0 X199.758 Y177.396
G0 X199.758 Y181.2
G0 X207.675 Y181.589
G0 X207.733 Y181.589
G1 F1500 E42.6002
G1 F1800 X207.733 Y148.401 E45.63161
G1 X122.268 Y148.402 E53.43804
G1 X122.267 Y181.589 E56.46936
G1 X144.582 Y181.588 E58.50763
G1 F1762.5 X145.179 Y181.57 E58.56334
G1 F1533.3 X145.717 Y181.46 E58.62223
G1 F1386.5 X145.946 Y181.489 E58.6496
G1 F1394.1 X146.978 Y181.475 E58.77132
G1 F1463.9 X147.253 Y181.527 E58.80275
G1 F1662.3 X147.797 Y181.598 E58.85701
G1 F1800 X182.058 Y181.598 E61.98643
G1 F1730.4 X182.347 Y181.564 E62.01408
G1 F1476.7 X182.845 Y181.447 E62.07104
G1 F1353.2 X183.622 Y181.469 E62.16548
G1 F1355.6 X184.361 Y181.439 E62.25518
G1 F1524 X185.005 Y181.589 E62.32652
G1 F1785.2 X196.369 Y181.589 E63.37311
G1 F1795.7 X207.733 Y181.589 E64.41356
G1 F1500 E63.41356
G0 F6000 X207.675 Y181.589
G0 X207.344 Y158.904
G0 X191.4 Y158.58
G0 X189.948 Y159.477
G0 X188.392 Y159.797
G0 X187.316 Y159.479
G0 X186.449 Y158.904
G0 X186.493 Y158.874
G1 F1500 E64.41356
G1 F1800 X186.048 Y158.218 E64.48597
G1 X185.815 Y157.532 E64.55214
G1 X185.752 Y156.921 E64.60825
G1 X185.811 Y156.378 E64.65814
G1 X185.966 Y155.812 E64.71174
G1 X186.322 Y155.2 E64.77641
G1 X186.807 Y154.706 E64.83965
G1 X187.364 Y154.358 E64.89964
G1 X187.647 Y154.233 E64.92789
G1 X188.134 Y154.096 E64.9741
G1 X188.784 Y154.07 E65.03352
G1 X189.342 Y154.157 E65.08511
G1 X189.629 Y154.252 E65.11272
G1 X190.262 Y154.566 E65.17726
G1 X190.827 Y155.098 E65.24815
G1 X191.235 Y155.715 E65.31571
G1 X191.485 Y156.624 E65.40182
G1 X191.449 Y157.381 E65.47105
G1 X191.354 Y157.815 E65.51163
G1 X191.016 Y158.528 E65.5837
G1 X190.467 Y159.129 E65.65805
G1 X189.912 Y159.497 E65.71888
G1 X189.25 Y159.733 E65.78307
G1 X188.516 Y159.79 E65.85032
G1 X187.822 Y159.683 E65.91446
G1 X187.159 Y159.401 E65.98027
G1 X186.493 Y158.874 E66.05784
G0 F6000 X186.449 Y158.904
G0 X188.252 Y159.831
G0 X188.431 Y158.944
;TYPE:WALL-OUTER
G1 F1800 X188.047 Y158.868 E66.09359
G1 X187.638 Y158.697 E66.13409
G1 X187.172 Y158.335 E66.18799
G1 X186.83 Y157.874 E66.24042
G1 X186.654 Y157.396 E66.28694
G1 X186.598 Y156.962 E66.32691
G1 X186.649 Y156.486 E66.37064
G1 X186.74 Y156.182 E66.39962
G1 X186.98 Y155.747 E66.445
G1 X187.338 Y155.363 E66.49296
G1 X187.798 Y155.083 E66.54215
G1 X188.232 Y154.942 E66.58383
G1 X188.784 Y154.915 E66.63431
G1 X189.27 Y155.016 E66.67965
G1 X189.739 Y155.242 E66.7272
G1 X190.18 Y155.636 E66.78122
G1 X190.473 Y156.129 E66.8336
G1 X190.636 Y156.702 E66.88801
G1 X190.62 Y157.211 E66.93453
G1 X190.547 Y157.545 E66.96576
G1 X190.305 Y158.058 E67.01757
G1 X189.896 Y158.499 E67.07251
G1 X189.519 Y158.74 E67.11338
G1 X189.111 Y158.89 E67.15308
G1 X188.431 Y158.944 E67.21539
G0 F6000 X188.137 Y158.886
G1 F1500 E66.21539
G0 F6000 X187.958 Y159.771
G0 X189.396 Y160.085
G0 X195.999 Y169.898
G0 X194.914 Y172.047
G0 X194.721 Y173.261
G0 X194.914 Y174.477
G0 X195.473 Y175.572
G0 X196.343 Y176.442
G0 X197.328 Y176.945
G0 X198.512 Y177.231
G0 X198.654 Y176.336
G1 F1500 E67.21539
G1 F1800 X197.698 Y176.19 E67.30372
G1 X196.847 Y175.75 E67.39123
G1 X196.159 Y175.07 E67.47959
G1 X195.725 Y174.209 E67.56766
G1 X195.574 Y173.266 E67.65489
G1 X195.722 Y172.313 E67.74298
G1 X196.166 Y171.446 E67.83195
G1 X196.846 Y170.767 E67.91973
G1 X197.703 Y170.332 E68.00751
G1 X198.653 Y170.183 E68.09535
G1 X199.622 Y170.342 E68.18504
G1 X200.46 Y170.771 E68.27103
G1 X201.141 Y171.452 E68.359
G1 X201.579 Y172.311 E68.44707
G1 X201.728 Y173.261 E68.53491
G1 X201.579 Y174.215 E68.6231
G1 X201.146 Y175.064 E68.71015
G1 X200.461 Y175.75 E68.7987
G1 X199.607 Y176.191 E68.88649
G1 X198.654 Y176.336 E68.97454
G0 F6000 X198.358 Y176.291
G1 F1500 E67.97454
G0 F6000 X198.216 Y177.185
G0 X199.758 Y177.396
G0 X199.758 Y181.2
G0 X207.705 Y181.561
G0 X208.578 Y182.434
G1 F1500 E68.97454
G1 F1800 X208.578 Y147.556 E72.16032
G1 X121.423 Y147.557 E80.12112
G1 X121.422 Y182.434 E83.3068
G1 X145.69 Y182.434 E85.52346
G1 X145.777 Y182.444 E85.53146
G1 X183.678 Y182.442 E88.99336
G1 X183.888 Y182.434 E89.01256
G1 X208.578 Y182.434 E91.26776
G0 F6000 X208.578 Y182.134
G1 F1500 E90.26776
G0 F6000 X207.705 Y181.561
G0 X184.99 Y181.239
G0 X184.289 Y180.905
G0 X184.579 Y180.126
G0 X184.195 Y179.311
G1 F1500 E91.26776
G1 F1802.1 X183.623 Y179.394 E91.32049
G1 F1800 X183.075 Y179.32 E91.371
G1 X182.642 Y179.147 E91.41359
G1 X182.294 Y178.912 E91.45194
G1 X182.073 Y178.694 E91.4803
G1 X181.842 Y178.363 E91.51717
G1 X181.683 Y178.003 E91.55311
G1 X181.597 Y177.616 E91.58932
G1 X181.591 Y177.164 E91.63061
G1 X181.681 Y176.745 E91.66976
G1 X181.821 Y176.415 E91.7025
G1 X182.13 Y175.985 E91.75087
G1 X182.463 Y175.698 E91.79102
G1 X182.931 Y175.464 E91.83881
G1 X183.591 Y175.342 E91.90012
G1 X184.001 Y175.387 E91.93779
G1 X184.445 Y175.532 E91.98046
G1 X184.757 Y175.707 E92.01313
G1 X185.181 Y176.104 E92.06619
G1 X185.465 Y176.576 E92.1165
G1 X185.59 Y176.979 E92.15504
G1 X185.62 Y177.574 E92.20946
G1 X185.522 Y178.01 E92.25028
G1 X185.311 Y178.453 E92.2951
G1 X185.075 Y178.757 E92.33025
G1 X184.769 Y179.024 E92.36734
G1 F1802.1 X184.195 Y179.311 E92.42589
G0 F6000 X183.898 Y179.354
G1 F1500 E91.42589
G0 F6000 X184.029 Y180.248
G0 X182.173 Y179.133
G0 X181.606 Y178.445
G0 X180.369 Y176.995
G0 X175.999 Y173.41
G0 X153.701 Y173.037
G0 X152.724 Y172.774
G0 X151.913 Y172.133
G0 X152.7 Y171.689
G1 F1500 E92.42589
G1 F1800 X152.446 Y171.214 E92.47509
G1 X152.387 Y170.836 E92.51004
G1 X152.387 Y153.23 E94.11818
G1 X152.554 Y152.782 E94.16185
G1 X152.727 Y152.527 E94.19
G1 X153.035 Y152.264 E94.22699
G1 X153.188 Y152.187 E94.24264
G1 X153.697 Y152.052 E94.29074
G1 X175.963 Y152.051 E96.32453
G1 X176.352 Y152.129 E96.36077
G1 X176.707 Y152.313 E96.39729
G1 X176.979 Y152.576 E96.43185
G1 X177.21 Y152.989 E96.47507
G1 X177.271 Y153.245 E96.49911
G1 X177.271 Y171.057 E98.12607
G1 X177.037 Y171.593 E98.17949
G1 X176.792 Y171.866 E98.213
G1 X176.328 Y172.125 E98.26153
G1 X175.939 Y172.193 E98.2976
G1 X153.736 Y172.194 E100.32564
G1 X153.422 Y172.15 E100.3546
G1 X153.079 Y172.008 E100.38851
G1 X152.7 Y171.689 E100.43376
G0 F6000 X152.559 Y171.425
G1 F1500 E99.43376
G0 F6000 X151.766 Y171.872
G0 X151.911 Y172.623
G0 X148.878 Y175.327
G0 X148.231 Y176.124
G0 X148.586 Y176.796
G0 X148.583 Y178.101
G0 X147.856 Y179.188
G0 X147.059 Y179.584
G0 X145.065 Y180.033
G0 X145.544 Y179.271
G1 F1500 E100.43376
G1 F1800 X145.104 Y178.982 E100.48184
G1 X144.821 Y178.692 E100.51885
G1 X144.647 Y178.431 E100.54751
G1 X144.46 Y177.972 E100.59278
G1 X144.387 Y177.407 E100.64481
G1 X144.503 Y176.767 E100.70422
G1 X144.681 Y176.39 E100.74231
G1 X144.903 Y176.09 E100.77639
G1 X145.239 Y175.791 E100.81748
G1 X145.563 Y175.602 E100.85174
G1 X146.012 Y175.454 E100.89492
G1 X146.411 Y175.417 E100.93152
G1 X146.97 Y175.495 E100.98308
G1 X147.367 Y175.657 E101.02224
G1 X147.833 Y175.999 E101.07504
G1 X148.192 Y176.482 E101.13001
G1 X148.352 Y176.872 E101.16851
G1 X148.432 Y177.412 E101.21837
G1 X148.35 Y178.033 E101.27559
G1 X148.044 Y178.623 E101.3363
G1 X147.73 Y178.966 E101.37877
G1 X147.292 Y179.255 E101.4267
G1 X146.717 Y179.437 E101.48179
G1 X146.173 Y179.446 E101.53149
G1 X145.544 Y179.271 E101.59112
G0 F6000 X145.294 Y179.107
G1 F1500 E100.59112
G0 F6000 X144.812 Y179.875
G0 X143.473 Y178.842
G0 X133.927 Y176.745
G0 X131.244 Y177.231
G0 X131.386 Y176.336
G1 F1500 E101.59112
G1 F1800 X130.436 Y176.192 E101.67889
G1 X129.577 Y175.748 E101.76721
G1 X128.893 Y175.071 E101.85512
G1 X128.461 Y174.211 E101.94302
G1 X128.306 Y173.26 E102.03104
