;FLAVOR:Marlin
;TIME:8043
;Filament used: 12.5546m
;Layer height: 0.26
;MINX:132.044
;MINY:83.152
;MINZ:0.26
;MAXX:247.078
;MAXY:246.872
;MAXZ:13.26
;Generated with Cura_SteamEngine 5.4.0
M140 S60


; Pre-Processed for Cancel-Object support by preprocess_cancellation v0.2.0
; 4 known objects
EXCLUDE_OBJECT_DEFINE NAME=Anet_A8_Chain_x4_stl_3 CENTER=168.883,112.201 POLYGON=[[142.979,86.685],[142.979,137.753],[194.634,137.753],[194.634,86.685]]
EXCLUDE_OBJECT_DEFINE NAME=Anet_A8_Chain_x4_stl_2 CENTER=165.070,165.015 POLYGON=[[139.186,139.468],[139.186,190.536],[190.841,190.536],[190.841,139.468]]
EXCLUDE_OBJECT_DEFINE NAME=Anet_A8_Chain_x4_stl_6 CENTER=161.493,217.829 POLYGON=[[135.578,192.272],[135.578,243.339],[187.233,243.339],[187.233,192.272]]
EXCLUDE_OBJECT_DEFINE NAME=Anet_A8_Chain_x4_stl_7 CENTER=217.262,168.602 POLYGON=[[132.044,83.152],[132.044,246.872],[247.078,246.872],[247.078,83.152]]
M105
M190 S60
M104 S210
M105
M109 S210
M82 ;absolute extrusion mode
START_GCODE
G92 E0
G92 E0
G1 F1500 E-1
;LAYER_COUNT:51
;LAYER:0
M107
G0 F6000 X141.743 Y85.024 Z0.26
;TYPE:SKIRT
G1 F1500 E0
G1 F1800 X142.016 Y84.578 E0.04776
G1 X142.354 Y84.179 E0.09553
G1 X142.749 Y83.837 E0.14325
G1 X143.192 Y83.558 E0.19107
G1 X143.671 Y83.35 E0.23877
G1 X144.177 Y83.218 E0.28654
G1 X144.797 Y83.153 E0.34348
G1 X146.325 Y83.152 E0.48305
G1 X147.225 Y83.172 E0.56527
G1 X148.997 Y83.31 E0.72762
G1 X151.744 Y83.464 E0.97893
G1 X154.485 Y83.541 E1.22939
G1 X157.189 Y83.541 E1.47637
G1 X159.963 Y83.462 E1.72986
G1 X162.663 Y83.308 E1.97688
G1 X164.644 Y83.154 E2.15837
G1 X166.163 Y83.152 E2.29711
G1 X166.837 Y83.162 E2.35868
G1 X167.409 Y83.219 E2.41119
G1 X168.593 Y83.438 E2.52117
G1 X171.297 Y83.901 E2.77175
G1 X174.01 Y84.286 E3.02204
G1 X176.697 Y84.591 E3.26905
G1 X179.431 Y84.822 E3.51967
G1 X182.17 Y84.977 E3.77025
G1 X186.249 Y85.062 E4.14291
G1 X194.087 Y85.062 E4.85884
G1 X194.786 Y85.072 E4.92269
G1 X195.307 Y85.12 E4.97048
G1 X195.814 Y85.246 E5.0182
G1 X196.296 Y85.448 E5.06593
G1 X196.742 Y85.721 E5.1137
G1 X197.141 Y86.059 E5.16146
G1 X197.484 Y86.453 E5.20918
G1 X197.763 Y86.896 E5.257
G1 X197.948 Y87.312 E5.29858
G1 X199.05 Y90.304 E5.58982
G1 X200.089 Y92.885 E5.84396
G1 X201.173 Y95.373 E6.09184
G1 X202.334 Y97.844 E6.34122
G1 X203.565 Y100.281 E6.5906
G1 X204.861 Y102.679 E6.83958
G1 X206.227 Y105.041 E7.08881
G1 X207.66 Y107.363 E7.33804
G1 X209.171 Y109.668 E7.58978
G1 X210.707 Y111.87 E7.83501
G1 X212.356 Y114.098 E8.0882
G1 X214.044 Y116.247 E8.3378
G1 X215.795 Y118.353 E8.58797
G1 X217.567 Y120.364 E8.83279
G1 X219.468 Y122.403 E9.08742
G1 X221.36 Y124.323 E9.33364
G1 X223.346 Y126.224 E9.58475
G1 X225.353 Y128.04 E9.83197
G1 X227.46 Y129.84 E10.0851
G1 X229.552 Y131.53 E10.33074
G1 X231.766 Y133.214 E10.58482
G1 X233.964 Y134.791 E10.83192
G1 X236.221 Y136.316 E11.08072
G1 X238.545 Y137.792 E11.33219
G1 X240.865 Y139.175 E11.5789
G1 X243.257 Y140.509 E11.82906
G1 X245.24 Y141.554 E12.0338
G1 X245.682 Y141.832 E12.0815
G1 X246.077 Y142.175 E12.12928
G1 X246.416 Y142.574 E12.1771
G1 X246.689 Y143.019 E12.22479
G1 X246.892 Y143.501 E12.27256
G1 X247.019 Y144.008 E12.3203
G1 X247.077 Y144.6 E12.37463
G1 X247.078 Y146.123 E12.51375
G1 X247.068 Y146.8 E12.57559
G1 X246.99 Y147.968 E12.68251
G1 X246.92 Y148.799 E12.75869
G1 X246.766 Y151.533 E13.00881
G1 X246.689 Y154.282 E13.26
G1 X246.689 Y156.987 E13.50708
G1 X246.768 Y159.761 E13.76056
G1 X246.922 Y162.46 E14.00749
G1 X247.076 Y164.438 E14.18871
G1 X247.078 Y165.9 E14.32225
G1 X247.068 Y166.631 E14.38902
G1 X247.011 Y167.208 E14.44198
G1 X246.788 Y168.411 E14.55374
G1 X246.326 Y171.108 E14.80367
G1 X245.943 Y173.812 E15.05312
G1 X245.638 Y176.505 E15.30068
G1 X245.407 Y179.238 E15.5512
G1 X245.252 Y181.977 E15.80178
G1 X245.167 Y186.052 E16.17408
G1 X245.167 Y193.853 E16.88662
G1 X245.157 Y194.581 E16.95313
G1 X245.11 Y195.102 E17.00091
G1 X244.984 Y195.609 E17.04863
G1 X244.782 Y196.092 E17.09645
G1 X244.509 Y196.538 E17.14421
G1 X244.172 Y196.937 E17.19192
G1 X243.777 Y197.28 E17.2397
G1 X243.199 Y197.645 E17.30214
G1 X242.234 Y197.988 E17.39569
G1 X239.619 Y198.956 E17.65038
G1 X237.115 Y199.964 E17.89694
G1 X234.57 Y201.074 E18.15055
G1 X232.113 Y202.228 E18.39849
G1 X229.691 Y203.451 E18.64632
G1 X227.275 Y204.758 E18.89722
G1 X224.923 Y206.117 E19.14534
G1 X222.574 Y207.566 E19.39744
G1 X220.296 Y209.06 E19.64627
G1 X218.063 Y210.618 E19.89497
G1 X215.863 Y212.247 E20.14501
G1 X213.73 Y213.922 E20.39273
G1 X211.603 Y215.691 E20.64543
G1 X209.575 Y217.478 E20.89232
G1 X207.589 Y219.329 E21.1403
G1 X205.609 Y221.284 E21.39445
G1 X203.753 Y223.222 E21.63956
G1 X201.901 Y225.268 E21.89163
G1 X200.118 Y227.356 E22.14242
G1 X198.422 Y229.458 E22.38912
G1 X196.753 Y231.65 E22.64077
G1 X195.162 Y233.868 E22.8901
G1 X193.652 Y236.102 E23.13639
G1 X192.164 Y238.447 E23.39007
G1 X190.777 Y240.774 E23.63751
G1 X189.453 Y243.145 E23.88556
G1 X188.754 Y244.484 E24.02353
G1 X188.439 Y245.067 E24.08406
G1 X188.156 Y245.506 E24.13176
G1 X187.809 Y245.898 E24.17958
G1 X187.407 Y246.232 E24.22732
G1 X186.958 Y246.501 E24.27513
G1 X186.474 Y246.698 E24.32286
G1 X185.966 Y246.819 E24.37056
G1 X185.408 Y246.872 E24.42176
G1 X183.919 Y246.872 E24.55776
G1 X183.031 Y246.854 E24.63889
G1 X181.844 Y246.77 E24.74758
G1 X181.167 Y246.712 E24.80965
G1 X178.434 Y246.559 E25.05967
G1 X175.698 Y246.483 E25.30968
G1 X172.992 Y246.485 E25.55684
G1 X170.214 Y246.566 E25.8107
G1 X167.524 Y246.719 E26.0568
G1 X165.57 Y246.871 E26.23582
G1 X164.079 Y246.872 E26.37201
G1 X163.369 Y246.861 E26.43687
G1 X162.798 Y246.804 E26.48928
G1 X161.633 Y246.588 E26.59751
G1 X158.939 Y246.127 E26.84716
G1 X156.229 Y245.742 E27.09717
G1 X153.535 Y245.436 E27.34483
G1 X150.808 Y245.205 E27.59481
G1 X148.063 Y245.049 E27.84594
G1 X143.981 Y244.963 E28.21888
G1 X136.125 Y244.962 E28.93645
G1 X135.428 Y244.952 E29.00012
G1 X134.907 Y244.904 E29.04791
G1 X134.4 Y244.778 E29.09563
G1 X133.918 Y244.576 E29.14336
G1 X133.472 Y244.303 E29.19113
G1 X133.073 Y243.965 E29.23889
G1 X132.73 Y243.57 E29.28668
G1 X132.451 Y243.128 E29.33442
G1 X132.243 Y242.648 E29.3822
G1 X132.11 Y242.143 E29.4299
G1 X132.046 Y241.539 E29.48538
G1 X132.044 Y239.994 E29.6265
G1 X132.064 Y239.094 E29.70873
G1 X132.202 Y237.322 E29.87107
G1 X132.356 Y234.575 E30.12238
G1 X132.433 Y231.834 E30.37284
G1 X132.433 Y229.129 E30.61992
G1 X132.354 Y226.355 E30.8734
G1 X132.199 Y223.652 E31.1207
G1 X132.046 Y221.674 E31.30191
G1 X132.044 Y220.156 E31.44057
G1 X132.054 Y219.48 E31.50232
G1 X132.111 Y218.908 E31.55483
G1 X132.336 Y217.692 E31.66778
G1 X132.796 Y214.999 E31.91733
G1 X133.182 Y212.274 E32.16871
G1 X133.485 Y209.595 E32.41498
G1 X133.715 Y206.866 E32.66513
G1 X133.869 Y204.127 E32.91571
G1 X133.954 Y200.079 E33.28553
G1 X133.955 Y192.815 E33.94903
G1 X133.966 Y192.103 E34.01407
G1 X134.024 Y191.53 E34.06668
G1 X134.119 Y191.018 E34.11424
G1 X134.585 Y188.293 E34.36676
G1 X134.974 Y185.564 E34.61855
G1 X135.279 Y182.88 E34.86529
G1 X135.51 Y180.154 E35.11517
G1 X135.666 Y177.412 E35.36603
G1 X135.742 Y174.674 E35.61622
G1 X135.742 Y171.966 E35.86357
G1 X135.689 Y170.426 E36.00432
G1 X135.699 Y170.194 E36.02553
G1 X135.654 Y168.67 E36.16479
G1 X135.653 Y167.381 E36.28253
G1 X135.664 Y166.674 E36.34712
G1 X135.721 Y166.103 E36.39953
G1 X135.935 Y164.949 E36.50674
G1 X136.398 Y162.249 E36.75696
G1 X136.781 Y159.55 E37.00595
G1 X137.089 Y156.846 E37.25454
G1 X137.32 Y154.125 E37.50397
G1 X137.476 Y151.379 E37.75519
G1 X137.563 Y147.268 E38.13078
G1 X137.563 Y140.012 E38.79355
G1 X137.574 Y139.306 E38.85804
G1 X137.632 Y138.734 E38.91056
G1 X137.879 Y137.402 E39.0343
G1 X138.55 Y133.32 E39.41215
G1 X138.895 Y130.632 E39.65969
G1 X139.167 Y127.9 E39.91047
G1 X139.359 Y125.207 E40.15707
G1 X139.478 Y122.464 E40.40785
G1 X139.517 Y119.727 E40.65788
G1 X139.476 Y116.819 E40.92352
G1 X139.448 Y115.868 E41.01043
G1 X139.446 Y114.569 E41.12908
G1 X139.456 Y113.899 E41.19028
G1 X139.513 Y113.328 E41.2427
G1 X139.738 Y112.11 E41.35583
G1 X140.198 Y109.416 E41.60547
G1 X140.582 Y106.702 E41.85583
G1 X140.885 Y104.016 E42.10273
G1 X141.116 Y101.283 E42.35325
G1 X141.271 Y98.54 E42.6042
G1 X141.355 Y94.522 E42.97129
G1 X141.356 Y87.206 E43.63954
G1 X141.366 Y86.534 E43.70092
G1 X141.414 Y86.013 E43.74871
G1 X141.541 Y85.506 E43.79646
G1 X141.743 Y85.024 E43.84419
G1 F1500 E42.84419
;MESH:Anet_A8_Chain_x4.stl(3)
EXCLUDE_OBJECT_START NAME=Anet_A8_Chain_x4_stl_3
G0 F6000 X145.417 Y87.214
G0 X146.299 Y96.584
G0 X165.522 Y97.256
G0 X165.522 Y96.776
;TYPE:WALL-INNER
G1 F1500 E43.84419
G1 F1800 X165.103 Y97.102 E43.89268
G1 X164.614 Y97.198 E43.9382
G1 X146.952 Y97.198 E45.55146
G1 X146.464 Y97.101 E45.59691
G1 X146.043 Y96.773 E45.64565
G1 X146.044 Y100.747 E46.00864
G1 X147.553 Y100.747 E46.14647
G1 X148.063 Y100.91 E46.19538
G1 X148.282 Y101.087 E46.2211
G1 X148.501 Y100.91 E46.24682
G1 X148.955 Y100.747 E46.29088
G1 X162.441 Y100.747 E47.5227
G1 X162.786 Y100.794 E47.5545
G1 X163.065 Y100.91 E47.5821
G1 X163.284 Y101.087 E47.60782
G1 X163.503 Y100.91 E47.63354
G1 X164.012 Y100.747 E47.68236
G1 X165.522 Y100.747 E47.82028
G1 X165.522 Y96.776 E48.183
G0 F6000 X165.154 Y96.026
;TYPE:WALL-OUTER
G1 F1568 X164.777 Y96.321 E48.23319
G1 F1800 X164.614 Y96.353 E48.24836
G1 X146.952 Y96.353 E49.86162
G1 X146.789 Y96.321 E49.8768
G1 F1568 X146.412 Y96.026 E49.92699
G1 F1394.1 X146.409 Y87.118 E50.97753
G1 F1399.3 X145.321 Y87.118 E51.10537
G1 F1394.1 X145.325 Y96.12 E52.16699
G1 F1536.4 X145.218 Y96.656 E52.22548
G1 F1760.4 X145.2 Y97.381 E52.29322
G1 F1800 X145.199 Y101.592 E52.67785
G1 X147.494 Y101.595 E52.88748
G1 X147.647 Y101.646 E52.90221
G1 X147.756 Y101.733 E52.91495
G1 F1804.3 X147.861 Y102.014 E52.94228
G1 F1810.7 X147.865 Y105.88 E53.29332
G1 F1812.9 X148.704 Y105.88 E53.36941
G1 F1810.7 X148.703 Y102.014 E53.72044
G1 F1804.3 X148.808 Y101.733 E53.74778
G1 F1800 X148.916 Y101.646 E53.76044
G1 X149.124 Y101.592 E53.78007
G1 X162.52 Y101.592 E55.00367
G1 X162.758 Y101.733 E55.02894
G1 F1804.3 X162.862 Y102.014 E55.05624
G1 F1808.6 X162.862 Y105.879 E55.4076
G1 F1810.7 X163.7 Y105.879 E55.48369
G1 F1808.6 X163.704 Y102.014 E55.83505
G1 F1804.3 X163.81 Y101.733 E55.86242
G1 F1800 X163.918 Y101.646 E55.87509
G1 X164.071 Y101.595 E55.88982
G1 X166.367 Y101.592 E56.09954
G1 X166.367 Y97.381 E56.48417
G1 F1760.4 X166.348 Y96.656 E56.55191
G1 F1537.9 X166.242 Y96.12 E56.61032
G1 F1394.1 X166.246 Y87.118 E57.67195
G1 F1399.3 X165.158 Y87.118 E57.79978
G1 F1394.1 X165.154 Y96.026 E58.85032
G0 F6000 X164.918 Y96.211
G0 X164.918 Y97.256
G0 X165.233 Y99.936
G0 X164.711 Y99.936
;TYPE:SKIN
G1 F1800 X163.897 Y99.941 E58.92468
G1 X163.276 Y100.125 E58.98384
G1 X163.012 Y100.015 E59.00996
G1 X162.497 Y99.939 E59.05751
G1 X148.851 Y99.942 E60.30394
G1 X148.284 Y100.119 E60.3582
G1 X147.662 Y99.942 E60.41727
G1 X146.855 Y99.936 E60.49098
G1 X146.856 Y98.009 E60.667
G1 X164.711 Y98.009 E62.29788
G1 X164.711 Y99.936 E62.4739
G0 F6000 X165.233 Y99.936
G0 X165.158 Y97.454
G0 X164.157 Y97.487
G0 X164.157 Y98.432
G1 F1800 X164.288 Y98.562 E62.49075
G0 F6000 X164.049 Y99.518
G1 F1800 X162.962 Y98.432 E62.6311
G0 F6000 X162.962 Y97.487
G0 X165.158 Y97.454
G0 X165.161 Y100.386
G0 X163.285 Y100.627
G0 X162.904 Y99.569
G1 F1800 X161.767 Y98.432 E62.77798
G0 F6000 X161.767 Y97.487
G0 X165.158 Y97.454
G0 X165.161 Y100.386
G0 X163.285 Y100.627
G0 X161.654 Y100.458
G0 X161.654 Y99.513
G1 F1800 X160.572 Y98.432 E62.91768
G0 F6000 X160.572 Y97.487
G0 X165.158 Y97.454
G0 X165.161 Y100.386
G0 X163.473 Y100.602
G0 X160.459 Y100.458
G0 X160.459 Y99.513
G1 F1800 X159.377 Y98.432 E63.05738
G0 F6000 X159.377 Y97.487
G0 X165.158 Y97.454
G0 X165.161 Y100.386
G0 X163.473 Y100.602
G0 X159.264 Y100.458
G0 X159.264 Y99.513
G1 F1800 X158.182 Y98.432 E63.19708
G0 F6000 X158.182 Y97.487
G0 X165.158 Y97.454
G0 X165.161 Y100.386
G0 X163.473 Y100.602
G0 X158.069 Y100.458
G0 X158.069 Y99.513
G1 F1800 X156.987 Y98.432 E63.33679
G0 F6000 X156.987 Y97.487
G0 X165.158 Y97.454
G0 X165.161 Y100.386
G0 X163.473 Y100.602
G0 X156.874 Y100.458
G0 X156.874 Y99.513
G1 F1800 X155.792 Y98.432 E63.47649
G0 F6000 X155.792 Y97.487
G0 X146.408 Y97.453
G0 X146.405 Y100.386
G0 X148.094 Y100.604
G0 X155.679 Y100.458
G0 X155.679 Y99.513
G1 F1800 X154.597 Y98.432 E63.61619
G0 F6000 X154.597 Y97.487
G0 X146.408 Y97.453
G0 X146.405 Y100.386
G0 X148.094 Y100.604
G0 X154.484 Y100.458
G0 X154.484 Y99.513
G1 F1800 X153.402 Y98.432 E63.7559
G0 F6000 X153.402 Y97.487
G0 X146.408 Y97.453
G0 X146.405 Y100.386
G0 X148.094 Y100.604
G0 X153.289 Y100.458
G0 X153.289 Y99.513
G1 F1800 X152.207 Y98.432 E63.8956
G0 F6000 X152.207 Y97.487
G0 X146.408 Y97.453
G0 X146.405 Y100.386
G0 X148.094 Y100.604
G0 X152.094 Y100.458
G0 X152.094 Y99.513
G1 F1800 X151.012 Y98.432 E64.0353
G0 F6000 X151.012 Y97.487
G0 X146.408 Y97.453
G0 X146.405 Y100.386
G0 X148.094 Y100.604
G0 X150.899 Y100.458
G0 X150.899 Y99.513
G1 F1800 X149.817 Y98.432 E64.17501
G0 F6000 X149.817 Y97.487
G0 X146.408 Y97.453
G0 X146.405 Y100.386
G0 X148.282 Y100.629
G0 X149.704 Y100.458
G0 X149.704 Y99.513
G1 F1800 X148.622 Y98.432 E64.31471
G0 F6000 X148.622 Y97.487
G0 X146.408 Y97.453
G0 X146.405 Y100.386
G0 X148.282 Y100.629
G0 X148.575 Y99.58
G1 F1800 X147.427 Y98.432 E64.463
G1 F1500 E63.463
G0 F6000 X147.427 Y97.487
G0 X146.408 Y97.453
G0 X146.405 Y100.386
G0 X148.09 Y101.361
G0 X148.484 Y105.66
G0 X148.484 Y106.964
G0 X148.484 Y113.278
G0 X148.484 Y114.588
G0 X152.878 Y115.465
G0 X153.55 Y134.689
G0 X153.067 Y134.689
;TYPE:WALL-INNER
G1 F1500 E64.463
G1 F1800 X157.041 Y134.688 E64.82599
G1 X157.041 Y133.178 E64.96391
G1 X157.204 Y132.669 E65.01273
G1 X157.38 Y132.45 E65.03839
G1 X157.204 Y132.231 E65.06406
G1 X157.041 Y131.777 E65.10812
G1 X157.041 Y118.29 E66.34003
G1 X157.088 Y117.945 E66.37183
G1 X157.204 Y117.667 E66.39935
G1 X157.38 Y117.448 E66.42501
G1 X157.204 Y117.229 E66.45067
G1 X157.041 Y116.719 E66.49958
G1 X157.041 Y115.21 E66.63741
G1 X153.067 Y115.209 E67.0004
G1 X153.395 Y115.63 E67.04915
G1 X153.492 Y116.118 E67.09459
G1 X153.492 Y133.78 E68.70785
G1 X153.395 Y134.268 E68.7533
G1 X153.067 Y134.689 E68.80205
G0 F6000 X152.32 Y134.32
;TYPE:WALL-OUTER
G1 F1394.1 X143.412 Y134.323 E69.85258
G1 F1399.3 X143.412 Y135.411 E69.98042
G1 F1394.1 X152.414 Y135.407 E71.04205
G1 F1536.4 X152.95 Y135.514 E71.10054
G1 F1760.4 X153.675 Y135.532 E71.16827
G1 F1800 X157.886 Y135.533 E71.55291
G1 X157.889 Y133.237 E71.76263
G1 X157.94 Y133.084 E71.77736
G1 X158.027 Y132.975 E71.7901
G1 X158.271 Y132.871 E71.81432
G1 F1806.4 X162.174 Y132.867 E72.16956
G1 F1812.9 X162.174 Y132.028 E72.24565
G1 F1806.4 X158.271 Y132.029 E72.60089
G1 F1800 X158.027 Y131.925 E72.62511
G1 X157.94 Y131.816 E72.63785
G1 X157.886 Y131.608 E72.65748
G1 X157.886 Y118.211 E73.88117
G1 X158.027 Y117.973 E73.90644
G1 X158.271 Y117.868 E73.9307
G1 F1806.4 X162.174 Y117.87 E74.28594
G1 F1812.9 X162.174 Y117.031 E74.36203
G1 F1806.4 X158.271 Y117.026 E74.71727
G1 F1800 X158.027 Y116.922 E74.7415
G1 X157.94 Y116.813 E74.75423
G1 X157.889 Y116.66 E74.76897
G1 X157.886 Y114.365 E74.97859
G1 X152.95 Y114.365 E75.42945
G1 F1574.5 X152.225 Y114.487 E75.50622
G1 F1399.3 X143.412 Y114.486 E76.54174
G1 X143.412 Y115.574 E76.66958
G1 X152.225 Y115.575 E77.70511
G1 F1574.5 X152.479 Y115.78 E77.73919
G1 F1800 X152.615 Y115.955 E77.75944
G1 X152.647 Y116.118 E77.77461
G1 X152.647 Y133.78 E79.38787
G1 X152.615 Y133.943 E79.40304
G1 F1568 X152.32 Y134.32 E79.45323
G0 F6000 X152.02 Y134.32
G0 X153.55 Y134.32
G0 X156.68 Y134.327
G0 X156.23 Y133.877
;TYPE:SKIN
G1 F1800 X154.303 Y133.876 E79.62925
G1 X154.303 Y116.022 E81.26004
G1 X156.23 Y116.021 E81.43606
G1 X156.235 Y116.836 E81.5105
G1 X156.419 Y117.458 E81.56975
G1 X156.321 Y117.686 E81.59242
G1 X156.233 Y118.234 E81.64311
G1 X156.236 Y131.881 E82.88964
G1 X156.412 Y132.451 E82.94413
G1 X156.358 Y132.566 E82.95573
G1 X156.236 Y133.069 E83.00301
G1 X156.23 Y133.877 E83.07681
G0 F6000 X156.752 Y133.877
G0 X153.747 Y134.324
G0 X153.781 Y133.215
G0 X154.725 Y133.215
G1 F1800 X154.964 Y133.454 E83.10769
G0 F6000 X155.816 Y133.111
G1 F1800 X154.725 Y132.02 E83.24862
