;FLAVOR:Marlin
;TIME:884
;Filament used: 2.83639m
;Layer height: 0.26
;MINX:140.751
;MINY:140.751
;MINZ:0.26
;MAXX:189.249
;MAXY:189.249
;MAXZ:20.02
;Generated with Cura_SteamEngine 5.4.0
M140 S60


; Pre-Processed for Cancel-Object support by preprocess_cancellation v0.2.0
; 1 known objects
EXCLUDE_OBJECT_DEFINE NAME=Brilliant_Esboo_stl CENTER=164.941,164.817 POLYGON=[[141.596,141.596],[141.596,188.404],[188.404,188.404],[188.404,141.596]]
M105
M190 S60
M104 S210
M105
M109 S210
M82 ;absolute extrusion mode
START_GCODE
G92 E0
G92 E0
G1 F1500 E-1
;LAYER_COUNT:77
;LAYER:0
M107
G0 F6000 X147.68 Y148.023 Z0.26
;TYPE:SKIRT
G1 F1500 E0
G1 F1800 X148.784 Y146.979 E0.13879
G1 X149.558 Y146.306 E0.23247
G1 X150.663 Y145.45 E0.36015
G1 X151.321 Y144.972 E0.43443
G1 X152.59 Y144.175 E0.57131
G1 X153.505 Y143.65 E0.66767
G1 X154.768 Y143.021 E0.79654
G1 X155.644 Y142.629 E0.88421
G1 X156.975 Y142.123 E1.01427
G1 X157.86 Y141.825 E1.09956
G1 X159.083 Y141.491 E1.21537
G1 X160.034 Y141.261 E1.30473
G1 X161.567 Y141.001 E1.44676
G1 X162.573 Y140.873 E1.53939
G1 X163.924 Y140.78 E1.66308
G1 X164.94 Y140.751 E1.75592
G1 X166.278 Y140.79 E1.87819
G1 X167.331 Y140.863 E1.9746
G1 X168.859 Y141.064 E2.11537
G1 X169.683 Y141.206 E2.19175
G1 X170.997 Y141.51 E2.31494
G1 X171.976 Y141.777 E2.40763
G1 X173.271 Y142.211 E2.53238
G1 X174.223 Y142.572 E2.62538
G1 X175.336 Y143.071 E2.73679
G1 X176.277 Y143.529 E2.83238
G1 X177.558 Y144.264 E2.96728
G1 X178.427 Y144.807 E3.06088
G1 X179.498 Y145.57 E3.18099
G1 X180.335 Y146.216 E3.27756
G1 X181.348 Y147.099 E3.40031
G1 X181.977 Y147.68 E3.47852
G1 X183.021 Y148.784 E3.61731
G1 X183.694 Y149.558 E3.71099
G1 X184.554 Y150.671 E3.83947
G1 X185.12 Y151.467 E3.92868
G1 X185.825 Y152.59 E4.0498
G1 X186.35 Y153.505 E4.14615
G1 X186.979 Y154.768 E4.27503
G1 X187.371 Y155.644 E4.36269
G1 X187.877 Y156.975 E4.49276
G1 X188.175 Y157.86 E4.57805
G1 X188.509 Y159.083 E4.69385
G1 X188.751 Y160.091 E4.78854
G1 X188.999 Y161.565 E4.92507
G1 X189.127 Y162.571 E5.0177
G1 X189.22 Y163.924 E5.14157
G1 X189.249 Y164.939 E5.23432
G1 X189.21 Y166.278 E5.35668
G1 X189.137 Y167.331 E5.45309
G1 X188.936 Y168.858 E5.59377
G1 X188.793 Y169.685 E5.67043
G1 X188.494 Y170.979 E5.79174
G1 X188.238 Y171.928 E5.88152
G1 X187.792 Y173.263 E6.01009
G1 X187.478 Y174.109 E6.09251
G1 X186.873 Y175.454 E6.22722
G1 X186.47 Y176.279 E6.31109
G1 X185.736 Y177.558 E6.44578
G1 X185.193 Y178.427 E6.53938
G1 X184.43 Y179.498 E6.65949
G1 X183.784 Y180.335 E6.75607
G1 X182.901 Y181.348 E6.87881
G1 X182.32 Y181.977 E6.95702
G1 X181.216 Y183.021 E7.09581
G1 X180.442 Y183.694 E7.1895
G1 X179.337 Y184.55 E7.31717
G1 X178.679 Y185.028 E7.39146
G1 X177.41 Y185.825 E7.52833
G1 X176.495 Y186.35 E7.62469
G1 X175.232 Y186.979 E7.75357
G1 X174.356 Y187.371 E7.84123
G1 X173.025 Y187.877 E7.97129
G1 X172.14 Y188.175 E8.05659
G1 X170.917 Y188.509 E8.17239
G1 X169.966 Y188.739 E8.26176
G1 X168.433 Y188.999 E8.40378
G1 X167.427 Y189.127 E8.49641
G1 X166.076 Y189.22 E8.62011
G1 X165.06 Y189.249 E8.71295
G1 X163.722 Y189.21 E8.83521
G1 X162.669 Y189.137 E8.93162
G1 X161.141 Y188.936 E9.0724
G1 X160.317 Y188.794 E9.14877
G1 X159.003 Y188.49 E9.27196
G1 X158.024 Y188.223 E9.36465
G1 X156.729 Y187.789 E9.4894
G1 X155.776 Y187.428 E9.58249
G1 X154.545 Y186.873 E9.70583
G1 X153.716 Y186.468 E9.7901
G1 X152.535 Y185.792 E9.91439
G1 X151.668 Y185.26 E10.00731
G1 X150.507 Y184.434 E10.13745
G1 X149.792 Y183.893 E10.21935
G1 X148.652 Y182.901 E10.35738
G1 X148.023 Y182.32 E10.4356
G1 X146.979 Y181.216 E10.57438
G1 X146.306 Y180.442 E10.66807
G1 X145.448 Y179.332 E10.79622
G1 X144.874 Y178.526 E10.8866
G1 X144.157 Y177.381 E11.01
G1 X143.649 Y176.494 E11.10336
G1 X143.075 Y175.344 E11.22076
G1 X142.668 Y174.459 E11.30974
G1 X142.123 Y173.025 E11.44986
G1 X141.825 Y172.14 E11.53515
G1 X141.491 Y170.917 E11.65096
G1 X141.261 Y169.966 E11.74032
G1 X141.001 Y168.433 E11.88235
G1 X140.873 Y167.427 E11.97498
G1 X140.78 Y166.076 E12.09867
G1 X140.751 Y165.061 E12.19142
G1 X140.79 Y163.722 E12.31378
G1 X140.863 Y162.669 E12.41019
G1 X141.064 Y161.141 E12.55096
G1 X141.206 Y160.317 E12.62734
G1 X141.51 Y159.003 E12.75053
G1 X141.777 Y158.024 E12.84322
G1 X142.208 Y156.737 E12.96719
G1 X142.522 Y155.891 E13.04961
G1 X143.127 Y154.546 E13.18432
G1 X143.53 Y153.721 E13.26819
G1 X144.264 Y152.442 E13.40288
G1 X144.807 Y151.573 E13.49648
G1 X145.57 Y150.502 E13.61659
G1 X146.216 Y149.665 E13.71317
G1 X147.099 Y148.652 E13.83591
G1 X147.68 Y148.023 E13.91413
G0 F6000 X148.301 Y148.596
G1 F1800 X149.339 Y147.616 E14.04452
G1 X150.075 Y146.974 E14.13373
G1 X151.16 Y146.134 E14.25906
G1 X151.818 Y145.656 E14.33335
G1 X153.039 Y144.891 E14.46496
G1 X153.882 Y144.406 E14.55379
G1 X155.114 Y143.792 E14.67952
G1 X155.945 Y143.419 E14.76272
G1 X157.245 Y142.924 E14.88978
G1 X158.13 Y142.626 E14.97508
G1 X159.282 Y142.312 E15.08414
G1 X160.233 Y142.082 E15.17351
G1 X161.675 Y141.839 E15.30708
G1 X162.631 Y141.716 E15.39512
G1 X163.949 Y141.625 E15.5158
G1 X164.915 Y141.596 E15.60407
G1 X166.253 Y141.635 E15.72634
G1 X167.221 Y141.701 E15.81496
G1 X168.717 Y141.897 E15.95277
G1 X169.493 Y142.029 E16.02467
G1 X170.776 Y142.325 E16.14494
G1 X171.708 Y142.578 E16.23315
G1 X172.972 Y143.001 E16.3549
G1 X173.877 Y143.343 E16.44327
G1 X174.99 Y143.842 E16.55468
G1 X175.857 Y144.262 E16.64267
G1 X177.111 Y144.981 E16.77471
G1 X177.937 Y145.496 E16.86362
G1 X178.983 Y146.24 E16.98086
G1 X179.78 Y146.853 E17.0727
G1 X180.775 Y147.72 E17.19325
G1 X181.404 Y148.301 E17.27146
G1 X182.384 Y149.339 E17.40185
G1 X183.026 Y150.075 E17.49106
G1 X183.866 Y151.161 E17.61647
G1 X184.404 Y151.916 E17.70115
G1 X185.109 Y153.039 E17.82226
G1 X185.594 Y153.882 E17.9111
G1 X186.208 Y155.114 E18.03683
G1 X186.581 Y155.945 E18.12003
G1 X187.076 Y157.245 E18.24709
G1 X187.374 Y158.13 E18.33238
G1 X187.688 Y159.282 E18.44145
G1 X187.918 Y160.232 E18.53073
G1 X188.161 Y161.673 E18.66421
G1 X188.284 Y162.629 E18.75225
G1 X188.375 Y163.949 E18.87311
G1 X188.404 Y164.914 E18.96129
G1 X188.365 Y166.253 E19.08365
G1 X188.299 Y167.221 E19.17227
G1 X188.103 Y168.716 E19.30999
G1 X187.97 Y169.495 E19.38218
G1 X187.678 Y170.759 E19.50067
G1 X187.422 Y171.708 E19.59045
G1 X186.999 Y172.971 E19.71211
G1 X186.707 Y173.763 E19.78922
G1 X186.113 Y175.085 E19.9216
G1 X185.737 Y175.859 E20.0002
G1 X185.019 Y177.111 E20.13202
G1 X184.504 Y177.937 E20.22094
G1 X183.76 Y178.983 E20.33818
G1 X183.147 Y179.78 E20.43002
G1 X182.28 Y180.775 E20.55057
G1 X181.699 Y181.404 E20.62878
G1 X180.661 Y182.384 E20.75917
G1 X179.925 Y183.026 E20.84838
G1 X178.84 Y183.866 E20.97371
G1 X178.182 Y184.344 E21.048
G1 X176.961 Y185.109 E21.17961
G1 X176.118 Y185.594 E21.26844
G1 X174.886 Y186.208 E21.39418
G1 X174.055 Y186.581 E21.47738
G1 X172.755 Y187.076 E21.60444
G1 X171.87 Y187.374 E21.68973
G1 X170.718 Y187.688 E21.7988
G1 X169.767 Y187.918 E21.88816
G1 X168.325 Y188.161 E22.02174
G1 X167.369 Y188.284 E22.10978
G1 X166.051 Y188.375 E22.23045
G1 X165.085 Y188.404 E22.31872
G1 X163.747 Y188.365 E22.44099
G1 X162.779 Y188.299 E22.52961
G1 X161.283 Y188.103 E22.66743
G1 X160.507 Y187.971 E22.73933
G1 X159.224 Y187.675 E22.85959
G1 X158.292 Y187.422 E22.9478
G1 X157.028 Y186.999 E23.06955
G1 X156.123 Y186.657 E23.15792
G1 X154.914 Y186.113 E23.27902
G1 X154.136 Y185.735 E23.35802
G1 X152.976 Y185.071 E23.48011
G1 X152.158 Y184.571 E23.56768
G1 X151.017 Y183.76 E23.69554
G1 X150.302 Y183.219 E23.77744
G1 X149.225 Y182.28 E23.90795
G1 X148.596 Y181.699 E23.98616
G1 X147.616 Y180.661 E24.11656
G1 X146.974 Y179.925 E24.20576
G1 X146.135 Y178.84 E24.33104
G1 X145.59 Y178.078 E24.41661
G1 X144.89 Y176.96 E24.5371
G1 X144.405 Y176.116 E24.62601
G1 X143.842 Y174.99 E24.741
G1 X143.458 Y174.158 E24.8247
G1 X142.924 Y172.755 E24.96182
G1 X142.626 Y171.87 E25.04712
G1 X142.312 Y170.718 E25.15618
G1 X142.082 Y169.767 E25.24555
G1 X141.839 Y168.325 E25.37912
G1 X141.716 Y167.369 E25.46716
G1 X141.625 Y166.051 E25.58783
G1 X141.596 Y165.086 E25.67602
G1 X141.635 Y163.747 E25.79837
G1 X141.701 Y162.779 E25.887
G1 X141.897 Y161.283 E26.02481
G1 X142.029 Y160.507 E26.09671
G1 X142.325 Y159.224 E26.21698
G1 X142.578 Y158.292 E26.30519
G1 X143.001 Y157.029 E26.42685
G1 X143.293 Y156.237 E26.50395
G1 X143.887 Y154.915 E26.63633
G1 X144.263 Y154.141 E26.71493
G1 X144.981 Y152.889 E26.84676
G1 X145.496 Y152.063 E26.93567
G1 X146.24 Y151.017 E27.05292
G1 X146.853 Y150.22 E27.14476
G1 X147.72 Y149.225 E27.2653
G1 X148.301 Y148.596 E27.34352
G1 F1500 E26.34352
;MESH:Brilliant Esboo.stl
EXCLUDE_OBJECT_START NAME=Brilliant_Esboo_stl
G0 F6000 X156.667 Y158.141
G0 X155.381 Y161.016
G0 X155.036 Y161.978
G0 X154.788 Y162.97
G0 X154.638 Y163.981
G0 X154.588 Y165
G0 X154.638 Y166.019
G0 X154.788 Y167.03
G0 X155.036 Y168.022
G0 X155.381 Y168.984
G0 X155.817 Y169.907
G0 X156.342 Y170.784
G0 X156.952 Y171.605
G0 X157.638 Y172.362
G0 X158.395 Y173.048
G0 X159.216 Y173.658
G0 X160.093 Y174.183
G0 X161.016 Y174.619
G0 X161.978 Y174.964
G0 X162.78 Y175.164
G0 X165 Y175.472
G0 X165 Y175.413
;TYPE:WALL-INNER
G1 F1500 E27.34352
G1 F1800 X163.983 Y175.364 E27.43652
G1 X162.966 Y175.212 E27.53044
G1 X161.975 Y174.965 E27.62373
G1 X161.015 Y174.621 E27.71688
G1 X160.089 Y174.183 E27.81044
G1 X159.213 Y173.658 E27.90373
G1 X158.393 Y173.049 E27.99702
G1 X157.594 Y172.319 E28.09588
G1 X156.951 Y171.607 E28.18351
G1 X156.341 Y170.786 E28.27693
G1 X155.817 Y169.911 E28.37009
G1 X155.379 Y168.985 E28.46366
G1 X155.035 Y168.025 E28.5568
G1 X154.787 Y167.032 E28.65029
G1 X154.636 Y166.018 E28.74393
G1 X154.588 Y165.062 E28.83136
G1 X154.636 Y163.983 E28.93002
G1 X154.788 Y162.965 E29.02403
G1 X155.034 Y161.977 E29.11703
G1 X155.406 Y160.955 E29.21637
G1 X155.817 Y160.089 E29.30393
G1 X156.341 Y159.214 E29.39709
G1 X156.951 Y158.393 E29.49051
G1 X157.681 Y157.594 E29.58937
G1 X158.393 Y156.951 E29.677
G1 X159.213 Y156.342 E29.77029
G1 X160.089 Y155.817 E29.86358
G1 X161.015 Y155.379 E29.95714
G1 X161.975 Y155.035 E30.05029
G1 X162.966 Y154.788 E30.14358
G1 X163.983 Y154.636 E30.2375
G1 X165 Y154.586 E30.33051
G1 X166.017 Y154.636 E30.42351
G1 X167.034 Y154.788 E30.51744
G1 X167.958 Y155.015 E30.60435
G1 X168.985 Y155.379 E30.70387
G1 X169.911 Y155.817 E30.79744
G1 X170.787 Y156.342 E30.89072
G1 X171.607 Y156.951 E30.98402
G1 X172.363 Y157.637 E31.07726
G1 X173.049 Y158.393 E31.17051
G1 X173.659 Y159.214 E31.26393
G1 X174.183 Y160.09 E31.35717
G1 X174.641 Y161.068 E31.45581
G1 X174.966 Y161.977 E31.54399
G1 X175.212 Y162.965 E31.63699
G1 X175.364 Y163.983 E31.731
G1 X175.414 Y165 E31.82401
G1 X175.364 Y166.018 E31.91711
G1 X175.213 Y167.032 E32.01075
G1 X174.985 Y167.958 E32.09785
G1 X174.621 Y168.985 E32.19738
G1 X174.183 Y169.911 E32.29094
G1 X173.659 Y170.786 E32.3841
G1 X173.049 Y171.607 E32.47753
G1 X172.363 Y172.363 E32.57077
G1 X171.557 Y173.09 E32.66992
G1 X170.787 Y173.658 E32.75731
G1 X169.911 Y174.183 E32.8506
G1 X168.985 Y174.621 E32.94416
G1 X168.025 Y174.965 E33.03731
G1 X167.034 Y175.212 E33.1306
G1 X166.017 Y175.364 E33.22452
G1 X165 Y175.413 E33.31752
G1 F1500 E32.31752
G0 F6000 X165 Y175.472
G0 X164.626 Y183.34
G0 X165 Y183.73
G1 F1500 E33.31752
G1 F1800 X166.846 Y183.639 E33.48634
G1 X168.639 Y183.374 E33.6519
G1 X170.456 Y182.92 E33.82297
G1 X172.159 Y182.31 E33.9882
G1 X173.837 Y181.514 E34.15784
G1 X175.396 Y180.58 E34.32384
G1 X176.889 Y179.474 E34.49355
G1 X178.245 Y178.245 E34.66071
G1 X179.474 Y176.889 E34.82787
G1 X180.582 Y175.393 E34.99791
G1 X181.514 Y173.837 E35.16358
G1 X182.31 Y172.159 E35.33323
G1 X182.919 Y170.456 E35.49843
G1 X183.376 Y168.631 E35.67027
G1 X183.639 Y166.847 E35.83498
G1 X183.73 Y165 E36.00389
G1 X183.639 Y163.154 E36.17271
G1 X183.373 Y161.356 E36.33873
G1 X182.922 Y159.551 E36.50867
G1 X182.31 Y157.841 E36.67456
G1 X181.514 Y156.163 E36.8442
G1 X180.582 Y154.607 E37.00987
G1 X179.474 Y153.111 E37.17992
G1 X178.245 Y151.755 E37.34708
G1 X176.889 Y150.526 E37.51424
G1 X175.396 Y149.42 E37.68395
G1 X173.837 Y148.486 E37.84995
G1 X172.159 Y147.69 E38.01959
G1 X170.456 Y147.081 E38.18479
G1 X168.639 Y146.626 E38.35588
G1 X166.846 Y146.361 E38.52144
G1 X165 Y146.27 E38.69026
G1 X163.154 Y146.361 E38.85907
G1 X161.361 Y146.626 E39.02463
G1 X159.544 Y147.081 E39.19572
G1 X157.841 Y147.69 E39.36092
G1 X156.163 Y148.486 E39.53056
G1 X154.604 Y149.42 E39.69656
G1 X153.111 Y150.526 E39.86627
G1 X151.756 Y151.756 E40.03343
G1 X150.526 Y153.111 E40.20058
G1 X149.418 Y154.607 E40.37062
G1 X148.486 Y156.163 E40.53629
G1 X147.69 Y157.841 E40.70593
G1 X147.079 Y159.551 E40.8718
G1 X146.627 Y161.356 E41.04176
G1 X146.361 Y163.154 E41.20778
G1 X146.27 Y165 E41.3766
G1 X146.361 Y166.847 E41.54551
G1 X146.624 Y168.631 E41.71022
G1 X147.081 Y170.456 E41.88206
G1 X147.69 Y172.159 E42.04726
G1 X148.486 Y173.837 E42.2169
G1 X149.418 Y175.393 E42.38258
G1 X150.526 Y176.889 E42.55262
G1 X151.756 Y178.244 E42.71977
G1 X153.111 Y179.474 E42.88693
G1 X154.604 Y180.58 E43.05664
G1 X156.163 Y181.514 E43.22264
G1 X157.841 Y182.31 E43.39228
G1 X159.544 Y182.919 E43.55748
G1 X161.361 Y183.374 E43.72857
G1 X163.154 Y183.639 E43.89412
G1 X165 Y183.73 E44.06294
G0 F6000 X165 Y184.576
;TYPE:WALL-OUTER
G1 F1800 X166.929 Y184.481 E44.23935
G1 X168.803 Y184.204 E44.41239
G1 X170.702 Y183.729 E44.59118
G1 X172.484 Y183.091 E44.76407
G1 X174.236 Y182.26 E44.94119
G1 X175.866 Y181.284 E45.11472
G1 X177.425 Y180.128 E45.292
G1 X178.843 Y178.843 E45.46679
G1 X180.128 Y177.425 E45.64158
G1 X181.286 Y175.863 E45.81919
G1 X182.26 Y174.236 E45.99239
G1 X183.091 Y172.483 E46.16959
G1 X183.729 Y170.702 E46.3424
G1 X184.206 Y168.795 E46.52195
G1 X184.481 Y166.929 E46.69423
G1 X184.576 Y165 E46.87064
G1 X184.481 Y163.071 E47.04705
G1 X184.203 Y161.191 E47.22064
G1 X183.731 Y159.305 E47.39822
G1 X183.091 Y157.516 E47.57177
G1 X182.26 Y155.764 E47.74889
G1 X181.286 Y154.137 E47.92209
G1 X180.128 Y152.575 E48.0997
G1 X178.843 Y151.157 E48.27449
G1 X177.425 Y149.872 E48.44928
G1 X175.866 Y148.716 E48.62656
G1 X174.236 Y147.74 E48.80009
G1 X172.484 Y146.909 E48.97721
G1 X170.702 Y146.271 E49.1501
G1 X168.803 Y145.796 E49.3289
G1 X166.929 Y145.519 E49.50193
G1 X165 Y145.424 E49.67834
G1 X163.071 Y145.519 E49.85475
G1 X161.197 Y145.796 E50.02778
G1 X159.298 Y146.271 E50.20658
G1 X157.516 Y146.909 E50.37947
G1 X155.764 Y147.74 E50.55658
G1 X154.134 Y148.716 E50.73012
G1 X152.575 Y149.872 E50.9074
G1 X151.157 Y151.157 E51.08219
G1 X149.872 Y152.575 E51.25698
G1 X148.714 Y154.137 E51.43458
G1 X147.74 Y155.764 E51.60779
G1 X146.909 Y157.516 E51.78491
G1 X146.269 Y159.305 E51.95846
G1 X145.797 Y161.191 E52.13604
G1 X145.519 Y163.071 E52.30963
G1 X145.424 Y165 E52.48604
G1 X145.519 Y166.929 E52.66245
G1 X145.794 Y168.795 E52.83473
G1 X146.271 Y170.702 E53.01428
G1 X146.909 Y172.484 E53.18717
G1 X147.74 Y174.236 E53.36429
G1 X148.714 Y175.863 E53.53749
G1 X149.872 Y177.425 E53.7151
G1 X151.157 Y178.843 E53.88989
G1 X152.575 Y180.128 E54.06468
G1 X154.134 Y181.284 E54.24196
G1 X155.764 Y182.26 E54.41549
G1 X157.516 Y183.091 E54.59261
G1 X159.298 Y183.729 E54.76549
G1 X161.197 Y184.204 E54.94429
G1 X163.071 Y184.481 E55.11733
G1 X165 Y184.576 E55.29374
G0 F6000 X165.299 Y184.562
G1 F1500 E54.29374
G0 F6000 X165.256 Y183.661
G0 X164.548 Y183.336
G0 X164.937 Y175.783
G0 X164.979 Y174.568
G1 F1500 E55.29374
G1 F1800 X164.049 Y174.521 E55.37879
G1 X163.128 Y174.383 E55.46386
G1 X162.224 Y174.158 E55.54895
G1 X161.336 Y173.839 E55.63513
G1 X160.489 Y173.438 E55.72073
G1 X159.681 Y172.954 E55.80676
G1 X158.947 Y172.411 E55.89016
G1 X158.234 Y171.766 E55.97798
G1 X157.603 Y171.07 E56.06379
G1 X157.046 Y170.319 E56.14919
G1 X156.562 Y169.511 E56.23522
G1 X156.161 Y168.664 E56.32082
G1 X155.842 Y167.776 E56.40701
G1 X155.617 Y166.872 E56.4921
G1 X155.477 Y165.932 E56.5789
G1 X155.432 Y164.979 E56.66605
G1 X155.479 Y164.049 E56.7511
G1 X155.617 Y163.127 E56.83626
G1 X155.842 Y162.225 E56.92117
G1 X156.161 Y161.336 E57.00744
G1 X156.562 Y160.489 E57.09304
G1 X157.046 Y159.681 E57.17907
G1 X157.603 Y158.93 E57.26448
G1 X158.234 Y158.234 E57.35029
G1 X158.947 Y157.589 E57.43811
G1 X159.681 Y157.046 E57.5215
