;FLAVOR:Marlin
;TIME:3151
;Filament used: 6.34625m
;Layer height: 0.26
;MINX:121.435
;MINY:101.551
;MINZ:0.26
;MAXX:207.848
;MAXY:202.959
;MAXZ:20.28
;Generated with Cura_SteamEngine 5.4.0
M140 S60


; Pre-Processed for Cancel-Object support by preprocess_cancellation v0.2.0
; 2 known objects
EXCLUDE_OBJECT_DEFINE NAME=MPCNCdragchain_stl CENTER=164.368,131.595 POLYGON=[[126.466,105.298],[126.466,144.014],[202.839,144.014],[202.839,105.298]]
EXCLUDE_OBJECT_DEFINE NAME=CableChainEnds_stl CENTER=165.549,160.282 POLYGON=[[125.252,124.37],[125.252,200.271],[204.041,200.271],[204.041,124.37]]
M105
M190 S60
M104 S210
M105
M109 S210
M82 ;absolute extrusion mode
START_GCODE
G92 E0
G92 E0
G1 F1500 E-1
;LAYER_COUNT:78
;LAYER:0
M107
G0 F6000 X125.842 Y124.542 Z0.26
;TYPE:SKIRT
G1 F1500 E0
G1 F1800 X126.217 Y124.181 E0.04755
G1 X127.163 Y123.398 E0.15971
G1 X129.283 Y121.595 E0.41392
G1 X131.264 Y119.811 E0.65742
G1 X133.296 Y117.873 E0.9139
G1 X135.196 Y115.958 E1.16031
G1 X137.055 Y113.972 E1.40878
G1 X138.888 Y111.902 E1.66133
G1 X140.607 Y109.846 E1.90612
G1 X142.329 Y107.663 E2.16009
G1 X144.722 Y104.412 E2.52881
G1 X145.36 Y103.711 E2.61539
G1 X145.8 Y103.306 E2.67001
G1 X146.519 Y102.772 E2.75181
G1 X147.389 Y102.264 E2.84384
G1 X148.593 Y101.819 E2.96108
G1 X149.605 Y101.619 E3.05531
G1 X150.531 Y101.56 E3.14006
G1 X151.223 Y101.551 E3.20327
G1 X177.923 Y101.551 E5.64207
G1 X178.656 Y101.562 E5.70903
G1 X179.475 Y101.623 E5.78404
G1 X180.043 Y101.72 E5.83667
G1 X181.075 Y101.986 E5.93402
G1 X182.011 Y102.417 E6.02814
G1 X182.694 Y102.82 E6.10058
G1 X183.146 Y103.149 E6.15164
G1 X183.944 Y103.864 E6.24951
G1 X184.524 Y104.563 E6.33248
G1 X185.037 Y105.25 E6.41079
G1 X186.715 Y107.434 E6.66236
G1 X188.457 Y109.572 E6.91426
G1 X190.241 Y111.637 E7.16352
G1 X192.104 Y113.677 E7.41587
G1 X193.971 Y115.607 E7.66114
G1 X195.937 Y117.528 E7.91221
G1 X197.95 Y119.387 E8.16249
G1 X200.007 Y121.18 E8.41173
G1 X202.918 Y123.555 E8.75489
G1 X203.257 Y123.872 E8.79729
G1 X204.59 Y125.308 E8.97625
G1 X205.047 Y125.855 E9.04136
G1 X205.727 Y126.73 E9.14258
G1 X206.485 Y128.055 E9.28201
G1 X206.848 Y128.833 E9.36043
G1 X207.034 Y129.33 E9.4089
G1 X207.511 Y131.003 E9.5678
G1 X207.673 Y131.736 E9.63637
G1 X207.808 Y132.746 E9.72945
G1 X207.848 Y133.5 E9.79841
G1 X207.838 Y134.308 E9.87222
G1 X207.785 Y135.021 E9.93753
G1 X207.562 Y136.343 E10.05999
G1 X207.331 Y137.258 E10.14619
G1 X207.137 Y137.869 E10.20474
G1 X206.863 Y138.643 E10.27974
G1 X206.488 Y139.47 E10.36268
G1 X205.787 Y140.883 E10.50675
G1 X204.589 Y143.4 E10.76137
G1 X203.485 Y145.902 E11.01116
G1 X202.456 Y148.424 E11.25996
G1 X201.489 Y151 E11.51129
G1 X200.607 Y153.566 E11.75913
G1 X199.801 Y156.147 E12.00611
G1 X199.054 Y158.8 E12.25785
G1 X198.385 Y161.462 E12.50856
G1 X197.796 Y164.124 E12.75759
G1 X197.285 Y166.791 E13.00563
G1 X196.845 Y169.496 E13.25595
G1 X196.481 Y172.22 E13.50698
G1 X196.199 Y174.908 E13.75385
G1 X195.99 Y177.642 E14.0043
G1 X195.859 Y180.347 E14.25167
G1 X195.802 Y183.707 E14.55862
G1 X195.802 Y189.334 E15.07259
G1 X195.792 Y190.037 E15.13681
G1 X195.744 Y190.557 E15.18451
G1 X195.618 Y191.065 E15.23232
G1 X195.381 Y191.63 E15.28828
G1 X193.673 Y194.318 E15.57918
G1 X192.639 Y196.034 E15.76217
G1 X192.336 Y196.46 E15.80992
G1 X191.971 Y196.835 E15.85772
G1 X191.554 Y197.149 E15.9054
G1 X191.093 Y197.397 E15.95322
G1 X190.6 Y197.572 E16.001
G1 X190.146 Y197.662 E16.04328
G1 X187.521 Y198 E16.28503
G1 X184.818 Y198.424 E16.53494
G1 X182.129 Y198.923 E16.78475
G1 X179.476 Y199.493 E17.0326
G1 X176.796 Y200.15 E17.28464
G1 X174.154 Y200.878 E17.53496
G1 X171.581 Y201.664 E17.7807
G1 X168.336 Y202.767 E18.09376
G1 X167.83 Y202.897 E18.14148
G1 X167.243 Y202.957 E18.19537
G1 X145.911 Y202.959 E20.14385
G1 X145.213 Y202.95 E20.20761
G1 X144.692 Y202.903 E20.25539
G1 X144.185 Y202.778 E20.30309
G1 X143.702 Y202.576 E20.35091
G1 X143.256 Y202.304 E20.39863
G1 X142.856 Y201.967 E20.4464
G1 X142.513 Y201.572 E20.49418
G1 X142.233 Y201.13 E20.54198
G1 X142.025 Y200.651 E20.58968
G1 X141.891 Y200.146 E20.6374
G1 X141.827 Y199.536 E20.69342
G1 X141.826 Y197.819 E20.85025
G1 X141.787 Y195.031 E21.10494
G1 X141.67 Y192.293 E21.35526
G1 X141.479 Y189.592 E21.60258
G1 X141.208 Y186.863 E21.85308
G1 X140.861 Y184.152 E22.10272
G1 X140.439 Y181.464 E22.35125
G1 X139.939 Y178.774 E22.60117
G1 X139.369 Y176.124 E22.84876
G1 X138.715 Y173.456 E23.09967
G1 X137.992 Y170.827 E23.34872
G1 X137.185 Y168.192 E23.60044
G1 X136.325 Y165.642 E23.84624
G1 X135.359 Y163.024 E24.10113
G1 X134.372 Y160.565 E24.34316
G1 X133.243 Y157.971 E24.60156
G1 X132.107 Y155.549 E24.84592
G1 X130.875 Y153.102 E25.09616
G1 X129.575 Y150.696 E25.34595
G1 X128.219 Y148.344 E25.59393
G1 X126.785 Y146.013 E25.84391
G1 X124.556 Y142.656 E26.21198
G1 X123.65 Y141.359 E26.35649
G1 X122.938 Y140.238 E26.47779
G1 X122.537 Y139.369 E26.56521
G1 X122.222 Y138.613 E26.64001
G1 X121.94 Y137.662 E26.73062
G1 X121.555 Y135.769 E26.90707
G1 X121.474 Y134.889 E26.98779
G1 X121.435 Y134.089 E27.06094
G1 X121.499 Y133.196 E27.14272
G1 X121.656 Y132.22 E27.23302
G1 X121.796 Y131.524 E27.29786
G1 X122.05 Y130.528 E27.39175
G1 X122.26 Y129.793 E27.46157
G1 X122.499 Y129.22 E27.51828
G1 X122.833 Y128.516 E27.58945
G1 X123.093 Y128.034 E27.63948
G1 X123.496 Y127.364 E27.71089
G1 X124.071 Y126.567 E27.80066
G1 X124.721 Y125.801 E27.89242
G1 X125.842 Y124.542 E28.0464
G1 F1500 E27.0464
G0 F6000 X128.858 Y127.084
G1 F1500 E28.0464
G1 F1800 X128.996 Y127.03 E28.05993
G1 X129.069 Y126.993 E28.06741
G1 X129.554 Y126.685 E28.11989
G1 X129.683 Y126.556 E28.13655
G1 X129.699 Y126.513 E28.14074
G1 X129.947 Y126.428 E28.16469
G1 X130.003 Y126.405 E28.17022
G1 X130.55 Y126.125 E28.22635
G1 X130.691 Y126.008 E28.24308
G1 X130.712 Y125.964 E28.24753
G1 X131.51 Y125.725 E28.32362
G1 X131.55 Y125.711 E28.32749
G1 X132.13 Y125.472 E28.38479
G1 X132.28 Y125.368 E28.40147
G1 X132.307 Y125.321 E28.40642
G1 X133.784 Y125.081 E28.5431
G1 X134.498 Y125.008 E28.60865
G1 X135.174 Y124.965 E28.67052
G1 X135.889 Y124.945 E28.73586
G1 X136.547 Y124.944 E28.79596
G1 X137.261 Y124.962 E28.8612
G1 X138.065 Y125.01 E28.93477
G1 X138.664 Y125.083 E28.98989
G1 X139.818 Y125.271 E29.09668
G1 X139.856 Y125.33 E29.10309
G1 X140.009 Y125.427 E29.11964
G1 X140.636 Y125.656 E29.18061
G1 X140.682 Y125.67 E29.185
G1 X141.427 Y125.85 E29.25501
G1 X141.46 Y125.911 E29.26134
G1 X141.592 Y126.012 E29.27652
G1 X142.291 Y126.357 E29.34773
G1 X142.347 Y126.38 E29.35325
G1 X142.591 Y126.459 E29.37668
G1 X142.615 Y126.52 E29.38267
G1 X142.747 Y126.644 E29.39921
G1 X143.376 Y127.019 E29.4661
G1 X143.483 Y127.064 E29.4767
G1 X144.267 Y127.276 E29.55089
G1 X144.377 Y127.291 E29.56103
G1 X144.65 Y127.291 E29.58596
G1 X144.76 Y127.378 E29.59877
G1 X144.897 Y127.418 E29.61181
G1 X145.124 Y127.444 E29.63268
G1 X145.124 Y132.863 E30.12765
G1 X145.127 Y132.911 E30.13205
G1 X145.214 Y133.671 E30.20192
G1 X145.231 Y133.752 E30.20948
G1 X145.415 Y134.326 E30.26454
G1 X145.443 Y134.392 E30.27108
G1 X145.73 Y134.945 E30.32799
G1 X145.773 Y135.012 E30.33526
G1 X146.179 Y135.526 E30.39509
G1 X146.186 Y135.965 E30.4352
G1 X146.187 Y135.99 E30.43748
G1 X146.246 Y136.778 E30.50966
G1 X146.262 Y136.865 E30.51774
G1 X146.5 Y137.675 E30.59485
G1 X146.518 Y137.724 E30.59962
G1 X146.751 Y138.262 E30.65317
G1 X146.801 Y138.348 E30.66226
G1 X147.343 Y139.068 E30.74458
G1 X147.369 Y139.1 E30.74834
G1 X147.735 Y139.499 E30.7978
G1 X147.854 Y139.572 E30.81055
G1 X147.95 Y139.813 E30.83425
G1 X148.053 Y139.964 E30.85094
G1 X148.128 Y140.009 E30.85893
G1 X148.047 Y140.518 E30.90601
G1 X146.201 Y140.544 E31.07464
G1 X146.176 Y140.545 E31.07692
G1 X145.64 Y140.585 E31.12602
G1 X145.597 Y140.591 E31.12998
G1 X144.963 Y140.704 E31.18881
G1 X144.908 Y140.717 E31.19397
G1 X144.077 Y140.983 E31.27367
G1 X144.005 Y141.014 E31.28083
G1 X143.395 Y141.343 E31.34413
G1 X143.356 Y141.367 E31.34832
G1 X142.792 Y141.755 E31.41084
G1 X142.725 Y141.812 E31.41888
G1 X142.617 Y141.926 E31.43322
G1 X142.498 Y141.933 E31.44411
G1 X142.395 Y141.977 E31.45434
G1 X141.962 Y142.237 E31.50047
G1 X141.913 Y142.272 E31.50597
G1 X141.741 Y142.412 E31.52623
G1 X141.676 Y142.406 E31.53219
G1 X141.527 Y142.454 E31.54649
G1 X140.765 Y142.865 E31.62557
G1 X140.748 Y142.875 E31.62737
G1 X140.534 Y143.004 E31.6502
G1 X140.437 Y142.989 E31.65916
G1 X140.33 Y143.009 E31.66911
G1 X139.307 Y143.347 E31.76752
G1 X139.289 Y143.354 E31.76928
G1 X139.051 Y143.445 E31.79255
G1 X138.954 Y143.41 E31.80197
G1 X138.841 Y143.41 E31.81229
G1 X138.219 Y143.494 E31.86962
G1 X138.202 Y143.497 E31.8712
G1 X137.626 Y143.6 E31.92465
G1 X136.414 Y143.741 E32.0361
G1 X136.387 Y143.722 E32.03912
G1 X136.205 Y143.688 E32.05603
G1 X135.978 Y143.696 E32.07677
G1 X135.801 Y143.742 E32.09348
G1 X135.767 Y143.77 E32.0975
G1 X134.55 Y143.576 E32.21007
G1 X134.503 Y143.571 E32.21438
G1 X133.804 Y143.539 E32.2783
G1 X133.624 Y143.571 E32.295
G1 X133.566 Y143.611 E32.30143
G1 X133.081 Y143.401 E32.34971
G1 X133.031 Y143.383 E32.35456
G1 X132.288 Y143.168 E32.42521
G1 X132.105 Y143.156 E32.44196
G1 X132.08 Y143.166 E32.44442
G1 X131.047 Y142.627 E32.55085
G1 X130.87 Y142.579 E32.5676
G1 X130.768 Y142.597 E32.57706
G1 X130.638 Y142.493 E32.59227
G1 X130.599 Y142.465 E32.59665
G1 X130.077 Y142.135 E32.65306
G1 X129.905 Y142.073 E32.66976
G1 X129.864 Y142.077 E32.67352
G1 X129.752 Y141.968 E32.6878
G1 X129.684 Y141.915 E32.69567
G1 X129.232 Y141.629 E32.74453
G1 X129.06 Y141.566 E32.76126
G1 X128.988 Y141.573 E32.76787
G1 X128.916 Y141.462 E32.77995
G1 X128.86 Y141.394 E32.788
G1 X128.435 Y140.971 E32.84277
G1 X128.281 Y140.873 E32.85944
G1 X128.266 Y140.872 E32.86082
G1 X128.205 Y140.762 E32.87231
G1 X128.148 Y140.683 E32.8812
G1 X127.876 Y140.384 E32.91813
G1 X127.727 Y140.279 E32.93477
G1 X127.704 Y140.276 E32.93689
G1 X127.645 Y140.152 E32.94944
G1 X127.597 Y140.075 E32.95772
G1 X127.394 Y139.811 E32.98814
G1 X127.254 Y139.694 E33.00481
G1 X127.226 Y139.689 E33.00741
G1 X127.187 Y139.585 E33.01755
G1 X127.144 Y139.501 E33.02617
G1 X126.999 Y139.282 E33.05016
G1 X126.867 Y139.155 E33.06689
G1 X126.854 Y139.151 E33.06814
G1 X126.806 Y139 E33.08261
G1 X126.765 Y138.909 E33.09172
G1 X126.477 Y138.435 E33.14239
G1 X126.35 Y138.303 E33.15912
G1 X126.344 Y138.301 E33.15969
G1 X126.339 Y138.249 E33.16447
G1 X126.308 Y138.128 E33.17588
G1 X126.217 Y137.913 E33.1972
G1 X126.111 Y137.764 E33.2139
G1 X126.083 Y137.749 E33.2168
G1 X126.08 Y137.7 E33.22129
G1 X126.042 Y137.55 E33.23542
G1 X125.931 Y137.31 E33.25957
G1 X125.826 Y137.173 E33.27534
G1 X125.782 Y136.835 E33.30647
G1 X125.72 Y136.663 E33.32317
G1 X125.697 Y136.64 E33.32615
G1 X125.702 Y136.536 E33.33566
G1 X125.694 Y136.427 E33.34564
G1 X125.648 Y136.208 E33.36608
G1 X125.573 Y136.041 E33.3828
G1 X125.577 Y135.941 E33.39194
G1 X125.573 Y135.849 E33.40035
G1 X125.486 Y135.299 E33.45122
G1 X125.419 Y135.129 E33.46791
G1 X125.425 Y135.101 E33.47052
G1 X125.441 Y134.961 E33.48339
G1 X125.433 Y134.8 E33.49812
G1 X125.385 Y134.624 E33.51478
G1 X125.373 Y134.61 E33.51646
G1 X125.392 Y134.557 E33.52161
G1 X125.417 Y134.418 E33.53451
G1 X125.419 Y134.249 E33.54994
G1 X125.382 Y134.07 E33.56664
G1 X125.358 Y134.039 E33.57022
G1 X125.377 Y133.998 E33.57435
G1 X125.414 Y133.851 E33.58819
G1 X125.424 Y133.703 E33.60174
G1 X125.397 Y133.522 E33.61846
G1 X125.383 Y133.502 E33.62069
G1 X125.412 Y133.433 E33.62753
G1 X125.441 Y133.327 E33.63756
G1 X125.472 Y133.099 E33.65858
G1 X125.457 Y132.921 E33.6749
G1 X125.571 Y132.604 E33.70567
G1 X125.594 Y132.422 E33.72242
G1 X125.584 Y132.39 E33.72549
G1 X125.693 Y132.2 E33.74549
G1 X125.728 Y132.119 E33.75355
G1 X125.832 Y131.798 E33.78437
G1 X125.85 Y131.616 E33.80108
G1 X125.868 Y131.583 E33.80451
G1 X125.928 Y131.451 E33.81776
G1 X125.993 Y131.2 E33.84144
G1 X126 Y131.017 E33.85817
G1 X125.995 Y131.003 E33.85952
G1 X126.024 Y130.972 E33.8634
G1 X126.102 Y130.858 E33.87602
G1 X126.176 Y130.7 E33.89196
G1 X126.216 Y130.522 E33.90862
G1 X126.208 Y130.492 E33.91146
G1 X126.256 Y130.444 E33.91766
G1 X126.328 Y130.349 E33.92854
G1 X126.446 Y130.134 E33.95095
G1 X126.497 Y129.958 E33.96768
G1 X126.494 Y129.944 E33.96899
G1 X126.556 Y129.89 E33.9765
G1 X126.631 Y129.806 E33.98679
G1 X126.766 Y129.604 E34.00898
G1 X126.832 Y129.434 E34.02564
G1 X126.827 Y129.405 E34.02832
G1 X126.906 Y129.343 E34.0375
G1 X126.982 Y129.266 E34.04738
G1 X127.135 Y129.065 E34.07045
G1 X127.211 Y128.899 E34.08713
G1 X127.211 Y128.872 E34.08959
G1 X127.33 Y128.781 E34.10328
G1 X127.39 Y128.725 E34.11077
G1 X127.596 Y128.491 E34.13925
G1 X127.685 Y128.33 E34.15605
G1 X127.687 Y128.295 E34.15926
G1 X128.106 Y127.972 E34.20758
G1 X128.223 Y127.831 E34.22431
G1 X128.242 Y127.759 E34.23112
G1 X128.378 Y127.673 E34.24581
G1 X128.453 Y127.613 E34.25459
G1 X128.752 Y127.31 E34.29347
G1 X128.849 Y127.155 E34.31017
G1 X128.858 Y127.084 E34.31671
G0 F6000 X129.494 Y127.72
G1 F1800 X129.522 Y127.706 E34.31957
G1 X130.007 Y127.398 E34.37205
G1 X130.209 Y127.231 E34.39599
G1 X130.222 Y127.227 E34.39723
G1 X130.388 Y127.157 E34.41368
G1 X130.935 Y126.877 E34.46981
G1 X131.188 Y126.704 E34.49781
G1 X131.753 Y126.535 E34.55167
G1 X131.872 Y126.492 E34.56323
G1 X132.452 Y126.253 E34.62053
G1 X132.697 Y126.114 E34.64626
G1 X133.902 Y125.918 E34.75777
G1 X134.56 Y125.85 E34.81819
G1 X135.197 Y125.81 E34.87649
G1 X135.912 Y125.79 E34.94183
G1 X136.527 Y125.789 E34.998
G1 X137.222 Y125.807 E35.0615
G1 X137.993 Y125.853 E35.13205
G1 X138.554 Y125.921 E35.18367
G1 X139.429 Y126.063 E35.26464
G1 X139.719 Y126.221 E35.2948
G1 X140.346 Y126.45 E35.35577
G1 X140.483 Y126.492 E35.36886
G1 X140.983 Y126.613 E35.41585
G1 X141.218 Y126.77 E35.44167
G1 X141.917 Y127.115 E35.51287
G1 X142.086 Y127.184 E35.52954
G1 X142.315 Y127.37 E35.55649
G1 X142.944 Y127.745 E35.62338
G1 X143.262 Y127.88 E35.65493
G1 X144.046 Y128.092 E35.72912
G1 X144.279 Y128.123 E35.75059
G1 X144.279 Y132.863 E36.18354
G1 X144.287 Y133.007 E36.19671
G1 X144.374 Y133.767 E36.26659
G1 X144.427 Y134.01 E36.2893
G1 X144.611 Y134.584 E36.34436
G1 X144.693 Y134.781 E36.36385
G1 X144.98 Y135.334 E36.42076
G1 X145.11 Y135.536 E36.4427
G1 X145.339 Y135.825 E36.47638
G1 X145.341 Y135.978 E36.49036
G1 X145.345 Y136.053 E36.49722
G1 X145.404 Y136.841 E36.5694
G1 X145.451 Y137.103 E36.59371
G1 X145.689 Y137.913 E36.67082
G1 X145.742 Y138.06 E36.6851
G1 X145.975 Y138.598 E36.73865
G1 X146.126 Y138.857 E36.76603
G1 X146.668 Y139.577 E36.84835
G1 X146.747 Y139.671 E36.85956
G1 X146.765 Y139.691 E36.86202
G1 X146.189 Y139.699 E36.91464
G1 X146.113 Y139.703 E36.92159
G1 X145.577 Y139.743 E36.97069
G1 X145.449 Y139.759 E36.98247
G1 X144.815 Y139.872 E37.04129
G1 X144.65 Y139.912 E37.0568
G1 X143.819 Y140.178 E37.1365
G1 X143.604 Y140.27 E37.15786
G1 X142.994 Y140.599 E37.22116
G1 X142.877 Y140.67 E37.23366
G1 X142.313 Y141.058 E37.29619
G1 X142.208 Y141.148 E37.30882
G1 X142.108 Y141.177 E37.31833
G1 X141.96 Y141.253 E37.33353
G1 X141.527 Y141.513 E37.37966
G1 X141.402 Y141.601 E37.39363
G1 X141.126 Y141.71 E37.42073
G1 X140.364 Y142.121 E37.49981
G1 X140.312 Y142.151 E37.5053
G1 X140.262 Y142.181 E37.51062
G1 X140.065 Y142.207 E37.52877
G1 X139.042 Y142.545 E37.62718
G1 X138.988 Y142.564 E37.63241
G1 X138.971 Y142.57 E37.63406
G1 X138.896 Y142.561 E37.64096
G1 X138.728 Y142.572 E37.65633
G1 X138.106 Y142.656 E37.71366
G1 X138.053 Y142.665 E37.71857
G1 X137.493 Y142.765 E37.77053
G1 X136.495 Y142.881 E37.86231
G1 X136.175 Y142.844 E37.89173
G1 X135.948 Y142.852 E37.91248
G1 X135.665 Y142.898 E37.93867
G1 X134.683 Y142.742 E38.02949
G1 X134.542 Y142.727 E38.04244
G1 X133.843 Y142.695 E38.10635
G1 X133.619 Y142.713 E38.12688
G1 X133.418 Y142.626 E38.14688
G1 X133.265 Y142.571 E38.16173
G1 X132.522 Y142.356 E38.23239
G1 X132.282 Y142.318 E38.25458
G1 X131.437 Y141.878 E38.3416
G1 X131.139 Y141.767 E38.37065
G1 X131.062 Y141.759 E38.37772
G1 X131.051 Y141.751 E38.37896
G1 X130.529 Y141.421 E38.43537
G1 X130.25 Y141.29 E38.46352
G1 X130.136 Y141.2 E38.47679
G1 X129.684 Y140.914 E38.52564
G1 X129.473 Y140.816 E38.54689
G1 X129.456 Y140.795 E38.54936
