;FLAVOR:Marlin
;TIME:456
;Filament used: 0.704045m
;Layer height: 0.26
;MINX:148.733
;MINY:141.442
;MINZ:0.26
;MAXX:181.267
;MAXY:181.1
;MAXZ:11.96
;Generated with Cura_SteamEngine 5.4.0
M140 S60


; Pre-Processed for Cancel-Object support by preprocess_cancellation v0.2.0
; 2 known objects
EXCLUDE_OBJECT_DEFINE NAME=chain_link_cover_stl CENTER=164.721,149.015 POLYGON=[[153.31,146.173],[153.31,151.19],[176.69,151.19],[176.69,146.173]]
EXCLUDE_OBJECT_DEFINE NAME=chain_link___standard_stl CENTER=163.903,164.647 POLYGON=[[149.578,142.287],[149.578,180.255],[180.422,180.255],[180.422,142.287]]
M105
M190 S60
M104 S210
M105
M109 S210
M82 ;absolute extrusion mode
START_GCODE
G92 E0
G92 E0
G1 F1500 E-1
;LAYER_COUNT:46
;LAYER:0
M107
G0 F6000 X149.968 Y142.713 Z0.26
;TYPE:SKIRT
G1 F1500 E0
G1 F1800 X150.46 Y142.284 E0.05962
G1 X151.01 Y141.936 E0.11907
G1 X151.612 Y141.675 E0.17901
G1 X152.254 Y141.506 E0.23964
G1 X153.08 Y141.442 E0.31532
G1 X153.7 Y141.463 E0.37198
G1 X155.585 Y141.659 E0.54509
G1 X158.297 Y141.888 E0.79368
G1 X161.016 Y142.039 E1.04242
G1 X163.745 Y142.115 E1.29179
G1 X166.405 Y142.113 E1.53475
G1 X169.161 Y142.033 E1.78659
G1 X171.854 Y141.878 E2.03298
G1 X174.549 Y141.646 E2.28006
G1 X176.315 Y141.462 E2.44224
G1 X177.056 Y141.445 E2.50994
G1 X177.639 Y141.49 E2.56335
G1 X178.275 Y141.638 E2.62299
G1 X178.882 Y141.882 E2.68275
G1 X179.443 Y142.216 E2.74238
G1 X179.946 Y142.629 E2.80183
G1 X180.383 Y143.117 E2.86167
G1 X180.737 Y143.662 E2.92103
G1 X181.005 Y144.255 E2.98047
G1 X181.183 Y144.893 E3.04097
G1 X181.266 Y145.694 E3.11452
G1 X181.267 Y150.834 E3.58401
G1 X181.251 Y151.642 E3.65783
G1 X181.151 Y152.439 E3.7312
G1 X180.632 Y154.725 E3.94532
G1 X180.103 Y157.361 E4.19089
G1 X179.645 Y160.031 E4.43833
G1 X179.257 Y162.752 E4.68939
G1 X178.955 Y165.412 E4.93391
G1 X178.724 Y168.129 E5.18298
G1 X178.571 Y170.802 E5.42753
G1 X178.494 Y173.558 E5.67937
G1 X178.475 Y176.786 E5.97422
G1 X178.427 Y177.37 E6.02774
G1 X178.275 Y178.009 E6.08774
G1 X178.033 Y178.604 E6.14641
G1 X177.692 Y179.171 E6.20684
G1 X177.277 Y179.671 E6.2662
G1 X176.788 Y180.103 E6.32579
G1 X176.242 Y180.454 E6.38508
G1 X175.627 Y180.728 E6.44658
G1 X174.692 Y180.939 E6.53413
G1 X173.881 Y181.029 E6.60866
G1 X173.264 Y181.072 E6.66516
G1 X171.962 Y181.098 E6.78411
G1 X160.181 Y181.1 E7.86019
G1 X159.467 Y181.088 E7.92542
G1 X158.818 Y181.029 E7.98494
G1 X158.075 Y180.842 E8.05492
G1 X155.285 Y179.587 E8.33436
G1 X154.031 Y179.039 E8.45936
G1 X153.513 Y178.766 E8.51284
G1 X152.987 Y178.374 E8.57276
G1 X152.529 Y177.911 E8.63225
G1 X152.147 Y177.381 E8.69192
G1 X151.853 Y176.804 E8.75107
G1 X151.64 Y176.162 E8.81286
G1 X151.523 Y175.223 E8.89929
G1 X151.474 Y172.162 E9.17892
G1 X151.359 Y169.471 E9.42494
G1 X151.168 Y166.767 E9.67254
G1 X150.9 Y164.073 E9.91983
G1 X150.562 Y161.433 E10.16294
G1 X150.127 Y158.663 E10.41905
G1 X149.642 Y156.056 E10.66126
G1 X149.051 Y153.318 E10.91711
G1 X148.836 Y152.365 E11.00635
G1 X148.734 Y151.516 E11.08445
G1 X148.733 Y146.317 E11.55933
G1 X148.745 Y145.587 E11.62602
G1 X148.797 Y145.006 E11.6793
G1 X148.956 Y144.367 E11.73945
G1 X149.207 Y143.768 E11.79877
G1 X149.548 Y143.208 E11.85866
G1 X149.968 Y142.713 E11.91795
G0 F6000 X150.572 Y143.307
G1 F1800 X150.966 Y142.964 E11.96567
G1 X151.408 Y142.684 E12.01346
G1 X151.888 Y142.476 E12.06124
G1 X152.394 Y142.343 E12.10903
G1 X153.051 Y142.287 E12.16926
G1 X153.671 Y142.308 E12.22592
G1 X155.514 Y142.501 E12.39519
G1 X158.25 Y142.732 E12.64598
G1 X160.981 Y142.884 E12.89582
G1 X163.723 Y142.96 E13.14637
G1 X166.429 Y142.958 E13.39354
G1 X169.2 Y142.878 E13.64675
G1 X171.905 Y142.722 E13.89424
G1 X174.622 Y142.488 E14.14333
G1 X176.34 Y142.307 E14.30112
G1 X176.991 Y142.288 E14.36061
G1 X177.512 Y142.328 E14.40834
G1 X178.021 Y142.447 E14.45608
G1 X178.507 Y142.642 E14.50392
G1 X178.956 Y142.909 E14.55163
G1 X179.36 Y143.241 E14.59939
G1 X179.709 Y143.63 E14.64713
G1 X179.994 Y144.069 E14.69494
G1 X180.209 Y144.545 E14.74264
G1 X180.349 Y145.049 E14.79042
G1 X180.421 Y145.694 E14.8497
G1 X180.422 Y150.822 E15.3181
G1 X180.412 Y151.542 E15.38387
G1 X180.327 Y152.252 E15.44919
G1 X179.808 Y154.538 E15.6633
G1 X179.27 Y157.218 E15.91298
G1 X178.808 Y159.912 E16.16264
G1 X178.42 Y162.633 E16.4137
G1 X178.115 Y165.317 E16.66043
G1 X177.88 Y168.081 E16.91381
G1 X177.727 Y170.754 E17.15836
G1 X177.649 Y173.534 E17.41239
G1 X177.633 Y176.716 E17.70304
G1 X177.59 Y177.237 E17.75079
G1 X177.469 Y177.746 E17.79858
G1 X177.272 Y178.23 E17.84631
G1 X177.003 Y178.678 E17.89404
G1 X176.669 Y179.08 E17.94178
G1 X176.277 Y179.427 E17.9896
G1 X175.837 Y179.71 E18.03738
G1 X175.36 Y179.922 E18.08506
G1 X174.598 Y180.099 E18.15651
G1 X173.821 Y180.186 E18.22793
G1 X173.247 Y180.227 E18.28049
G1 X171.962 Y180.253 E18.39789
G1 X160.195 Y180.255 E19.47269
G1 X159.481 Y180.243 E19.53792
G1 X158.961 Y180.194 E19.58563
G1 X158.358 Y180.042 E19.64243
G1 X155.632 Y178.816 E19.91545
G1 X154.426 Y178.292 E20.03555
G1 X153.964 Y178.048 E20.08328
G1 X153.544 Y177.736 E20.13107
G1 X153.177 Y177.364 E20.1788
G1 X152.871 Y176.94 E20.22656
G1 X152.633 Y176.474 E20.27435
G1 X152.469 Y175.978 E20.32207
G1 X152.368 Y175.209 E20.39291
G1 X152.319 Y172.148 E20.67254
G1 X152.202 Y169.411 E20.92277
G1 X152.011 Y166.707 E21.17037
G1 X151.741 Y163.989 E21.41986
G1 X151.397 Y161.302 E21.66729
G1 X150.962 Y158.532 E21.92341
G1 X150.473 Y155.902 E22.16775
G1 X149.877 Y153.14 E22.42584
G1 X149.674 Y152.258 E22.50851
G1 X149.579 Y151.516 E22.57684
G1 X149.578 Y146.328 E23.05071
G1 X149.587 Y145.663 E23.11146
G1 X149.634 Y145.142 E23.15924
G1 X149.76 Y144.634 E23.20705
G1 X149.962 Y144.152 E23.25478
G1 X150.234 Y143.706 E23.3025
G1 X150.572 Y143.307 E23.35026
G1 F1500 E22.35026
;MESH:chain_link_cover.stl
EXCLUDE_OBJECT_START NAME=chain_link_cover_stl
G0 F6000 X174.654 Y146.741
G0 X176.53 Y146.513
;TYPE:WALL-OUTER
G1 F1500 E23.35026
G1 F1616.4 X176.53 Y147.804 E23.48158
G1 F1395.4 X176.38 Y148.527 E23.56858
G1 X175.992 Y148.118 E23.63501
G1 F1616.4 X175.278 Y147.714 E23.71845
G1 X176.53 Y146.513 E23.89493
G0 F6000 X176.314 Y146.72
G0 X176.336 Y146.969
G0 X176.325 Y148.072
G0 X176.38 Y148.527
G1 F1222.7 X176.376 Y150.367 E24.14235
G0 F6000 X176.637 Y151.137
G1 F2095 X176.274 Y151.137 E24.17084
G1 F1539.5 X175.867 Y150.876 E24.22248
G1 X176.017 Y150.517 E24.26403
G1 F1541 X176.376 Y150.367 E24.30554
G1 X176.637 Y150.774 E24.35712
G1 F2095 X176.637 Y151.137 E24.38561
G0 F6000 X176.637 Y150.837
G0 X175.867 Y150.876
G1 F1219.7 X165.053 Y150.878 E25.84328
G1 F1224.6 X154.239 Y150.88 E27.29511
G0 F6000 X154.24 Y150.88
G1 F1547.3 X153.726 Y151.137 E27.35618
G1 F2095 X153.363 Y151.137 E27.38466
G1 X153.363 Y150.774 E27.41315
G1 F1539.5 X153.624 Y150.367 E27.46479
G1 X153.983 Y150.517 E27.50634
G1 F1547.3 X154.24 Y150.88 E27.5536
G0 F6000 X154.067 Y150.635
G0 X153.624 Y150.367
G1 F1221.7 X153.62 Y148.527 E27.80123
G0 F6000 X153.675 Y148.072
G0 X153.664 Y146.969
G0 X153.471 Y146.513
G1 F1618.1 X154.722 Y147.713 E27.97737
G1 X154.008 Y148.117 E28.06072
G1 F1395.4 X153.62 Y148.527 E28.12723
G1 X153.471 Y147.804 E28.21421
G1 F1618.1 X153.471 Y146.513 E28.34539
G0 F6000 X153.471 Y146.813
G1 F1500 E27.34539
;MESH:chain_link_-_standard.stl
EXCLUDE_OBJECT_END NAME=chain_link_cover_stl
EXCLUDE_OBJECT_START NAME=chain_link___standard_stl
G0 F6000 X153.664 Y146.969
G0 X153.635 Y148.141
G0 X154.899 Y148.912
G0 X155.899 Y148.344
G0 X155.901 Y147.278
G0 X153.565 Y145.038
G0 X152.347 Y145.047
G0 X152.347 Y152.153
G0 X156.425 Y154.175
G0 X156.425 Y155.835
G0 X157.697 Y155.827
G0 X158.672 Y173.532
G0 X161.173 Y175.207
G0 X168.026 Y175.565
G0 X168.152 Y175.565
;TYPE:WALL-INNER
G1 F1500 E28.34539
G1 F1800 X168.084 Y175.36 E28.36512
G1 X168.084 Y154.64 E30.2577
G1 X168.152 Y154.435 E30.27742
G1 X160.807 Y154.435 E30.94832
G1 X160.807 Y154.84 E30.98531
G1 X160.718 Y155.309 E31.02892
G1 X160.569 Y155.58 E31.05716
G1 X160.293 Y155.859 E31.09301
G1 X159.889 Y156.059 E31.13419
G1 X159.539 Y156.107 E31.16646
G1 X158.187 Y156.107 E31.28995
G1 X158.311 Y156.48 E31.32585
G1 X158.311 Y173.52 E32.8823
G1 X158.187 Y173.893 E32.9182
G1 X159.539 Y173.893 E33.04169
G1 X159.889 Y173.941 E33.07396
G1 X160.129 Y174.038 E33.0976
G1 X160.432 Y174.261 E33.13197
G1 X160.715 Y174.69 E33.17891
G1 X160.806 Y175.16 E33.22264
G1 X160.806 Y175.566 E33.25972
G1 X168.152 Y175.565 E33.93071
G0 F6000 X169.013 Y175.614
;TYPE:WALL-OUTER
G1 F1800 X168.929 Y175.36 E33.95515
G1 X168.929 Y154.64 E35.84773
G1 F1804.3 X169.015 Y154.388 E35.87199
G1 F1920.5 X169.287 Y154.274 E35.89724
G1 F2061 X172.954 Y154.272 E36.18977
G1 F2109.6 X173.867 Y154.286 E36.26094
G1 F2145.3 X173.865 Y153.611 E36.31267
G1 F2109.6 X172.972 Y153.537 E36.3825
G1 F2061 X169.223 Y153.539 E36.68158
G1 F1920.5 X168.615 Y153.589 E36.73381
G1 F1804.3 X159.962 Y153.59 E37.52231
G1 F1800 X159.962 Y154.84 E37.63648
G1 X159.932 Y154.997 E37.65108
G1 X159.837 Y155.14 E37.66676
G1 X159.629 Y155.262 E37.68879
G1 X157.864 Y155.262 E37.85001
G1 F1828.1 X157.044 Y155.25 E37.92376
G1 F1854.9 X156.19 Y155.25 E37.99946
G1 X156.19 Y156.07 E38.07214
G1 X157.044 Y156.07 E38.14784
G1 F1828.1 X157.382 Y156.226 E38.18132
G1 F1800 X157.466 Y156.48 E38.20575
G1 X157.466 Y173.52 E39.7622
G1 X157.382 Y173.774 E39.78664
G1 F1821.6 X157.115 Y173.927 E39.81441
G1 F1848.1 X156.19 Y173.93 E39.8967
G1 F1854.9 X156.19 Y174.75 E39.96938
G1 X157.044 Y174.75 E40.04508
G1 F1828.1 X157.864 Y174.738 E40.11884
G1 F1800 X159.539 Y174.738 E40.27183
G1 X159.736 Y174.786 E40.29035
G1 X159.931 Y175.003 E40.317
G1 X159.961 Y175.16 E40.3316
G1 X159.961 Y176.411 E40.44587
G1 X168.616 Y176.41 E41.23642
G1 F1925.3 X169.351 Y176.464 E41.29936
G1 F2069.4 X172.972 Y176.464 E41.58705
G1 F2106.6 X173.867 Y176.389 E41.65714
G1 F2145.3 X173.865 Y175.714 E41.70887
G1 F2106.6 X172.954 Y175.728 E41.77998
G1 F2069.4 X169.351 Y175.728 E42.06624
G1 F1925.3 X169.013 Y175.614 E42.0967
G0 F6000 X168.929 Y175.36
G0 X168.929 Y175.327
G0 X168.026 Y175.327
G0 X167.273 Y174.754
;TYPE:SKIN
G1 F1800 X161.547 Y174.755 E42.61972
G1 X161.446 Y174.341 E42.65864
G1 X161.249 Y173.984 E42.69588
G1 X161.008 Y173.681 E42.73125
G1 X160.554 Y173.351 E42.78251
G1 X160.156 Y173.178 E42.82215
G1 X159.595 Y173.085 E42.87409
G1 X159.122 Y173.082 E42.9173
G1 X159.122 Y156.918 E44.39373
G1 X159.594 Y156.915 E44.43684
G1 X160.057 Y156.848 E44.47957
G1 X160.511 Y156.683 E44.5237
G1 X161.006 Y156.314 E44.58009
G1 X161.206 Y156.082 E44.60807
G1 X161.449 Y155.658 E44.65271
G1 X161.55 Y155.246 E44.69145
G1 X167.273 Y155.246 E45.2142
G1 X167.273 Y174.754 E46.99607
G1 F1500 E45.99607
G0 F6000 X167.795 Y174.754
G0 X161.173 Y175.207
G0 X158.672 Y173.532
G0 X158.6 Y171.494
G0 X159.544 Y171.494
G1 F1500 E46.99607
G1 F1800 X162.381 Y174.331 E47.36254
G0 F6000 X162.381 Y175.277
G0 X163.576 Y175.277
G0 X163.576 Y174.331
G1 F1800 X159.544 Y170.299 E47.88337
G0 F6000 X158.6 Y170.299
G0 X158.6 Y169.104
G0 X159.544 Y169.104
G1 F1800 X164.77 Y174.33 E48.55844
G0 F6000 X164.77 Y175.277
G0 X165.965 Y175.277
G0 X165.965 Y174.33
G1 F1800 X159.544 Y167.909 E49.38788
G0 F6000 X158.6 Y167.909
G0 X158.6 Y166.714
G0 X159.544 Y166.714
G1 F1800 X166.851 Y174.021 E50.33176
G0 F6000 X167.795 Y174.021
G0 X167.795 Y172.826
G0 X166.851 Y172.826
G1 F1800 X159.544 Y165.519 E51.27564
G0 F6000 X158.6 Y165.519
G0 X158.6 Y164.324
G0 X159.544 Y164.324
G1 F1800 X166.851 Y171.631 E52.21953
G0 F6000 X167.795 Y171.631
G0 X167.795 Y170.436
G0 X166.851 Y170.436
G1 F1800 X159.544 Y163.129 E53.16341
G0 F6000 X158.6 Y163.129
G0 X158.6 Y161.934
G0 X159.544 Y161.934
G1 F1800 X166.851 Y169.241 E54.10729
G0 F6000 X167.795 Y169.241
G0 X167.795 Y168.046
G0 X166.851 Y168.046
G1 F1800 X159.544 Y160.739 E55.05118
G0 F6000 X158.6 Y160.739
G0 X158.6 Y159.544
G0 X159.544 Y159.544
G1 F1800 X166.851 Y166.851 E55.99506
G0 F6000 X167.795 Y166.851
G0 X167.795 Y165.656
G0 X166.851 Y165.656
G1 F1800 X159.544 Y158.349 E56.93894
G0 F6000 X158.6 Y158.349
G0 X158.672 Y156.468
G0 X159.58 Y156.388
G0 X159.709 Y157.319
G1 F1800 X166.851 Y164.461 E57.86151
G0 F6000 X167.795 Y164.461
G0 X167.795 Y163.266
G0 X166.851 Y163.266
G1 F1800 X160.662 Y157.077 E58.66098
G0 F6000 X161.344 Y156.564
G1 F1800 X166.851 Y162.07 E59.37228
G0 F6000 X167.795 Y162.07
G0 X167.795 Y160.875
G0 X166.851 Y160.875
G1 F1800 X161.822 Y155.847 E60.02184
G0 F6000 X160.985 Y155.419
G0 X162.838 Y154.724
G0 X162.838 Y155.668
G1 F1800 X166.851 Y159.68 E60.54015
G0 F6000 X167.795 Y159.68
G0 X167.795 Y158.485
G0 X166.851 Y158.485
G1 F1800 X164.033 Y155.668 E60.9041
G0 F6000 X164.033 Y154.724
G0 X165.228 Y154.724
G0 X165.228 Y155.668
G1 F1800 X166.851 Y157.29 E61.11369
G0 F6000 X167.795 Y157.29
G0 X167.795 Y156.095
G0 X166.851 Y156.095
G1 F1800 X166.423 Y155.668 E61.16891
G1 F1500 E60.16891
;MESH:NONMESH
EXCLUDE_OBJECT_END NAME=chain_link___standard_stl
G0 F600 X166.423 Y155.668 Z0.52
G0 F6000 X166.423 Y154.724
G0 X160.178 Y153.806
G0 X160.178 Y152.502
G0 X152.347 Y152.153
G0 X150.572 Y143.307
;TIME_ELAPSED:35.210841
;LAYER:1
M106 S95.6
;TYPE:SKIRT
G1 F1500 E61.16891
G1 F1800 X150.966 Y142.964 E61.20562
G1 X151.408 Y142.684 E61.24238
G1 X151.888 Y142.476 E61.27913
G1 X152.394 Y142.343 E61.31589
G1 X153.051 Y142.287 E61.36222
G1 X153.671 Y142.308 E61.40581
G1 X155.514 Y142.501 E61.53601
G1 X158.25 Y142.732 E61.72893
G1 X160.981 Y142.884 E61.92112
G1 X163.723 Y142.96 E62.11385
G1 X166.429 Y142.958 E62.30398
G1 X169.2 Y142.878 E62.49876
G1 X171.905 Y142.722 E62.68913
G1 X174.622 Y142.488 E62.88074
G1 X176.34 Y142.307 E63.00212
G1 X176.991 Y142.288 E63.04788
G1 X177.512 Y142.328 E63.08459
G1 X178.021 Y142.447 E63.12132
G1 X178.507 Y142.642 E63.15811
G1 X178.956 Y142.909 E63.19482
G1 X179.36 Y143.241 E63.23156
G1 X179.709 Y143.63 E63.26828
G1 X179.994 Y144.069 E63.30505
G1 X180.209 Y144.545 E63.34175
G1 X180.349 Y145.049 E63.3785
G1 X180.421 Y145.694 E63.4241
G1 X180.422 Y150.822 E63.78441
G1 X180.412 Y151.542 E63.835
G1 X180.327 Y152.252 E63.88524
G1 X179.808 Y154.538 E64.04995
G1 X179.27 Y157.218 E64.24201
G1 X178.808 Y159.912 E64.43406
G1 X178.42 Y162.633 E64.62717
G1 X178.115 Y165.317 E64.81697
G1 X177.88 Y168.081 E65.01188
G1 X177.727 Y170.754 E65.19999
G1 X177.649 Y173.534 E65.3954
G1 X177.633 Y176.716 E65.61898
G1 X177.59 Y177.237 E65.65571
G1 X177.469 Y177.746 E65.69247
G1 X177.272 Y178.23 E65.72918
G1 X177.003 Y178.678 E65.7659
G1 X176.669 Y179.08 E65.80262
G1 X176.277 Y179.427 E65.8394
G1 X175.837 Y179.71 E65.87616
G1 X175.36 Y179.922 E65.91284
G1 X174.598 Y180.099 E65.9678
G1 X173.821 Y180.186 E66.02274
G1 X173.247 Y180.227 E66.06317
G1 X171.962 Y180.253 E66.15348
G1 X160.195 Y180.255 E66.98025
G1 X159.481 Y180.243 E67.03042
G1 X158.961 Y180.194 E67.06712
G1 X158.358 Y180.042 E67.11082
G1 X155.632 Y178.816 E67.32083
G1 X154.426 Y178.292 E67.41322
G1 X153.964 Y178.048 E67.44993
G1 X153.544 Y177.736 E67.48669
G1 X153.177 Y177.364 E67.52341
G1 X152.871 Y176.94 E67.56015
G1 X152.633 Y176.474 E67.59691
G1 X152.469 Y175.978 E67.63362
G1 X152.368 Y175.209 E67.68811
G1 X152.319 Y172.148 E67.90321
G1 X152.202 Y169.411 E68.09569
G1 X152.011 Y166.707 E68.28616
G1 X151.741 Y163.989 E68.47807
G1 X151.397 Y161.302 E68.6684
G1 X150.962 Y158.532 E68.86541
G1 X150.473 Y155.902 E69.05337
G1 X149.877 Y153.14 E69.2519
G1 X149.674 Y152.258 E69.31549
G1 X149.579 Y151.516 E69.36805
G1 X149.578 Y146.328 E69.73257
G1 X149.587 Y145.663 E69.7793
G1 X149.634 Y145.142 E69.81606
G1 X149.76 Y144.634 E69.85283
G1 X149.962 Y144.152 E69.88955
G1 X150.234 Y143.706 E69.92626
G1 X150.572 Y143.307 E69.963
G1 F1500 E68.963
;MESH:chain_link_cover.stl
EXCLUDE_OBJECT_START NAME=chain_link_cover_stl
G0 F10200 X152.335 Y146.896
G0 X153.976 Y147.554
;TYPE:WALL-INNER
G1 F1500 E69.963
G1 F4538.8 X153.906 Y147.554 E69.96739
G1 X153.869 Y147.616 E69.97191
G1 X153.905 Y147.678 E69.97641
G1 X153.976 Y147.678 E69.98086
G1 X154.013 Y147.616 E69.98538
G1 F1500 E68.98538
G0 F10200 X155.345 Y146.74
G0 X174.654 Y146.741
G0 X176.094 Y147.554
G1 F1500 E69.98538
G1 F4523.2 X176.024 Y147.554 E69.98979
G1 X175.987 Y147.616 E69.99433
G1 X176.023 Y147.678 E69.99884
G1 X176.094 Y147.678 E70.00331
G1 X176.131 Y147.616 E70.00785
