;FLAVOR:Marlin
;TIME:2937
;Filament used: 6.95846m
;Layer height: 0.26
;MINX:128.715
;MINY:137.569
;MINZ:0.26
;MAXX:201.285
;MAXY:194.996
;MAXZ:22.1
;Generated with Cura_SteamEngine 5.4.0
M140 S60


; Pre-Processed for Cancel-Object support by preprocess_cancellation v0.2.0
; 1 known objects
EXCLUDE_OBJECT_DEFINE NAME=Core_Clamp_Y_F_Primo_V1_STL CENTER=165.742,163.850 POLYGON=[[128.715,137.569],[128.715,192.566],[201.285,192.566],[201.285,137.569]]
M105
M190 S60
M104 S210
M105
M109 S210
M82 ;absolute extrusion mode
START_GCODE
G92 E0
G92 E0
G1 F1500 E-1
;LAYER_COUNT:85
;LAYER:0
M107
M204 S400
G0 F6000 X135.883 Y138.636 Z0.26
;TYPE:SKIRT
G1 F1500 E0
G1 F1800 X136.31 Y138.267 E0.05995
G1 X136.558 Y138.125 E0.09031
G1 X137.205 Y137.879 E0.16385
G1 X137.711 Y137.847 E0.21771
G1 X138.323 Y137.936 E0.28341
G1 X138.897 Y138.161 E0.34891
G1 X150.004 Y144.577 E1.7116
G1 X150.527 Y144.936 E1.77899
G1 X151.12 Y145.493 E1.86542
G1 X151.664 Y146.197 E1.95994
G1 X152.045 Y146.96 E2.05054
G1 X152.276 Y147.628 E2.12563
G1 X152.43 Y148.52 E2.22179
G1 X152.392 Y151.046 E2.49017
G1 X152.592 Y152.751 E2.67255
G1 X153.021 Y154.409 E2.85449
G1 X153.661 Y155.976 E3.03431
G1 X154.526 Y157.473 E3.21799
G1 X155.561 Y158.81 E3.39761
G1 X156.792 Y160.02 E3.58099
G1 X158.147 Y161.03 E3.76053
G1 X160.315 Y162.23 E4.02377
G1 X160.951 Y162.74 E4.11038
G1 X161.557 Y163.402 E4.20573
G1 X161.992 Y164.11 E4.294
G1 X162.315 Y164.84 E4.37881
G1 X162.518 Y165.707 E4.47341
G1 X162.568 Y166.39 E4.54616
G1 X162.571 Y183.019 E6.31276
G1 X162.699 Y183.381 E6.35355
G1 X162.906 Y183.63 E6.38795
G1 X163.187 Y183.792 E6.42241
G1 X163.598 Y183.855 E6.46658
G1 X166.402 Y183.855 E6.76447
G1 X166.813 Y183.792 E6.80864
G1 X167.094 Y183.63 E6.8431
G1 X167.301 Y183.381 E6.8775
G1 X167.429 Y183.019 E6.91829
G1 X167.437 Y166.255 E8.69924
G1 X167.5 Y165.63 E8.76597
G1 X167.685 Y164.84 E8.85217
G1 X168.045 Y164.028 E8.94653
G1 X168.474 Y163.38 E9.02909
G1 X168.943 Y162.84 E9.10507
G1 X169.637 Y162.264 E9.20089
G1 X171.837 Y161.037 E9.4685
G1 X173.225 Y160.003 E9.65237
G1 X174.429 Y158.82 E9.83169
G1 X175.478 Y157.466 E10.01365
G1 X176.339 Y155.973 E10.19675
G1 X176.985 Y154.403 E10.37711
G1 X177.408 Y152.761 E10.55724
G1 X177.609 Y151.046 E10.74069
G1 X177.571 Y148.603 E11.00025
G1 X177.696 Y147.711 E11.09594
G1 X177.984 Y146.875 E11.18988
G1 X178.382 Y146.134 E11.27923
G1 X178.849 Y145.535 E11.35992
G1 X179.376 Y145.013 E11.43873
G1 X180.099 Y144.514 E11.53205
G1 X191.104 Y138.16 E12.88206
G1 X191.587 Y137.959 E12.93764
G1 X192.142 Y137.851 E12.99771
G1 X192.426 Y137.852 E13.02788
G1 X193.108 Y137.959 E13.10122
G1 X193.565 Y138.186 E13.15543
G1 X194.055 Y138.574 E13.22183
G1 X194.438 Y139.054 E13.28706
G1 X199.713 Y148.193 E14.40808
G1 X199.914 Y148.676 E14.46366
G1 X199.977 Y148.949 E14.49342
G1 X200.02 Y149.511 E14.5533
G1 X199.995 Y149.808 E14.58496
G1 X199.819 Y150.393 E14.64986
G1 X199.52 Y150.917 E14.71396
G1 X196.177 Y155.184 E15.28982
G1 X192.775 Y159.968 E15.91346
G1 X189.643 Y164.856 E16.53019
G1 X186.715 Y169.953 E17.15467
G1 X184.058 Y175.143 E17.77409
G1 X181.623 Y180.529 E18.40203
G1 X179.505 Y185.889 E19.0143
G1 X177.415 Y192.034 E19.70385
G1 X176.939 Y192.826 E19.80202
G1 X176.44 Y193.435 E19.88566
G1 X175.785 Y194.02 E19.97896
G1 X175.075 Y194.443 E20.06676
G1 X174.357 Y194.752 E20.1498
G1 X173.508 Y194.946 E20.24232
G1 X172.842 Y194.994 E20.31325
G1 X163.101 Y194.996 E21.3481
G1 X162.579 Y194.929 E21.40401
G1 X161.96 Y194.716 E21.47355
G1 X161.442 Y194.345 E21.54124
G1 X158.129 Y191.271 E22.02137
G1 X154.831 Y187.782 E22.53142
G1 X151.689 Y183.981 E23.05532
G1 X148.879 Y180.065 E23.56737
G1 X146.327 Y175.948 E24.08195
G1 X143.645 Y170.622 E24.71546
G1 X140.725 Y165.467 E25.34486
G1 X137.492 Y160.366 E25.98645
G1 X133.981 Y155.394 E26.63307
G1 X130.479 Y150.918 E27.23683
G1 X130.212 Y150.471 E27.29215
G1 X130.11 Y150.207 E27.32221
G1 X129.989 Y149.658 E27.38194
G1 X129.972 Y149.36 E27.41365
G1 X130.064 Y148.758 E27.47834
G1 X130.286 Y148.194 E27.54274
G1 X135.563 Y139.055 E28.66386
G1 X135.883 Y138.636 E28.71987
G1 F1500 E27.71987
G0 F6000 X137.324 Y139.83
G1 F1500 E28.71987
G1 F1800 X137.512 Y139.732 E28.74239
G1 X137.723 Y139.709 E28.76494
G1 X137.961 Y139.783 E28.79142
G1 X149.006 Y146.16 E30.14633
G1 X149.353 Y146.401 E30.19121
G1 X149.73 Y146.756 E30.24622
G1 X150.074 Y147.2 E30.30589
G1 X150.293 Y147.623 E30.3565
G1 X150.46 Y148.106 E30.41079
G1 X150.556 Y148.662 E30.47073
G1 X150.518 Y151.145 E30.73455
G1 X150.746 Y153.091 E30.9427
G1 X151.243 Y155.007 E31.15298
G1 X151.975 Y156.8 E31.35872
G1 X152.964 Y158.513 E31.56886
G1 X154.161 Y160.06 E31.77666
G1 X155.562 Y161.436 E31.98528
G1 X157.137 Y162.61 E32.19397
G1 X159.267 Y163.789 E32.4526
G1 X159.671 Y164.113 E32.50762
G1 X160.052 Y164.53 E32.56763
G1 X160.306 Y164.928 E32.61779
G1 X160.534 Y165.442 E32.67752
G1 X160.661 Y165.987 E32.73697
G1 X160.698 Y166.458 E32.78717
G1 X160.699 Y182.901 E34.53401
G1 X160.744 Y183.414 E34.58872
G1 X160.869 Y183.885 E34.64048
G1 X161.076 Y184.326 E34.69224
G1 X161.355 Y184.725 E34.74396
G1 X161.701 Y185.072 E34.79602
G1 X162.098 Y185.349 E34.84745
G1 X162.543 Y185.557 E34.89963
G1 X163.012 Y185.682 E34.9512
G1 X163.527 Y185.727 E35.00612
G1 X166.473 Y185.727 E35.31909
G1 X166.988 Y185.682 E35.37401
G1 X167.457 Y185.557 E35.42557
G1 X167.902 Y185.349 E35.47776
G1 X168.299 Y185.072 E35.52918
G1 X168.645 Y184.725 E35.58124
G1 X168.924 Y184.326 E35.63297
G1 X169.131 Y183.885 E35.68472
G1 X169.256 Y183.414 E35.73649
G1 X169.301 Y182.899 E35.79141
G1 X169.303 Y166.412 E37.54293
G1 X169.339 Y165.986 E37.58834
G1 X169.466 Y165.443 E37.64759
G1 X169.694 Y164.928 E37.70742
G1 X169.925 Y164.566 E37.75304
G1 X170.261 Y164.179 E37.80749
G1 X170.699 Y163.815 E37.86799
G1 X172.858 Y162.611 E38.13061
G1 X174.439 Y161.435 E38.33994
G1 X175.835 Y160.062 E38.54795
G1 X177.038 Y158.509 E38.75665
G1 X178.025 Y156.797 E38.96659
G1 X178.761 Y155.007 E39.1722
G1 X179.254 Y153.093 E39.38217
G1 X179.483 Y151.144 E39.59065
G1 X179.445 Y148.717 E39.84851
G1 X179.524 Y148.151 E39.90923
G1 X179.707 Y147.624 E39.96849
G1 X179.953 Y147.164 E40.02391
G1 X180.209 Y146.824 E40.06912
G1 X180.576 Y146.46 E40.12404
G1 X181.035 Y146.136 E40.18373
G1 X192.04 Y139.782 E41.53373
G1 X192.24 Y139.712 E41.55624
G1 X192.452 Y139.721 E41.57879
G1 X192.647 Y139.806 E41.60139
G1 X192.816 Y139.99 E41.62793
G1 X198.091 Y149.129 E42.74894
G1 X198.161 Y149.329 E42.77145
G1 X198.152 Y149.542 E42.7941
G1 X198.046 Y149.763 E42.82014
G1 X194.679 Y154.06 E43.40009
G1 X191.223 Y158.92 E44.03363
G1 X188.037 Y163.894 E44.66115
G1 X185.073 Y169.055 E45.29343
G1 X182.368 Y174.337 E45.92387
G1 X179.917 Y179.757 E46.55581
G1 X177.745 Y185.251 E47.18342
G1 X175.708 Y191.24 E47.85547
G1 X175.404 Y191.746 E47.91818
G1 X175.082 Y192.139 E47.97215
G1 X174.674 Y192.503 E48.03024
G1 X174.276 Y192.749 E48.07995
G1 X173.773 Y192.966 E48.13815
G1 X173.236 Y193.089 E48.19667
G1 X172.775 Y193.124 E48.24579
G1 X163.101 Y193.124 E49.27352
G1 X162.893 Y193.084 E49.29602
G1 X162.715 Y192.973 E49.3183
G1 X159.446 Y189.942 E49.7919
G1 X156.191 Y186.496 E50.29549
G1 X153.209 Y182.889 E50.79268
G1 X150.434 Y179.025 E51.29806
G1 X147.999 Y175.106 E51.78822
G1 X145.307 Y169.76 E52.4241
G1 X142.319 Y164.485 E53.06816
G1 X139.034 Y159.304 E53.71988
G1 X135.493 Y154.29 E54.37199
G1 X131.953 Y149.764 E54.98242
G1 X131.855 Y149.575 E55.00504
G1 X131.834 Y149.364 E55.02757
G1 X131.908 Y149.13 E55.05364
G1 X137.185 Y139.991 E56.17476
G1 X137.324 Y139.83 E56.19736
G0 F6000 X136.616 Y139.218
G1 F1800 X136.891 Y139 E56.23464
G1 X137.411 Y138.802 E56.29375
G1 X137.622 Y138.779 E56.3163
G1 X138.001 Y138.815 E56.35675
G1 X138.429 Y138.972 E56.40518
G1 X149.474 Y145.349 E57.76009
G1 X149.94 Y145.669 E57.82014
G1 X150.425 Y146.125 E57.89086
G1 X150.869 Y146.698 E57.96787
G1 X151.178 Y147.317 E58.04137
G1 X151.368 Y147.867 E58.10319
G1 X151.493 Y148.591 E58.18124
G1 X151.455 Y151.096 E58.4474
G1 X151.669 Y152.921 E58.6426
G1 X152.132 Y154.708 E58.83872
G1 X152.818 Y156.388 E59.0315
G1 X153.745 Y157.993 E59.22841
G1 X154.861 Y159.435 E59.42212
G1 X156.177 Y160.728 E59.61811
G1 X157.642 Y161.82 E59.81223
G1 X159.791 Y163.01 E60.0732
G1 X160.311 Y163.427 E60.14401
G1 X160.804 Y163.965 E60.22153
G1 X161.162 Y164.548 E60.29421
G1 X161.425 Y165.142 E60.36323
G1 X161.589 Y165.843 E60.43971
G1 X161.634 Y166.458 E60.50522
G1 X161.635 Y182.865 E62.24824
G1 X161.669 Y183.248 E62.28908
G1 X161.753 Y183.566 E62.32403
G1 X161.889 Y183.856 E62.35805
G1 X162.074 Y184.12 E62.3923
G1 X162.304 Y184.351 E62.42693
G1 X162.571 Y184.537 E62.4615
G1 X162.866 Y184.675 E62.4961
G1 X163.175 Y184.757 E62.53006
G1 X163.562 Y184.791 E62.57133
G1 X166.438 Y184.791 E62.87687
G1 X166.825 Y184.757 E62.91814
G1 X167.134 Y184.675 E62.95211
G1 X167.429 Y184.537 E62.9867
G1 X167.696 Y184.351 E63.02127
G1 X167.926 Y184.12 E63.0559
G1 X168.111 Y183.856 E63.09015
G1 X168.247 Y183.566 E63.12418
G1 X168.331 Y183.248 E63.15912
G1 X168.365 Y182.864 E63.20008
G1 X168.37 Y166.333 E64.95627
G1 X168.411 Y165.844 E65.0084
G1 X168.576 Y165.141 E65.08511
G1 X168.87 Y164.477 E65.16226
G1 X169.218 Y163.952 E65.22917
G1 X169.602 Y163.51 E65.29137
G1 X170.166 Y163.041 E65.3693
G1 X172.345 Y161.826 E65.63434
G1 X173.832 Y160.719 E65.83129
G1 X175.132 Y159.441 E66.02495
G1 X176.259 Y157.986 E66.22047
G1 X177.181 Y156.387 E66.41656
G1 X177.873 Y154.705 E66.60978
G1 X178.331 Y152.927 E66.80484
G1 X178.546 Y151.095 E67.0008
G1 X178.508 Y148.661 E67.25941
G1 X178.61 Y147.932 E67.33761
G1 X178.846 Y147.249 E67.41438
G1 X179.168 Y146.648 E67.48681
G1 X179.55 Y146.159 E67.55273
G1 X179.975 Y145.738 E67.61629
G1 X180.567 Y145.325 E67.69297
G1 X191.572 Y138.971 E69.04298
G1 X191.931 Y138.829 E69.08399
G1 X192.28 Y138.777 E69.12148
G1 X192.826 Y138.863 E69.1802
G1 X193.021 Y138.948 E69.2028
G1 X193.336 Y139.173 E69.24392
G1 X193.627 Y139.522 E69.29219
G1 X198.902 Y148.661 E70.41321
G1 X199.044 Y149.02 E70.45422
G1 X199.087 Y149.582 E70.5141
G1 X198.996 Y149.947 E70.55407
G1 X198.783 Y150.34 E70.60155
G1 X195.428 Y154.622 E71.17946
G1 X191.999 Y159.444 E71.80805
G1 X188.84 Y164.375 E72.43018
G1 X185.894 Y169.504 E73.05855
G1 X183.213 Y174.74 E73.68348
G1 X180.77 Y180.143 E74.31343
G1 X178.625 Y185.57 E74.93337
G1 X176.562 Y191.636 E75.61405
G1 X176.17 Y192.287 E75.69478
G1 X175.761 Y192.787 E75.7634
G1 X175.23 Y193.261 E75.83902
G1 X174.647 Y193.608 E75.9111
G1 X174.065 Y193.859 E75.97843
G1 X173.374 Y194.017 E76.05373
G1 X172.775 Y194.06 E76.11753
G1 X163.101 Y194.06 E77.14526
G1 X162.716 Y194.003 E77.18661
G1 X162.398 Y193.878 E77.22291
G1 X162.079 Y193.659 E77.26402
G1 X158.766 Y190.585 E77.74415
G1 X155.511 Y187.139 E78.24773
G1 X152.449 Y183.435 E78.75828
G1 X149.639 Y179.519 E79.27032
G1 X147.163 Y175.527 E79.76937
G1 X144.476 Y170.191 E80.40406
G1 X141.516 Y164.966 E81.04203
G1 X138.269 Y159.844 E81.6863
G1 X134.737 Y154.842 E82.33681
G1 X131.216 Y150.341 E82.94391
G1 X131.024 Y150.006 E82.98493
G1 X130.903 Y149.457 E83.04465
G1 X130.942 Y149.082 E83.08471
G1 X131.097 Y148.662 E83.13227
G1 X136.374 Y139.523 E84.25339
G1 X136.616 Y139.218 E84.29475
G1 F1500 E83.29475
;MESH:Core Clamp Y F Primo V1.STL
EXCLUDE_OBJECT_START NAME=Core_Clamp_Y_F_Primo_V1_STL
G0 F6000 X180.548 Y146.355
G0 X181.679 Y147.205
G0 X191.808 Y142.193
;TYPE:WALL-INNER
G1 F1500 E84.29475
G1 F1800 X181.91 Y147.909 E85.50902
G1 X181.601 Y148.256 E85.55838
G1 X181.448 Y148.617 E85.60004
G1 X181.418 Y148.807 E85.62047
G1 X181.454 Y151.226 E85.87749
G1 X181.195 Y153.462 E86.11662
G1 X180.643 Y155.613 E86.35254
G1 X179.793 Y157.682 E86.59017
G1 X178.679 Y159.614 E86.82709
G1 X177.345 Y161.333 E87.05825
G1 X175.72 Y162.94 E87.30104
G1 X173.9 Y164.288 E87.54165
G1 X171.808 Y165.454 E87.79609
G1 X171.529 Y165.721 E87.83711
G1 X171.345 Y166.069 E87.87893
G1 X171.273 Y166.516 E87.92703
G1 X171.269 Y183.05 E89.68354
G1 X171.206 Y183.761 E89.75937
G1 X170.986 Y184.575 E89.84895
G1 X170.651 Y185.287 E89.93254
G1 X170.166 Y185.993 E90.02354
G1 X169.574 Y186.587 E90.11263
G1 X168.885 Y187.068 E90.2019
G1 X168.133 Y187.419 E90.29006
G1 X167.329 Y187.628 E90.37832
G1 X166.623 Y187.695 E90.45366
G1 X163.377 Y187.694 E90.7985
G1 X162.666 Y187.632 E90.87432
G1 X161.863 Y187.417 E90.96263
G1 F1794.2 X161.109 Y187.065 E91.05132
G1 F1728 X160.457 Y186.656 E91.13649
G1 F1673.1 X159.812 Y186 E91.24164
G1 F1651.8 X159.392 Y185.446 E91.32212
G1 F1669.8 X158.999 Y184.531 E91.43617
G1 F1755 X158.795 Y183.762 E91.52286
G1 F1800 X158.731 Y183.05 E91.5988
G1 X158.726 Y166.333 E93.37475
G1 X158.58 Y165.893 E93.424
G1 X158.344 Y165.579 E93.46573
G1 X158.16 Y165.43 E93.49088
G1 X156.049 Y164.261 E93.74724
G1 X154.26 Y162.919 E93.98483
G1 X152.686 Y161.376 E94.21899
G1 X151.32 Y159.612 E94.45601
G1 X150.207 Y157.686 E94.69233
G1 X149.36 Y155.614 E94.93013
G1 X148.804 Y153.457 E95.16677
G1 X148.546 Y151.226 E95.40536
G1 X148.581 Y148.807 E95.66238
G1 X148.49 Y148.434 E95.70316
G1 X148.283 Y148.102 E95.74473
G1 X147.937 Y147.82 E95.79215
G1 X138.191 Y142.194 E96.98765
G1 X134.09 Y149.294 E97.85871
G1 X137.073 Y153.108 E98.37311
G1 X140.686 Y158.225 E99.03857
G1 X144.018 Y163.481 E99.6997
G1 X147.051 Y168.837 E100.3536
G1 X149.73 Y174.161 E100.98677
G1 X152.075 Y177.93 E101.45835
G1 X154.761 Y181.669 E101.94743
G1 F1777.2 X157.768 Y185.308 E102.45536
G1 F1729.8 X158.341 Y185.864 E102.54363
G1 F1668.1 X158.594 Y186.096 E102.58298
G1 F1673.1 X159.17 Y186.746 E102.68224
G1 F1693.3 X159.854 Y187.448 E102.79293
G1 F1720.9 X160.237 Y187.896 E102.85842
G1 F1788.5 X160.86 Y188.565 E102.95616
G1 F1800 X163.651 Y191.152 E103.36045
G1 X172.903 Y191.152 E104.34335
G1 X173.335 Y191.012 E104.39159
G1 X173.644 Y190.784 E104.43239
G1 X173.906 Y190.406 E104.48125
G1 X175.896 Y184.563 E105.137
G1 X178.115 Y178.953 E105.77791
G1 X180.582 Y173.499 E106.41384
G1 X183.349 Y168.093 E107.05901
G1 X186.367 Y162.842 E107.70244
G1 X189.622 Y157.767 E108.34295
G1 X193.104 Y152.872 E108.98112
G1 X195.908 Y149.294 E109.46405
G1 X191.808 Y142.193 E110.33515
G0 F6000 X192.151 Y140.914
;TYPE:WALL-OUTER
G1 F1800 X181.57 Y147.024 E111.63319
G1 X181.27 Y147.233 E111.67203
G1 X181.016 Y147.477 E111.70945
G1 X180.805 Y147.756 E111.74661
G1 X180.644 Y148.069 E111.784
G1 X180.536 Y148.395 E111.82049
G1 X180.481 Y148.741 E111.85771
G1 X180.519 Y151.188 E112.1177
G1 X180.265 Y153.318 E112.34559
G1 X179.74 Y155.346 E112.56813
G1 X178.963 Y157.24 E112.78562
G1 X177.915 Y159.064 E113.0091
G1 X176.625 Y160.733 E113.2332
G1 X175.083 Y162.247 E113.46278
G1 X173.449 Y163.464 E113.67922
G1 X171.282 Y164.676 E113.943
G1 X171.012 Y164.894 E113.97986
G1 X170.78 Y165.155 E114.01696
G1 X170.589 Y165.455 E114.05474
G1 X170.455 Y165.77 E114.09111
G1 X170.368 Y166.117 E114.12912
G1 X170.337 Y166.476 E114.1674
G1 X170.336 Y182.968 E115.91944
G1 X170.285 Y183.554 E115.98193
G1 X170.111 Y184.229 E116.05599
G1 X169.829 Y184.837 E116.12719
G1 X169.441 Y185.394 E116.1993
G1 X168.966 Y185.87 E116.27074
G1 X168.382 Y186.27 E116.34594
G1 X167.815 Y186.535 E116.41243
G1 X167.167 Y186.706 E116.48363
G1 X166.542 Y186.762 E116.55029
G1 X163.458 Y186.762 E116.87793
G1 X162.83 Y186.707 E116.9449
G1 X162.185 Y186.534 E117.01584
G1 X161.618 Y186.27 E117.08229
G1 X161.055 Y185.884 E117.15481
G1 X160.579 Y185.414 E117.22587
G1 X160.199 Y184.88 E117.2955
G1 X159.891 Y184.239 E117.37105
G1 X159.719 Y183.593 E117.44207
G1 X159.664 Y182.968 E117.50872
G1 X159.662 Y166.476 E119.26077
G1 X159.632 Y166.118 E119.29894
G1 X159.545 Y165.77 E119.33704
G1 X159.411 Y165.455 E119.37341
G1 X159.22 Y165.155 E119.41119
G1 X158.992 Y164.899 E119.44761
G1 X158.684 Y164.65 E119.48969
G1 X156.584 Y163.489 E119.74461
G1 X154.899 Y162.233 E119.96788
G1 X153.366 Y160.726 E120.19625
G1 X152.085 Y159.065 E120.41909
G1 X151.035 Y157.238 E120.64295
G1 X150.242 Y155.287 E120.86669
G1 X149.734 Y153.317 E121.08282
G1 X149.482 Y151.188 E121.31058
G1 X149.519 Y148.741 E121.57057
G1 X149.464 Y148.395 E121.60778
G1 X149.356 Y148.069 E121.64427
G1 X149.194 Y147.756 E121.68171
G1 X148.987 Y147.48 E121.71836
G1 X148.728 Y147.23 E121.7566
G1 X148.439 Y147.029 E121.794
