;FLAVOR:Marlin
;TIME:1327
;Filament used: 2.62113m
;Layer height: 0.26
;MINX:120.533
;MINY:144.233
;MINZ:0.26
;MAXX:209.467
;MAXY:183.187
;MAXZ:12.48
;Generated with Cura_SteamEngine 5.4.0
M140 S60


; Pre-Processed for Cancel-Object support by preprocess_cancellation v0.2.0
; 3 known objects
EXCLUDE_OBJECT_DEFINE NAME=DC_Mount_Female_stl CENTER=137.987,164.061 POLYGON=[[125.125,149.101],[125.125,180.824],[150.275,180.824],[150.275,149.101]]
EXCLUDE_OBJECT_DEFINE NAME=DC_Mount_Male_stl CENTER=164.800,167.124 POLYGON=[[152.425,148.825],[152.425,181.1],[177.575,181.1],[177.575,148.825]]
EXCLUDE_OBJECT_DEFINE NAME=DC_Mount_Male_Inverted_stl CENTER=190.947,167.214 POLYGON=[[121.378,145.078],[121.378,182.342],[208.622,182.342],[208.622,145.078]]
M105
M190 S60
M104 S210
M105
M109 S210
M82 ;absolute extrusion mode
START_GCODE
G92 E0
G92 E0
G1 F1500 E-1
;LAYER_COUNT:48
;LAYER:0
M107
G0 F6000 X122.267 Y145.356 Z0.26
;TYPE:SKIRT
G1 F1500 E0
G1 F1800 X122.812 Y145.012 E0.05887
G1 X123.416 Y144.75 E0.119
G1 X124.047 Y144.584 E0.1786
G1 X124.8 Y144.51 E0.24771
G1 X144.654 Y144.509 E2.06119
G1 X147.441 Y144.47 E2.31578
G1 X150.135 Y144.355 E2.56208
G1 X152.163 Y144.234 E2.74764
G1 X204.554 Y144.233 E7.53307
G1 X205.252 Y144.243 E7.59683
G1 X205.903 Y144.301 E7.65653
G1 X206.534 Y144.457 E7.7159
G1 X207.138 Y144.711 E7.77575
G1 X207.692 Y145.05 E7.83508
G1 X208.19 Y145.471 E7.89464
G1 X208.62 Y145.967 E7.9546
G1 X208.966 Y146.514 E8.01372
G1 X209.225 Y147.112 E8.07325
G1 X209.392 Y147.746 E8.13313
G1 X209.466 Y148.499 E8.20224
G1 X209.467 Y172.239 E10.37067
G1 X209.456 Y172.946 E10.43526
G1 X209.398 Y173.6 E10.49523
G1 X209.232 Y174.245 E10.55606
G1 X208.967 Y175.03 E10.63174
G1 X208.559 Y176.184 E10.74354
G1 X207.633 Y179.061 E11.0196
G1 X207.414 Y179.6 E11.07274
G1 X207.073 Y180.167 E11.13318
G1 X206.658 Y180.667 E11.19253
G1 X206.169 Y181.099 E11.25213
G1 X205.623 Y181.45 E11.31142
G1 X205.025 Y181.716 E11.3712
G1 X204.391 Y181.89 E11.43125
G1 X203.543 Y181.976 E11.50911
G1 X201.698 Y181.953 E11.67764
G1 X200.551 Y181.872 E11.78267
G1 X197.813 Y181.719 E12.03315
G1 X195.083 Y181.642 E12.28261
G1 X192.426 Y181.644 E12.5253
G1 X189.664 Y181.723 E12.77769
G1 X187.012 Y181.874 E13.02032
G1 X184.285 Y182.108 E13.27032
G1 X181.615 Y182.412 E13.51577
G1 X178.875 Y182.803 E13.76858
G1 X176.927 Y183.125 E13.94893
G1 X176.337 Y183.175 E14.00301
G1 X175.342 Y183.185 E14.0939
G1 X174.527 Y183.173 E14.16835
G1 X171.708 Y182.94 E14.42672
G1 X168.979 Y182.79 E14.67636
G1 X166.25 Y182.715 E14.92573
G1 X163.591 Y182.719 E15.1686
G1 X160.848 Y182.799 E15.41926
G1 X156.746 Y183.066 E15.79473
G1 X155.228 Y183.187 E15.93382
G1 X153.674 Y183.175 E16.07577
G1 X152.762 Y183.069 E16.15963
G1 X150.392 Y182.53 E16.38164
G1 X147.736 Y181.998 E16.62906
G1 X145.069 Y181.54 E16.87623
G1 X142.388 Y181.16 E17.12356
G1 X139.692 Y180.853 E17.37141
G1 X137.02 Y180.626 E17.61635
G1 X134.288 Y180.472 E17.86629
G1 X131.563 Y180.394 E18.11529
G1 X128.888 Y180.394 E18.35963
G1 X126.044 Y180.463 E18.61948
G1 X124.715 Y180.451 E18.74088
G1 X124.128 Y180.401 E18.79469
G1 X123.498 Y180.25 E18.85386
G1 X122.89 Y180 E18.91391
G1 X122.335 Y179.665 E18.97312
G1 X121.834 Y179.248 E19.03266
G1 X121.401 Y178.756 E19.09252
G1 X121.05 Y178.208 E19.15197
G1 X120.784 Y177.61 E19.21175
G1 X120.614 Y176.979 E19.27144
G1 X120.533 Y176.178 E19.34498
G1 X120.533 Y149.412 E21.7898
G1 X120.543 Y148.723 E21.85274
G1 X120.601 Y148.074 E21.91226
G1 X120.758 Y147.44 E21.97192
G1 X121.011 Y146.837 E22.03165
G1 X121.35 Y146.283 E22.09097
G1 X121.772 Y145.784 E22.15066
G1 X122.267 Y145.356 E22.21043
G0 F6000 X122.77 Y146.038
G1 F1800 X123.212 Y145.759 E22.25818
G1 X123.692 Y145.551 E22.30596
G1 X124.198 Y145.418 E22.35375
G1 X124.8 Y145.355 E22.40904
G1 X144.666 Y145.354 E24.22361
G1 X147.454 Y145.315 E24.47829
G1 X150.171 Y145.199 E24.72669
G1 X152.163 Y145.079 E24.90897
G1 X204.542 Y145.078 E29.6933
G1 X205.24 Y145.088 E29.75707
G1 X205.761 Y145.136 E29.80486
G1 X206.268 Y145.262 E29.85257
G1 X206.75 Y145.464 E29.90031
G1 X207.196 Y145.737 E29.94807
G1 X207.595 Y146.075 E29.99584
G1 X207.938 Y146.47 E30.04362
G1 X208.217 Y146.912 E30.09136
G1 X208.425 Y147.391 E30.13906
G1 X208.558 Y147.897 E30.18685
G1 X208.621 Y148.499 E30.24214
G1 X208.622 Y172.226 E32.40938
G1 X208.611 Y172.933 E32.47396
G1 X208.563 Y173.454 E32.52175
G1 X208.431 Y173.975 E32.57085
G1 X208.17 Y174.748 E32.64537
G1 X207.762 Y175.902 E32.75717
G1 X206.85 Y178.742 E33.02962
G1 X206.653 Y179.226 E33.07735
G1 X206.384 Y179.674 E33.12509
G1 X206.05 Y180.076 E33.17282
G1 X205.658 Y180.423 E33.22064
G1 X205.218 Y180.706 E33.26843
G1 X204.741 Y180.918 E33.31611
G1 X204.236 Y181.056 E33.36393
G1 X203.553 Y181.131 E33.42669
G1 X201.758 Y181.11 E33.59065
G1 X200.598 Y181.028 E33.69687
G1 X197.847 Y180.874 E33.94854
G1 X195.106 Y180.797 E34.19901
G1 X192.402 Y180.799 E34.44599
G1 X189.627 Y180.878 E34.69957
G1 X186.962 Y181.03 E34.94338
G1 X184.189 Y181.268 E35.1976
G1 X181.509 Y181.573 E35.44398
G1 X178.742 Y181.968 E35.69928
G1 X176.851 Y182.283 E35.87438
G1 X176.328 Y182.33 E35.92235
G1 X175.354 Y182.34 E36.01132
G1 X174.539 Y182.328 E36.08577
G1 X171.754 Y182.096 E36.34103
G1 X169.012 Y181.945 E36.59187
G1 X166.272 Y181.87 E36.84224
G1 X163.566 Y181.874 E37.0894
G1 X160.823 Y181.954 E37.34006
G1 X156.682 Y182.224 E37.7191
G1 X155.235 Y182.342 E37.85171
G1 X153.681 Y182.33 E37.99366
G1 X152.949 Y182.245 E38.06097
G1 X150.558 Y181.701 E38.28495
G1 X147.902 Y181.169 E38.53237
G1 X145.192 Y180.704 E38.78352
G1 X142.493 Y180.321 E39.03251
G1 X139.788 Y180.013 E39.28119
G1 X137.068 Y179.782 E39.53053
G1 X134.325 Y179.627 E39.78148
G1 X131.587 Y179.549 E40.03167
G1 X128.867 Y179.549 E40.28011
G1 X126.05 Y179.618 E40.5375
G1 X124.786 Y179.609 E40.65296
G1 X124.265 Y179.565 E40.70071
G1 X123.756 Y179.443 E40.74852
G1 X123.273 Y179.244 E40.79624
G1 X122.825 Y178.974 E40.84402
G1 X122.423 Y178.639 E40.89181
G1 X122.078 Y178.247 E40.93951
G1 X121.796 Y177.807 E40.98725
G1 X121.584 Y177.329 E41.03501
G1 X121.448 Y176.824 E41.08278
G1 X121.378 Y176.178 E41.14213
G1 X121.378 Y149.424 E43.58586
G1 X121.388 Y148.735 E43.6488
G1 X121.436 Y148.215 E43.6965
G1 X121.562 Y147.707 E43.74431
G1 X121.764 Y147.225 E43.79204
G1 X122.037 Y146.779 E43.8398
G1 X122.375 Y146.38 E43.88757
G1 X122.77 Y146.038 E43.93529
G1 F1500 E42.93529
;MESH:DC_Mount_Female.stl
EXCLUDE_OBJECT_START NAME=DC_Mount_Female_stl
G0 F6000 X130.92 Y152.333
G0 X132.433 Y152.237
G0 X143.951 Y152.236
G0 X145.157 Y152.574
G0 X146.116 Y153.298
G0 X146.749 Y154.319
G0 X146.972 Y155.528
G0 X146.856 Y156.368
G0 X146.309 Y157.47
G0 X145.005 Y158.554
G0 X144.98 Y158.502
;TYPE:WALL-INNER
G1 F1500 E43.93529
G1 F1800 X145.26 Y158.634 E43.96357
G1 X145.763 Y158.972 E44.01892
G1 X146.172 Y159.366 E44.07079
G1 X146.414 Y159.687 E44.10751
G1 X146.758 Y160.318 E44.17316
G1 X146.927 Y161.013 E44.23849
G1 X146.974 Y161.553 E44.288
G1 X146.875 Y162.266 E44.35375
G1 X146.674 Y162.848 E44.40999
G1 X146.368 Y163.38 E44.46605
G1 X145.991 Y163.826 E44.51939
G1 X145.508 Y164.217 E44.57615
G1 X144.994 Y164.497 E44.62962
G1 X144.704 Y164.601 E44.65776
G1 X143.964 Y164.766 E44.72701
G1 X132.564 Y164.767 E45.76829
G1 X131.925 Y164.672 E45.8273
G1 X131.345 Y164.47 E45.8834
G1 X130.808 Y164.16 E45.94004
G1 X130.373 Y163.789 E45.99226
G1 X129.986 Y163.313 E46.04829
G1 X129.648 Y162.693 E46.11279
G1 X129.485 Y162.086 E46.1702
G1 X129.427 Y161.439 E46.22953
G1 X129.542 Y160.614 E46.30562
G1 X129.833 Y159.938 E46.37284
G1 X130.052 Y159.59 E46.4104
G1 X130.497 Y159.074 E46.47264
G1 X131.083 Y158.665 E46.53791
G1 X131.42 Y158.498 E46.57227
G1 X131.14 Y158.366 E46.60054
G1 X130.637 Y158.028 E46.65589
G1 X130.228 Y157.634 E46.70777
G1 X129.96 Y157.277 E46.74854
G1 X129.647 Y156.688 E46.80947
G1 X129.485 Y156.086 E46.86641
G1 X129.427 Y155.439 E46.92574
G1 X129.542 Y154.614 E47.00183
G1 X129.833 Y153.938 E47.06905
G1 X130.078 Y153.552 E47.11081
G1 X130.496 Y153.075 E47.16874
G1 X131.083 Y152.665 E47.23414
G1 X131.696 Y152.399 E47.29518
G1 X132.436 Y152.234 E47.36443
G1 X143.836 Y152.233 E48.40572
G1 X144.475 Y152.328 E48.46472
G1 X145.055 Y152.53 E48.52082
G1 X145.576 Y152.83 E48.57574
G1 X146.082 Y153.264 E48.63663
G1 X146.414 Y153.687 E48.68574
G1 X146.758 Y154.318 E48.75139
G1 X146.927 Y155.013 E48.81672
G1 X146.974 Y155.553 E48.86623
G1 X146.875 Y156.266 E48.93198
G1 X146.674 Y156.848 E48.98822
G1 X146.299 Y157.478 E49.05519
G1 X145.81 Y157.991 E49.11992
G1 X145.317 Y158.335 E49.17483
G1 X144.98 Y158.502 E49.20919
G1 F1500 E48.20919
G0 F6000 X145.005 Y158.554
G0 X146.116 Y159.298
G0 X146.749 Y160.319
G0 X146.972 Y161.528
G0 X146.269 Y164.069
G0 X148.944 Y164.069
G0 X149.333 Y169.768
G0 X149.333 Y169.937
G1 F1500 E49.20919
G1 F1800 X149.333 Y150.043 E51.02632
G1 X126.068 Y150.044 E53.15136
G1 X126.067 Y169.937 E54.9684
G1 X126.4 Y169.826 E55.00046
G1 X149 Y169.826 E57.06476
G1 X149.333 Y169.937 E57.09682
G0 F6000 X149.254 Y170.755
;TYPE:WALL-OUTER
G1 F1850.4 X149.4 Y171.093 E57.12954
G1 F1901.2 X149.4 Y175.796 E57.53623
G1 X150.2 Y175.796 E57.60541
G1 X150.2 Y171.093 E58.01211
G1 F1850.4 X150.178 Y170.293 E58.08322
G1 F1800 X150.178 Y149.198 E60.01005
G1 X125.223 Y149.199 E62.28946
G1 X125.222 Y170.293 E64.2162
G1 F1850.4 X125.2 Y171.093 E64.28731
G1 F1901.2 X125.2 Y175.796 E64.69401
G1 X126 Y175.796 E64.76319
G1 X126 Y171.093 E65.16989
G1 F1850.4 X126.146 Y170.755 E65.2026
G1 F1800 X126.4 Y170.671 E65.22704
G1 X149 Y170.671 E67.29134
G1 X149.254 Y170.755 E67.31577
G0 F6000 X149.373 Y171.03
G1 F1500 E66.31577
G0 F6000 X149.373 Y169.768
G0 X148.944 Y158.502
G0 X146.88 Y157.258
G0 X145.7 Y158.085
G0 X144.976 Y158.502
G0 X143.836 Y159
G1 F1500 E67.31577
G1 F1581.1 X144.689 Y159.274 E67.40894
G1 F1720.6 X145.13 Y159.548 E67.45855
G1 F1800 X145.513 Y159.895 E67.50576
G1 X145.779 Y160.26 E67.54701
G1 X145.972 Y160.662 E67.58774
G1 X146.073 Y161.019 E67.62163
G1 X146.124 Y161.499 E67.66572
G1 X146.042 Y162.119 E67.72285
G1 X145.886 Y162.542 E67.76403
G1 X145.651 Y162.931 E67.80554
G1 X145.364 Y163.259 E67.84535
G1 X144.938 Y163.58 E67.89407
G1 X144.518 Y163.776 E67.9364
G1 X143.899 Y163.915 E67.99435
G1 X132.521 Y163.922 E69.03363
G1 X131.998 Y163.818 E69.08233
G1 X131.587 Y163.649 E69.12292
G1 X131.264 Y163.449 E69.15762
G1 X130.887 Y163.104 E69.2043
G1 X130.621 Y162.74 E69.24548
G1 X130.428 Y162.339 E69.28613
G1 X130.327 Y161.983 E69.31993
G1 X130.273 Y161.491 E69.36514
G1 X130.356 Y160.895 E69.42011
G1 X130.514 Y160.458 E69.46255
G1 X130.755 Y160.058 E69.50521
G1 X131.042 Y159.734 E69.54474
G1 X131.399 Y159.459 E69.5859
G1 X131.785 Y159.258 E69.62565
G1 F1644.3 X132.528 Y159 E69.7043
G1 F1516.5 X143.836 Y159 E70.93031
G0 F6000 X144.121 Y159.091
G0 X144.976 Y158.502
G0 X143.831 Y157.999
G1 F1516.5 X132.523 Y158 E72.15632
G1 F1618.1 X132.074 Y157.856 E72.20423
G1 F1768.6 X131.587 Y157.649 E72.25342
G1 F1800 X131.27 Y157.452 E72.28751
G1 X130.887 Y157.105 E72.33472
G1 X130.653 Y156.793 E72.37034
G1 X130.428 Y156.339 E72.41662
G1 X130.327 Y155.983 E72.45042
G1 X130.273 Y155.491 E72.49563
G1 X130.363 Y154.845 E72.55521
G1 X130.55 Y154.387 E72.6004
G1 X130.764 Y154.046 E72.63717
G1 X131.097 Y153.686 E72.68196
G1 X131.462 Y153.42 E72.72321
G1 X131.882 Y153.224 E72.76555
G1 X132.501 Y153.085 E72.8235
G1 X143.879 Y153.078 E73.86277
G1 X144.402 Y153.182 E73.91148
G1 X144.813 Y153.351 E73.95207
G1 X145.191 Y153.594 E73.99311
G1 X145.477 Y153.855 E74.02848
G1 X145.739 Y154.196 E74.06776
G1 X145.943 Y154.587 E74.10804
G1 X146.073 Y155.019 E74.14925
G1 X146.124 Y155.499 E74.19334
G1 X146.042 Y156.119 E74.25046
G1 X145.886 Y156.542 E74.29164
G1 X145.628 Y156.964 E74.33682
G1 X145.358 Y157.266 E74.37383
G1 X145.001 Y157.541 E74.41499
G1 X144.615 Y157.742 E74.45474
G1 F1647.9 X143.831 Y157.999 E74.53706
G0 F6000 X143.531 Y157.999
G1 F1500 E73.53706
G0 F6000 X144.976 Y158.502
G0 X145.67 Y158.891
G0 X146.48 Y159.778
G0 X146.914 Y160.9
G0 X146.856 Y162.368
G0 X145.73 Y164.512
G0 X145.728 Y169.456
G0 X148.521 Y169.536
G0 X148.522 Y169.015
;TYPE:SKIN
G1 F1500 E74.53706
G1 F1800 X126.88 Y169.013 E76.51385
G1 X126.879 Y150.855 E78.17241
G1 X131.434 Y150.855 E78.58847
G1 F1955 X132.269 Y150.788 E78.65892
G1 F2148.3 X143.831 Y150.785 E79.54378
G1 F2075 X144.656 Y150.812 E79.60918
G1 F1910.8 X145.198 Y150.848 E79.65592
G1 F1815 X148.522 Y150.854 E79.95702
G1 F1800 X148.522 Y154.121 E80.25543
G1 F1861.7 X148.549 Y155.57 E80.38342
G1 F1857.1 X148.52 Y156.477 E80.46376
G1 F1795.7 X148.522 Y160.121 E80.79739
G1 F1861.7 X148.549 Y161.57 E80.92538
G1 F1857.1 X148.52 Y162.477 E81.00572
G1 F1795.7 X148.522 Y169.015 E81.60431
G1 F1500 E80.60431
G0 F6000 X148.521 Y169.536
G0 X146.106 Y169.456
G0 X145.16 Y164.826
G0 X146.309 Y163.47
G0 X146.856 Y162.368
G0 X146.972 Y161.528
G0 X146.821 Y160.572
G0 X146.108 Y158.903
G0 X146.446 Y158.504
G1 F1500 E81.60431
G1 F1800 X146.861 Y158.075 E81.65883
G1 X147.373 Y157.315 E81.74254
G1 F1795.7 X147.677 Y156.404 E81.83047
G1 F1857.1 X147.759 Y155.57 E81.90466
G1 F1882.4 X147.717 Y154.879 E81.96512
G1 F1821.6 X147.572 Y154.233 E82.02488
G1 F1800 X147.414 Y153.829 E82.0645
G1 X147.095 Y153.25 E82.12488
G1 X146.66 Y152.694 E82.18937
G1 X146.308 Y152.37 E82.23306
G1 F1808.6 X145.668 Y151.929 E82.30372
G1 F1823.7 X145.028 Y151.654 E82.36652
G1 F1896.5 X144.653 Y151.575 E82.39974
G1 F2052.6 X143.882 Y151.493 E82.46185
G1 F2133.2 X132.312 Y151.495 E83.35357
G1 F1947.5 X131.517 Y151.607 E83.42135
G1 F1800 X130.71 Y151.942 E83.50116
G1 X129.955 Y152.459 E83.58474
G1 X129.402 Y153.103 E83.66227
G1 X129.148 Y153.503 E83.70555
G1 X128.845 Y154.179 E83.77322
G1 X128.723 Y154.622 E83.81519
G1 X128.603 Y155.462 E83.89269
G1 X128.684 Y156.222 E83.96251
G1 X128.887 Y156.992 E84.03524
G1 X129.295 Y157.742 E84.11323
G1 X129.758 Y158.321 E84.18094
G1 X129.954 Y158.495 E84.20488
G1 X129.537 Y158.926 E84.25966
G1 X129.121 Y159.552 E84.32832
G1 X128.845 Y160.179 E84.39089
G1 X128.723 Y160.622 E84.43286
G1 X128.603 Y161.462 E84.51036
G1 X128.684 Y162.222 E84.58018
G1 X128.889 Y162.997 E84.6534
G1 X129.326 Y163.789 E84.73602
G1 X129.811 Y164.379 E84.80579
G1 X130.369 Y164.843 E84.87207
G1 X130.714 Y165.058 E84.9092
G1 X131.369 Y165.352 E84.97478
G1 X131.74 Y165.461 E85.0101
G1 X132.509 Y165.574 E85.0811
G1 X144.076 Y165.571 E86.13763
G1 X144.882 Y165.394 E86.21301
G1 X145.308 Y165.244 E86.25426
G1 X145.981 Y164.878 E86.32424
G1 X146.551 Y164.411 E86.39154
G1 X147.02 Y163.86 E86.45764
G1 F1797.9 X147.424 Y163.16 E86.53155
G1 F1793.6 X147.677 Y162.404 E86.60462
G1 F1857.1 X147.759 Y161.57 E86.67881
G1 F1882.4 X147.717 Y160.879 E86.73928
G1 F1821.6 X147.572 Y160.233 E86.79903
G1 F1800 X147.414 Y159.828 E86.83874
G1 X147.074 Y159.213 E86.90293
G1 X146.586 Y158.622 E86.97294
G1 X146.446 Y158.504 E86.98966
G1 F1500 E85.98966
G0 F6000 X146.108 Y158.903
G0 X146.626 Y156.957
G0 X146.96 Y155.612
G0 X146.709 Y153.465
G0 X146.709 Y150.432
G0 X147.689 Y150.332
G0 X147.689 Y151.274
G1 F1500 E86.98966
G1 F1800 X148.099 Y151.685 E87.04269
G0 F6000 X149.044 Y151.685
G0 X149.044 Y152.88
G0 X148.099 Y152.88
G1 F1800 X146.494 Y151.274 E87.25008
G1 X146.379 Y151.159
G1 F1500 E86.25008
G0 F6000 X146.379 Y150.332
G0 X145.63 Y152.439
G0 X146.996 Y154.183
G0 X147.868 Y153.843
G1 F1500 E87.25008
G1 F1800 X148.099 Y154.075 E87.27998
G1 F1500 E86.27998
G0 F6000 X149.044 Y154.075
G0 X148.944 Y156.951
G0 X147.243 Y156.377
G0 X147.801 Y157.361
G1 F1500 E87.27998
G1 F1800 X148.097 Y157.657 E87.31822
G0 F6000 X147.351 Y158.106
G1 F1800 X148.098 Y158.853 E87.41471
G0 F6000 X147.853 Y159.803
G1 F1800 X148.099 Y160.05 E87.44655
G1 F1500 E86.44655
G0 F6000 X149.044 Y160.05
G0 X148.944 Y162.944
G0 X147.227 Y162.365
G0 X147.805 Y163.34
G1 F1500 E87.44655
G1 F1800 X148.096 Y163.631 E87.48414
G0 F6000 X147.368 Y164.098
G1 F1800 X148.097 Y164.827 E87.57831
G0 F6000 X149.044 Y164.827
G0 X149.044 Y166.023
G0 X148.098 Y166.023
G1 F1800 X146.815 Y164.74 E87.74404
G0 F6000 X146.147 Y165.267
G1 F1800 X148.099 Y167.219 E87.99619
G0 F6000 X149.044 Y167.219
G0 X149.044 Y168.415
G0 X148.099 Y168.415
G1 F1800 X145.357 Y165.672 E88.35046
G0 F6000 X144.417 Y165.927
