;FLAVOR:Marlin
;TIME:2314
;Filament used: 3.85816m
;Layer height: 0.26
;MINX:137.931
;MINY:135.993
;MINZ:0.26
;MAXX:191.399
;MAXY:190.962
;MAXZ:35.36
;Generated with Cura_SteamEngine 5.4.0
M140 S60


; Pre-Processed for Cancel-Object support by preprocess_cancellation v0.2.0
; 1 known objects
EXCLUDE_OBJECT_DEFINE NAME=HMG7_Bondtech_BMG_BMG_M_Front_Mirror_Mount_stl CENTER=169.050,174.943 POLYGON=[[138.477,136.539],[138.477,190.416],[190.853,190.416],[190.853,136.539]]
M105
M190 S60
M104 S210
M105
M109 S210
M82 ;absolute extrusion mode
START_GCODE
G92 E0
G92 E0
G1 F1500 E-1
;LAYER_COUNT:136
;LAYER:0
M107
M204 S500
G0 F6000 X139.036 Y140.63 Z0.26
;TYPE:SKIRT
G1 F1500 E0
G1 F3600 X142.113 Y137.548 E0.25704
G1 X142.633 Y137.048 E0.29961
G1 X143.095 Y136.674 E0.3347
G1 X143.535 Y136.413 E0.36489
G1 X144.088 Y136.187 E0.40015
G1 X144.84 Y136.01 E0.44574
G1 X145.802 Y135.993 E0.50253
G1 X186.928 Y135.993 E2.92979
G1 X187.669 Y136.005 E2.97353
G1 X188.178 Y136.053 E3.0037
G1 X188.799 Y136.204 E3.04142
G1 X189.307 Y136.422 E3.07405
G1 X189.885 Y136.785 E3.11433
G1 X190.27 Y137.122 E3.14453
G1 X190.657 Y137.575 E3.1797
G1 X190.969 Y138.083 E3.21488
G1 X191.216 Y138.673 E3.25263
G1 X191.352 Y139.288 E3.28981
G1 X191.396 Y139.783 E3.31914
G1 X191.399 Y185.633 E6.02521
G1 X191.387 Y186.378 E6.06918
G1 X191.339 Y186.887 E6.09936
G1 X191.188 Y187.509 E6.13714
G1 X190.97 Y188.017 E6.16976
G1 X190.561 Y188.68 E6.21574
G1 X189.873 Y189.392 E6.27417
G1 X189.349 Y189.899 E6.31721
G1 X188.955 Y190.226 E6.34743
G1 X188.407 Y190.559 E6.38527
G1 X187.813 Y190.79 E6.42289
G1 X187.133 Y190.944 E6.46404
G1 X186.16 Y190.961 E6.52147
G1 X142.403 Y190.962 E9.10402
G1 X141.662 Y190.95 E9.14776
G1 X141.153 Y190.902 E9.17793
G1 X140.532 Y190.751 E9.21565
G1 X140.024 Y190.533 E9.24828
G1 X139.446 Y190.17 E9.28856
G1 X139.061 Y189.833 E9.31876
G1 X138.674 Y189.38 E9.35392
G1 X138.362 Y188.872 E9.38911
G1 X138.115 Y188.282 E9.42686
G1 X137.979 Y187.668 E9.46397
G1 X137.935 Y187.175 E9.49319
G1 X137.931 Y143.964 E12.04351
G1 X137.943 Y143.219 E12.08748
G1 X137.991 Y142.71 E12.11766
G1 X138.142 Y142.088 E12.15543
G1 X138.36 Y141.58 E12.18806
G1 X138.714 Y141.014 E12.22746
G1 X139.036 Y140.63 E12.25704
G0 F6000 X139.422 Y141.016
G1 F3600 X142.493 Y137.94 E12.51357
G1 X142.98 Y137.469 E12.55356
G1 X143.374 Y137.144 E12.5837
G1 X143.814 Y136.883 E12.6139
G1 X144.289 Y136.695 E12.64405
G1 X144.906 Y136.555 E12.68139
G1 X145.812 Y136.539 E12.73487
G1 X186.92 Y136.539 E15.16107
G1 X187.618 Y136.549 E15.20227
G1 X188.127 Y136.597 E15.23244
G1 X188.623 Y136.723 E15.26265
G1 X189.092 Y136.924 E15.29276
G1 X189.525 Y137.196 E15.32294
G1 X189.91 Y137.533 E15.35314
G1 X190.238 Y137.925 E15.38331
G1 X190.501 Y138.364 E15.41351
G1 X190.693 Y138.838 E15.44369
G1 X190.808 Y139.336 E15.47386
G1 X190.852 Y139.831 E15.50319
G1 X190.853 Y185.625 E18.20596
G1 X190.843 Y186.327 E18.24739
G1 X190.795 Y186.836 E18.27757
G1 X190.67 Y187.331 E18.3077
G1 X190.468 Y187.801 E18.33789
G1 X190.129 Y188.341 E18.37552
G1 X189.493 Y189 E18.42958
G1 X189 Y189.479 E18.47015
G1 X188.606 Y189.806 E18.50036
G1 X188.167 Y190.067 E18.53051
G1 X187.692 Y190.257 E18.5607
G1 X187.065 Y190.399 E18.59864
G1 X186.16 Y190.415 E18.65207
G1 X142.411 Y190.416 E21.23414
G1 X141.713 Y190.406 E21.27534
G1 X141.204 Y190.358 E21.30551
G1 X140.708 Y190.232 E21.33572
G1 X140.239 Y190.031 E21.36583
G1 X139.806 Y189.759 E21.39601
G1 X139.421 Y189.422 E21.42621
G1 X139.093 Y189.03 E21.45638
G1 X138.83 Y188.591 E21.48658
G1 X138.638 Y188.117 E21.51676
G1 X138.523 Y187.619 E21.54693
G1 X138.479 Y187.126 E21.57614
G1 X138.477 Y143.972 E24.12309
G1 X138.487 Y143.27 E24.16453
G1 X138.535 Y142.761 E24.19471
G1 X138.66 Y142.266 E24.22484
G1 X138.862 Y141.796 E24.25503
G1 X139.134 Y141.363 E24.28521
G1 X139.422 Y141.016 E24.31182
G1 F1500 E23.31182
;MESH:HMG7 Bondtech BMG BMG-M Front Mirror Mount.stl
EXCLUDE_OBJECT_START NAME=HMG7_Bondtech_BMG_BMG_M_Front_Mirror_Mount_stl
G0 F6000 X141.405 Y142.717
G0 X142.178 Y143.489
G0 X145.299 Y142.861
;TYPE:WALL-INNER
G1 F1500 E24.31182
G1 F2946.9 X145.695 Y142.714 E24.34228
G1 F3497.5 X146.443 Y142.394 E24.3917
G1 F3600 X147.16 Y142.3 E24.43438
G1 X147.591 Y142.32 E24.45985
G1 X148.233 Y142.466 E24.49871
G1 X148.814 Y142.739 E24.53659
G1 X149.058 Y142.906 E24.55405
G1 X149.534 Y143.351 E24.5925
G1 X149.904 Y143.887 E24.63094
G1 X150.054 Y144.211 E24.65202
G1 X150.224 Y144.839 E24.69042
G1 X150.252 Y145.584 E24.73442
G1 X150.135 Y146.185 E24.77055
G1 X149.84 Y146.881 E24.81517
G1 X149.414 Y147.411 E24.8553
G1 X149.03 Y147.742 E24.88522
G1 X148.469 Y148.068 E24.92352
G1 X147.856 Y148.264 E24.9615
G1 X147.234 Y148.324 E24.99838
G1 X146.587 Y148.25 E25.03682
G1 X145.97 Y148.038 E25.07532
G1 X145.415 Y147.701 E25.11364
G1 X144.944 Y147.248 E25.15221
G1 X144.585 Y146.715 E25.19014
G1 X144.456 Y146.438 E25.20818
G1 X144.294 Y145.903 E25.24117
G1 X144.235 Y145.312 E25.27622
G1 X144.281 Y144.808 E25.30609
G1 X144.456 Y144.187 E25.34417
G1 F3019.4 X144.732 Y143.47 E25.39823
G1 F2600 X145.299 Y142.861 E25.46623
G0 F6000 X144.804 Y144.775
G0 X144.804 Y145.851
G0 X145.256 Y146.828
G0 X146.033 Y147.494
G0 X147.111 Y147.873
G0 X147.111 Y147.786
G1 F3600 X146.506 Y147.664 E25.50266
G1 X146.171 Y147.531 E25.52393
G1 X145.723 Y147.249 E25.55518
G1 X145.341 Y146.873 E25.58681
G1 X145.051 Y146.432 E25.61796
G1 X144.832 Y145.809 E25.65694
G1 X144.785 Y145.222 E25.69169
G1 X144.861 Y144.699 E25.72288
G1 X145.051 Y144.192 E25.75484
G1 X145.265 Y143.844 E25.77895
G1 X145.604 Y143.473 E25.80861
G1 F3606.6 X146.012 Y143.179 E25.83824
G1 X146.517 Y142.956 E25.87076
G1 F3600 X147.028 Y142.856 E25.90149
G1 X147.562 Y142.865 E25.93301
G1 X148.086 Y142.992 E25.96483
G1 X148.558 Y143.221 E25.9958
G1 X148.982 Y143.558 E26.02776
G1 X149.373 Y144.032 E26.06403
G1 X149.615 Y144.609 E26.10096
G1 X149.691 Y144.956 E26.12192
G1 X149.708 Y145.547 E26.15682
G1 X149.607 Y146.046 E26.18687
G1 X149.395 Y146.532 E26.21816
G1 X149.029 Y147.024 E26.25435
G1 X148.687 Y147.318 E26.28097
G1 X148.227 Y147.579 E26.31219
G1 X147.721 Y147.735 E26.34344
G1 X147.111 Y147.786 E26.37956
G1 F1500 E25.37956
G0 F6000 X147.111 Y147.873
G0 X148.58 Y148.294
G0 X151.811 Y153.662
G0 X150.599 Y158.777
G0 X150.473 Y159.792
G0 X150.43 Y160.812
G0 X150.472 Y161.833
G0 X150.598 Y162.849
G0 X150.81 Y163.849
G0 X151.104 Y164.829
G0 X151.476 Y165.781
G0 X151.927 Y166.699
G0 X152.452 Y167.575
G0 X153.049 Y168.407
G0 X153.712 Y169.185
G0 X154.438 Y169.906
G0 X155.22 Y170.564
G0 X156.056 Y171.155
G0 X156.937 Y171.675
G0 X157.857 Y172.118
G0 X162.778 Y173.646
G1 F1500 E26.37956
G1 F3600 X161.713 Y173.606 E26.44247
G1 X160.647 Y173.474 E26.50586
G1 X159.725 Y173.285 E26.56141
G1 X158.696 Y172.989 E26.6246
G1 X157.652 Y172.593 E26.6905
G1 X156.725 Y172.148 E26.75119
G1 X155.728 Y171.557 E26.8196
G1 X154.86 Y170.938 E26.88252
G1 X154.087 Y170.286 E26.9422
G1 X153.32 Y169.519 E27.00622
G1 X152.632 Y168.712 E27.06881
G1 X151.994 Y167.816 E27.13373
G1 X151.49 Y166.973 E27.1917
G1 X150.98 Y165.933 E27.26006
G1 X150.636 Y165.054 E27.31577
G1 X150.298 Y163.924 E27.38538
G1 X150.091 Y162.938 E27.44485
G1 X149.953 Y161.817 E27.51151
G1 X149.917 Y160.864 E27.56779
G1 X149.955 Y159.798 E27.63075
G1 X150.082 Y158.752 E27.69294
G1 X150.327 Y157.591 E27.76297
G1 X150.637 Y156.572 E27.82583
G1 X150.981 Y155.693 E27.88154
G1 X151.461 Y154.707 E27.94627
G1 X152.009 Y153.786 E28.00952
G1 X152.608 Y152.946 E28.07041
G1 X153.323 Y152.104 E28.1356
G1 X154.074 Y151.354 E28.19825
G1 X154.89 Y150.664 E28.26132
G1 X155.825 Y150.006 E28.3288
G1 X156.704 Y149.491 E28.38892
G1 X157.708 Y149.009 E28.45465
G1 X158.697 Y148.636 E28.51704
G1 X159.728 Y148.34 E28.58035
G1 X160.687 Y148.145 E28.6381
G1 X161.832 Y148.011 E28.70614
G1 X162.891 Y147.981 E28.76867
G1 X163.852 Y148.028 E28.82546
G1 X164.999 Y148.177 E28.89372
G1 X165.96 Y148.382 E28.95172
G1 X166.955 Y148.687 E29.01314
G1 X167.837 Y149.026 E29.06891
G1 X168.91 Y149.549 E29.13936
G1 X169.812 Y150.092 E29.2015
G1 X170.585 Y150.643 E29.25752
G1 X171.396 Y151.322 E29.31995
G1 X172.141 Y152.061 E29.38188
G1 X172.831 Y152.863 E29.44432
G1 X173.52 Y153.827 E29.51426
G1 X174.003 Y154.633 E29.56971
G1 X174.475 Y155.585 E29.63243
G1 X174.899 Y156.665 E29.70091
G1 X175.202 Y157.689 E29.76393
G1 X175.421 Y158.744 E29.82753
G1 X175.536 Y159.654 E29.88166
G1 X175.587 Y160.795 E29.94907
G1 X175.54 Y161.915 E30.01523
G1 X175.413 Y162.928 E30.07549
G1 X175.212 Y163.894 E30.13372
G1 X174.882 Y165.006 E30.20218
G1 X174.512 Y165.956 E30.26235
G1 X174.044 Y166.914 E30.32528
G1 X173.511 Y167.813 E30.38696
G1 X172.842 Y168.746 E30.45472
G1 X172.158 Y169.549 E30.51698
G1 X171.408 Y170.292 E30.57929
G1 X170.676 Y170.91 E30.63583
G1 X169.894 Y171.474 E30.69273
G1 X168.966 Y172.042 E30.75695
G1 X167.981 Y172.534 E30.82193
G1 X167.003 Y172.924 E30.88407
G1 X165.929 Y173.248 E30.95028
G1 X165.013 Y173.446 E31.00559
G1 X163.851 Y173.598 E31.07476
G1 X162.778 Y173.646 E31.13815
G0 F6000 X162.863 Y173.1
G1 F3600 X161.778 Y173.064 E31.20222
G1 X160.757 Y172.939 E31.26293
G1 X159.77 Y172.734 E31.32243
G1 X158.805 Y172.451 E31.38178
G1 X157.836 Y172.077 E31.44309
G1 X156.971 Y171.66 E31.49976
G1 X156.071 Y171.13 E31.5614
G1 X155.267 Y170.563 E31.61947
G1 X154.457 Y169.884 E31.68185
G1 X153.754 Y169.184 E31.7404
G1 X153.051 Y168.36 E31.80433
G1 X152.472 Y167.551 E31.86305
G1 X151.964 Y166.701 E31.92149
G1 X151.489 Y165.733 E31.98513
G1 X151.123 Y164.792 E32.04472
G1 X150.832 Y163.811 E32.10511
G1 X150.629 Y162.844 E32.16343
G1 X150.499 Y161.796 E32.22576
G1 X150.463 Y160.843 E32.28204
G1 X150.501 Y159.82 E32.34246
G1 X150.635 Y158.754 E32.40587
G1 X150.85 Y157.748 E32.46659
G1 X151.146 Y156.771 E32.52684
G1 X151.518 Y155.83 E32.58656
G1 X151.949 Y154.953 E32.64423
G1 X152.471 Y154.077 E32.70442
G1 X153.067 Y153.245 E32.76482
G1 X153.728 Y152.47 E32.82494
G1 X154.45 Y151.75 E32.88512
G1 X155.229 Y151.092 E32.9453
G1 X156.073 Y150.495 E33.00632
G1 X156.98 Y149.963 E33.06838
G1 X157.904 Y149.519 E33.12888
G1 X158.85 Y149.16 E33.1886
G1 X159.837 Y148.875 E33.24923
G1 X160.825 Y148.676 E33.30872
G1 X161.779 Y148.562 E33.36542
G1 X162.865 Y148.526 E33.42955
G1 X163.891 Y148.579 E33.49019
G1 X164.827 Y148.701 E33.5459
G1 X165.8 Y148.904 E33.60456
G1 X166.795 Y149.209 E33.66598
G1 X167.702 Y149.562 E33.72343
G1 X168.571 Y149.986 E33.78049
G1 X169.495 Y150.537 E33.84399
G1 X170.321 Y151.129 E33.90397
G1 X171.094 Y151.786 E33.96384
G1 X171.797 Y152.494 E34.02273
G1 X172.459 Y153.273 E34.08306
G1 X173.015 Y154.051 E34.1395
G1 X173.567 Y154.974 E34.20298
G1 X174.012 Y155.887 E34.26292
G1 X174.376 Y156.822 E34.32214
G1 X174.668 Y157.802 E34.38249
G1 X174.879 Y158.813 E34.44345
G1 X175 Y159.791 E34.50161
G1 X175.041 Y160.827 E34.5628
G1 X175.004 Y161.779 E34.61903
G1 X174.875 Y162.834 E34.68176
G1 X174.661 Y163.846 E34.74281
G1 X174.373 Y164.808 E34.80208
G1 X174.011 Y165.738 E34.86098
G1 X173.564 Y166.655 E34.92119
G1 X173.053 Y167.515 E34.98023
G1 X172.466 Y168.341 E35.04003
G1 X171.772 Y169.163 E35.10353
G1 X171.107 Y169.828 E35.15903
G1 X170.272 Y170.533 E35.22353
G1 X169.58 Y171.028 E35.27375
G1 X168.696 Y171.568 E35.33489
G1 X167.809 Y172.012 E35.39343
G1 X166.83 Y172.405 E35.45569
G1 X165.814 Y172.714 E35.51837
G1 X164.831 Y172.924 E35.57769
G1 X163.824 Y173.053 E35.63761
G1 X162.863 Y173.1 E35.6944
G1 F1500 E34.6944
G0 F6000 X162.866 Y173.191
G0 X159.548 Y173.48
G0 X150.45 Y176.842
G0 X148.93 Y178.832
G1 F1500 E35.6944
G1 F3600 X148.233 Y179.159 E35.73984
G1 X147.754 Y179.286 E35.76908
G1 X147.162 Y179.325 E35.8041
G1 X146.587 Y179.25 E35.83832
G1 X145.97 Y179.038 E35.87683
G1 X145.415 Y178.701 E35.91515
G1 X144.944 Y178.248 E35.95372
G1 X144.585 Y177.715 E35.99165
G1 X144.456 Y177.438 E36.00968
G1 X144.294 Y176.903 E36.04267
G1 X144.235 Y176.312 E36.07773
G1 X144.281 Y175.808 E36.1076
G1 X144.456 Y175.187 E36.14568
G1 X144.768 Y174.606 E36.1846
G1 X145.192 Y174.114 E36.22293
G1 X145.704 Y173.727 E36.26081
G1 X145.971 Y173.585 E36.27866
G1 X146.59 Y173.374 E36.31726
G1 X147.233 Y173.301 E36.35545
G1 X147.857 Y173.361 E36.39245
G1 X148.469 Y173.557 E36.43038
G1 X149.029 Y173.881 E36.46856
G1 X149.415 Y174.214 E36.49865
G1 X149.842 Y174.747 E36.53896
G1 X150.135 Y175.437 E36.5832
G1 X150.255 Y176.087 E36.62221
G1 X150.24 Y176.7 E36.6584
G1 X150.104 Y177.305 E36.695
G1 X149.834 Y177.868 E36.73185
G1 X149.443 Y178.381 E36.76992
G1 X148.93 Y178.832 E36.81024
G0 F6000 X147.166 Y178.872
G0 X147.162 Y178.779
G1 F3600 X146.675 Y178.711 E36.83926
G1 X146.171 Y178.531 E36.87084
G1 X145.723 Y178.249 E36.90209
G1 X145.341 Y177.873 E36.93372
G1 X145.051 Y177.432 E36.96487
G1 X144.832 Y176.809 E37.00385
G1 X144.785 Y176.222 E37.0386
G1 X144.861 Y175.699 E37.0698
G1 X145.051 Y175.192 E37.10175
G1 X145.341 Y174.751 E37.1329
G1 X145.722 Y174.376 E37.16445
G1 X146.172 Y174.093 E37.19583
G1 X146.678 Y173.913 E37.22753
G1 X147.204 Y173.847 E37.25881
G1 X147.722 Y173.89 E37.28949
G1 X148.227 Y174.046 E37.32069
G1 X148.686 Y174.307 E37.35185
G1 X149.029 Y174.601 E37.37851
G1 X149.398 Y175.095 E37.41491
G1 X149.607 Y175.576 E37.44586
G1 X149.708 Y176.077 E37.47602
G1 X149.7 Y176.617 E37.5079
G1 X149.597 Y177.079 E37.53583
G1 X149.365 Y177.587 E37.56879
G1 X149.046 Y178.006 E37.59987
G1 X148.557 Y178.404 E37.63709
G1 X148.086 Y178.633 E37.668
G1 X147.66 Y178.748 E37.69404
G1 X147.162 Y178.779 E37.72349
G1 F1500 E36.72349
G0 F6000 X147.166 Y178.872
G0 X148.177 Y178.639
G0 X150.323 Y177.39
G0 X175.322 Y177.736
G0 X178.754 Y179.286
G1 F1500 E37.72349
G1 F3600 X178.162 Y179.325 E37.7585
G1 X177.587 Y179.25 E37.79273
G1 X176.97 Y179.038 E37.83123
G1 X176.705 Y178.898 E37.84892
G1 X176.193 Y178.511 E37.8868
G1 X175.848 Y178.135 E37.91692
G1 X175.511 Y177.575 E37.95549
G1 X175.32 Y177.022 E37.99002
G1 X175.224 Y176.328 E38.03137
G1 X175.318 Y175.613 E38.07394
G1 X175.511 Y175.047 E38.10923
G1 X175.825 Y174.51 E38.14594
G1 X176.292 Y174.007 E38.18645
G1 X176.826 Y173.653 E38.22427
G1 X177.414 Y173.407 E38.26188
G1 X178.032 Y173.305 E38.29885
G1 X178.734 Y173.326 E38.3403
G1 X179.368 Y173.511 E38.37928
G1 X179.961 Y173.816 E38.41864
G1 X180.534 Y174.351 E38.46491
G1 X180.903 Y174.887 E38.50331
G1 X181.148 Y175.493 E38.54189
G1 X181.255 Y176.132 E38.58013
G1 X181.235 Y176.728 E38.61533
G1 X181.148 Y177.131 E38.63966
G1 X180.902 Y177.739 E38.67837
G1 X180.535 Y178.273 E38.71661
G1 X179.991 Y178.773 E38.76022
G1 X179.506 Y179.049 E38.79316
G1 X178.754 Y179.286 E38.83969
G0 F6000 X180.447 Y177.634
G0 X180.371 Y177.593
G1 F3600 X179.982 Y178.067 E38.87588
G1 X179.664 Y178.336 E38.90046
G1 X179.086 Y178.633 E38.93882
G1 X178.66 Y178.748 E38.96486
G1 X178.162 Y178.779 E38.99431
G1 X177.675 Y178.711 E39.02333
G1 X177.171 Y178.531 E39.05492
G1 X176.723 Y178.249 E39.08616
G1 X176.283 Y177.805 E39.12305
G1 X176.007 Y177.348 E39.15456
G1 X175.847 Y176.88 E39.18375
G1 X175.782 Y176.267 E39.22014
G1 X175.846 Y175.751 E39.25082
G1 X176.007 Y175.275 E39.28048
G1 X176.294 Y174.805 E39.31298
G1 X176.604 Y174.473 E39.33979
G1 X177.085 Y174.133 E39.37456
G1 X177.579 Y173.935 E39.40597
G1 X178.083 Y173.849 E39.43614
G1 X178.588 Y173.867 E39.46597
G1 X179.166 Y174.019 E39.50124
G1 X179.557 Y174.222 E39.52724
G1 X179.982 Y174.558 E39.55922
G1 X180.374 Y175.035 E39.59566
G1 X180.615 Y175.609 E39.6324
G1 X180.709 Y176.132 E39.66376
G1 X180.697 Y176.634 E39.6934
G1 X180.614 Y177.014 E39.71636
G1 X180.371 Y177.593 E39.75342
G1 F1500 E38.75342
G0 F6000 X180.447 Y177.634
G0 X180.132 Y178.958
G0 X185.963 Y178.958
G0 X186.156 Y185.777
G1 F1500 E39.75342
G1 F3600 X186.215 Y185.718 E39.75834
G1 X186.215 Y141.177 E42.38716
G1 X145.817 Y141.178 E44.77145
G1 F3548 X145.097 Y141.898 E44.83243
G1 F2991.8 X144.878 Y142.263 E44.86266
G1 F2638.4 X144.63 Y142.498 E44.89017
G1 F2631.3 X144.155 Y142.986 E44.94516
G1 F3019.4 X143.745 Y143.25 E44.97948
G1 F3600 X143.116 Y143.879 E45.03198
G1 X143.116 Y185.777 E47.5048
G1 X186.156 Y185.777 E50.04503
G1 F1500 E49.04503
G0 F6000 X142.571 Y186.232
G0 X142.57 Y186.323
G1 F1500 E50.04503
G1 F3600 X186.382 Y186.323 E52.63082
G1 X186.761 Y185.944 E52.66245
