;FLAVOR:Marlin
;TIME:1873
;Filament used: 4.97033m
;Layer height: 0.26
;MINX:128.908
;MINY:151.16
;MINZ:0.26
;MAXX:184.691
;MAXY:204.658
;MAXZ:29.9
;Generated with Cura_SteamEngine 5.4.0
M140 S60


; Pre-Processed for Cancel-Object support by preprocess_cancellation v0.2.0
; 1 known objects
EXCLUDE_OBJECT_DEFINE NAME=Knife_Pen_Mount_STL CENTER=158.690,185.035 POLYGON=[[131.708,153.922],[131.708,202.089],[182.142,202.089],[182.142,153.922]]
M105
M190 S60
M104 S210
M105
M109 S210
M82 ;absolute extrusion mode
START_GCODE
G92 E0
G92 E0
G1 F1500 E-1
;LAYER_COUNT:115
;LAYER:0
M107
M204 S400
G0 F6000 X157.32 Y151.862 Z0.26
;TYPE:SKIRT
G1 F1500 E0
G1 F1800 X157.74 Y151.539 E0.05629
G1 X157.984 Y151.409 E0.08566
G1 X158.508 Y151.224 E0.14469
G1 X159.14 Y151.16 E0.21218
G1 X159.428 Y151.195 E0.243
G1 X159.973 Y151.35 E0.3032
G1 X160.231 Y151.468 E0.33333
G1 X160.678 Y151.774 E0.39088
G1 X167.245 Y157.68 E1.32917
G1 X167.848 Y158.04 E1.40378
G1 X168.308 Y158.237 E1.45694
G1 X168.798 Y158.376 E1.51105
G1 X169.306 Y158.448 E1.56556
G1 X169.891 Y158.456 E1.62772
G1 X177.72 Y158.042 E2.4606
G1 X178.237 Y158.08 E2.51567
G1 X178.713 Y158.199 E2.5678
G1 X178.98 Y158.324 E2.59912
G1 X179.634 Y158.768 E2.68309
G1 X180.14 Y159.292 E2.76048
G1 X180.418 Y159.8 E2.822
G1 X180.676 Y160.549 E2.90616
G1 X181.172 Y165.208 E3.40391
G1 X181.125 Y165.891 E3.47664
G1 X181.046 Y166.279 E3.51871
G1 X180.812 Y166.854 E3.58466
G1 X180.361 Y167.5 E3.66836
G1 X179.853 Y167.91 E3.73771
G1 X179.318 Y168.212 E3.80298
G1 X178.493 Y168.437 E3.89382
G1 X170.274 Y168.873 E4.7682
G1 X169.327 Y168.885 E4.86882
G1 X168.365 Y168.834 E4.97116
G1 X167.45 Y168.724 E5.06907
G1 X166.354 Y168.514 E5.18762
G1 X165.524 Y168.294 E5.27884
G1 X164.525 Y167.956 E5.39088
G1 X163.596 Y167.564 E5.498
G1 X162.977 Y167.252 E5.57164
G1 X146.539 Y183.69 E8.0413
G1 X147.535 Y184.51 E8.17836
G1 X149.113 Y185.666 E8.38617
G1 X150.804 Y186.761 E8.60019
G1 X152.493 Y187.724 E8.80674
G1 X154.248 Y188.593 E9.01479
G1 X156.069 Y189.368 E9.22503
G1 X157.89 Y190.023 E9.43062
G1 X159.829 Y190.597 E9.64545
G1 X161.719 Y191.041 E9.8517
G1 X163.654 Y191.38 E10.0604
G1 X165.655 Y191.613 E10.27442
G1 X180.817 Y192.938 E11.89131
G1 X181.784 Y193.152 E11.99653
G1 X182.586 Y193.58 E12.0931
G1 X183.26 Y194.112 E12.18432
G1 X183.823 Y194.799 E12.27868
G1 X184.27 Y195.635 E12.37939
G1 X184.486 Y196.519 E12.47607
G1 X184.691 Y198.478 E12.68532
G1 X184.673 Y199.36 E12.77904
G1 X184.432 Y200.271 E12.87915
G1 X183.999 Y201.086 E12.9772
G1 X183.718 Y201.483 E13.02887
G1 X183.12 Y202.074 E13.11819
G1 X182.335 Y202.559 E13.21622
G1 X181.728 Y202.8 E13.2856
G1 X179.15 Y203.464 E13.56841
G1 X176.704 Y203.959 E13.83354
G1 X174.176 Y204.33 E14.10498
G1 X171.763 Y204.555 E14.36244
G1 X169.172 Y204.658 E14.63791
G1 X166.618 Y204.62 E14.90927
G1 X164.15 Y204.452 E15.17207
G1 X161.626 Y204.145 E15.44218
G1 X159.111 Y203.7 E15.71352
G1 X156.752 Y203.153 E15.97078
G1 X154.259 Y202.434 E16.24642
G1 X151.846 Y201.592 E16.51793
G1 X149.512 Y200.633 E16.786
G1 X147.231 Y199.553 E17.05411
G1 X145.012 Y198.352 E17.32216
G1 X142.885 Y197.05 E17.5871
G1 X140.862 Y195.662 E17.84774
G1 X138.803 Y194.08 E18.12359
G1 X136.868 Y192.416 E18.39471
G1 X135.115 Y190.741 E18.65229
G1 X133.34 Y188.853 E18.92759
G1 X131.688 Y186.899 E19.19942
G1 X130.209 Y184.941 E19.4601
G1 X129.343 Y183.693 E19.62148
G1 X129.027 Y183.08 E19.69475
G1 X128.908 Y182.398 E19.76829
G1 X128.908 Y181.287 E19.88632
G1 X128.975 Y180.765 E19.94223
G1 X129.203 Y180.118 E20.01511
G1 X129.622 Y179.561 E20.08916
G1 X157.32 Y151.862 E24.2506
G1 F1500 E23.2506
G0 F6000 X158.644 Y153.186
G1 F1500 E24.2506
G1 F1800 X158.82 Y153.067 E24.27317
G1 X159.027 Y153.02 E24.29572
G1 X159.237 Y153.053 E24.3183
G1 X159.426 Y153.166 E24.3417
G1 X165.945 Y159.03 E25.27321
G1 X166.342 Y159.322 E25.32557
G1 X166.992 Y159.709 E25.40593
G1 X167.686 Y160.007 E25.48617
G1 X168.414 Y160.212 E25.56652
G1 X169.156 Y160.318 E25.64615
G1 X169.933 Y160.329 E25.7287
G1 X177.818 Y159.912 E26.56754
G1 X178.028 Y159.94 E26.59005
G1 X178.501 Y160.261 E26.65078
G1 X178.665 Y160.456 E26.67785
G1 X178.825 Y160.852 E26.72322
G1 X179.301 Y165.325 E27.2011
G1 X179.26 Y165.733 E27.24466
G1 X179.172 Y165.965 E27.27102
G1 X179.045 Y166.158 E27.29557
G1 X178.833 Y166.35 E27.32595
G1 X178.527 Y166.509 E27.36259
G1 X178.295 Y166.572 E27.38813
G1 X170.244 Y167.001 E28.24465
G1 X169.424 Y167.015 E28.33177
G1 X168.529 Y166.97 E28.42698
G1 X167.678 Y166.866 E28.51806
G1 X166.834 Y166.704 E28.60936
G1 X166.004 Y166.484 E28.70058
G1 X165.189 Y166.207 E28.79202
G1 X164.436 Y165.891 E28.87878
G1 X163.632 Y165.488 E28.97432
G1 X162.665 Y164.916 E29.09368
G1 X143.812 Y183.769 E31.92617
G1 X144.809 Y184.688 E32.07022
G1 X146.393 Y185.994 E32.28832
G1 X148.067 Y187.22 E32.50875
G1 X149.813 Y188.351 E32.72975
G1 X151.619 Y189.38 E32.95057
G1 X153.463 Y190.293 E33.16917
G1 X155.395 Y191.116 E33.39226
G1 X157.316 Y191.807 E33.60914
G1 X159.323 Y192.401 E33.8315
G1 X161.352 Y192.877 E34.05291
G1 X163.391 Y193.234 E34.27282
G1 X165.439 Y193.473 E34.49187
G1 X180.521 Y194.79 E36.10022
G1 X181.134 Y194.926 E36.16693
G1 X181.516 Y195.118 E36.21235
G1 X181.897 Y195.401 E36.26277
G1 X182.214 Y195.761 E36.31372
G1 X182.509 Y196.312 E36.38012
G1 X182.631 Y196.776 E36.43109
G1 X182.823 Y198.613 E36.62731
G1 X182.806 Y199.098 E36.67887
G1 X182.678 Y199.584 E36.73226
G1 X182.347 Y200.206 E36.80711
G1 X181.953 Y200.595 E36.86593
G1 X181.553 Y200.855 E36.91661
G1 X181.199 Y201.004 E36.95742
G1 X178.778 Y201.63 E37.22307
G1 X176.431 Y202.107 E37.47751
G1 X174.002 Y202.466 E37.73836
G1 X171.589 Y202.691 E37.99582
G1 X169.198 Y202.786 E38.25003
G1 X166.745 Y202.752 E38.51065
G1 X164.327 Y202.589 E38.76811
G1 X161.951 Y202.301 E39.02238
G1 X159.533 Y201.876 E39.2832
G1 X157.174 Y201.329 E39.54046
G1 X154.874 Y200.666 E39.79475
G1 X152.556 Y199.86 E40.05547
G1 X150.312 Y198.941 E40.31308
G1 X148.121 Y197.906 E40.5705
G1 X145.988 Y196.754 E40.82804
G1 X143.945 Y195.506 E41.08238
G1 X141.922 Y194.118 E41.34301
G1 X140.023 Y192.66 E41.59736
G1 X138.162 Y191.062 E41.85795
G1 X136.409 Y189.387 E42.11553
G1 X134.768 Y187.643 E42.36993
G1 X133.182 Y185.771 E42.63058
G1 X131.725 Y183.843 E42.88731
G1 X130.881 Y182.626 E43.04465
G1 X130.78 Y182.398 E43.07114
G1 X130.78 Y181.287 E43.18917
G1 X130.82 Y181.079 E43.21167
G1 X130.946 Y180.885 E43.23625
G1 X158.644 Y153.186 E47.39769
G0 F6000 X157.982 Y152.524
G1 F1800 X158.296 Y152.292 E47.43917
G1 X158.82 Y152.107 E47.4982
G1 X159.172 Y152.095 E47.53562
G1 X159.717 Y152.25 E47.59581
G1 X160.052 Y152.47 E47.63839
G1 X166.688 Y158.438 E48.58654
G1 X167.418 Y158.874 E48.67687
G1 X167.997 Y159.122 E48.74378
G1 X168.606 Y159.294 E48.81101
G1 X169.231 Y159.383 E48.87808
G1 X169.912 Y159.393 E48.95044
G1 X177.769 Y158.977 E49.7863
G1 X178.152 Y159.012 E49.82716
G1 X178.455 Y159.099 E49.86065
G1 X179.027 Y159.487 E49.93408
G1 X179.381 Y159.854 E49.98825
G1 X179.533 Y160.105 E50.01942
G1 X179.756 Y160.753 E50.09223
G1 X180.232 Y165.226 E50.5701
G1 X180.191 Y165.827 E50.6341
G1 X180.135 Y166.065 E50.66007
G1 X179.954 Y166.48 E50.70817
G1 X179.673 Y166.852 E50.7577
G1 X179.265 Y167.181 E50.81338
G1 X178.959 Y167.34 E50.85002
G1 X178.345 Y167.507 E50.91762
G1 X170.26 Y167.937 E51.77775
G1 X169.377 Y167.95 E51.87157
G1 X168.415 Y167.899 E51.97391
G1 X167.564 Y167.795 E52.06499
G1 X166.594 Y167.609 E52.16991
G1 X165.764 Y167.389 E52.26114
G1 X164.827 Y167.07 E52.36629
G1 X164.017 Y166.728 E52.4597
G1 X163.155 Y166.294 E52.56222
G1 X162.813 Y166.092 E52.60442
G1 X145.149 Y183.756 E55.25827
G1 X146.964 Y185.252 E55.50815
G1 X148.59 Y186.443 E55.72227
G1 X150.312 Y187.558 E55.94021
G1 X152.052 Y188.55 E56.15299
G1 X153.856 Y189.443 E56.36684
G1 X155.732 Y190.242 E56.58346
G1 X157.603 Y190.915 E56.7947
G1 X159.576 Y191.499 E57.01329
G1 X161.537 Y191.959 E57.22727
G1 X163.521 Y192.307 E57.44126
G1 X165.547 Y192.543 E57.65795
G1 X180.669 Y193.864 E59.27057
G1 X181.458 Y194.039 E59.35643
G1 X182.074 Y194.367 E59.43057
G1 X182.599 Y194.782 E59.50167
G1 X183.039 Y195.319 E59.57542
G1 X183.389 Y195.974 E59.65432
G1 X183.562 Y196.679 E59.73144
G1 X183.754 Y198.516 E59.92765
G1 X183.739 Y199.23 E60.00352
G1 X183.555 Y199.928 E60.08021
G1 X183.173 Y200.646 E60.16661
G1 X183.005 Y200.872 E60.19653
G1 X182.536 Y201.335 E60.26654
G1 X181.916 Y201.718 E60.34396
G1 X181.433 Y201.91 E60.39918
G1 X178.964 Y202.547 E60.67007
G1 X176.568 Y203.033 E60.92979
G1 X174.089 Y203.398 E61.19599
G1 X171.676 Y203.623 E61.45345
G1 X169.185 Y203.722 E61.71829
G1 X166.682 Y203.686 E61.98423
G1 X164.214 Y203.518 E62.24703
G1 X161.789 Y203.223 E62.50655
G1 X159.322 Y202.788 E62.77268
G1 X156.963 Y202.241 E63.02994
G1 X154.567 Y201.55 E63.29485
G1 X152.201 Y200.726 E63.56102
G1 X149.912 Y199.787 E63.82386
G1 X147.676 Y198.73 E64.0866
G1 X145.5 Y197.553 E64.34942
G1 X143.415 Y196.278 E64.60906
G1 X141.392 Y194.89 E64.8697
G1 X139.413 Y193.37 E65.1348
G1 X137.515 Y191.739 E65.40065
G1 X135.762 Y190.064 E65.65823
G1 X134.054 Y188.248 E65.92308
G1 X132.435 Y186.335 E66.18932
G1 X130.978 Y184.407 E66.44606
G1 X130.112 Y183.159 E66.60743
G1 X129.924 Y182.777 E66.65266
G1 X129.844 Y182.398 E66.69381
G1 X129.844 Y181.287 E66.81184
G1 X129.901 Y180.902 E66.85319
G1 X130.035 Y180.569 E66.89132
G1 X130.284 Y180.223 E66.93661
G1 X157.982 Y152.524 E71.09805
G1 F1500 E70.09805
;MESH:Knife_Pen_Mount.STL
EXCLUDE_OBJECT_START NAME=Knife_Pen_Mount_STL
G0 F6000 X159.07 Y154.518
G0 X165.143 Y160.013
G0 X166.419 Y160.842
G0 X167.264 Y161.203
G0 X168.149 Y161.454
G0 X176.595 Y162.356
G0 X177.245 Y164.652
;TYPE:WALL-INNER
G1 F1500 E71.09805
G1 F1800 X176.957 Y161.933 E71.38852
G1 X170.021 Y162.3 E72.12641
G1 X168.962 Y162.283 E72.23893
G1 X168.029 Y162.147 E72.33909
G1 X167.05 Y161.874 E72.44706
G1 X166.102 Y161.47 E72.55654
G1 X165.234 Y160.955 E72.66376
G1 X164.648 Y160.516 E72.74155
G1 X159.098 Y155.525 E73.5345
G1 X132.755 Y181.867 E77.49222
G1 X133.323 Y182.686 E77.5981
G1 X134.724 Y184.54 E77.84498
G1 X136.231 Y186.322 E78.09291
G1 X137.81 Y187.998 E78.33754
G1 X139.499 Y189.61 E78.58557
G1 X141.267 Y191.126 E78.833
G1 X143.093 Y192.531 E79.07776
G1 X145.008 Y193.844 E79.32443
G1 X146.973 Y195.045 E79.56909
G1 X149.026 Y196.152 E79.81688
G1 X151.131 Y197.146 E80.06418
G1 X153.264 Y198.019 E80.30903
G1 X155.461 Y198.784 E80.55618
G1 X157.669 Y199.418 E80.80022
G1 X159.955 Y199.947 E81.0495
G1 X162.222 Y200.348 E81.29407
G1 X164.536 Y200.628 E81.5417
G1 X166.826 Y200.781 E81.78552
G1 X169.149 Y200.813 E82.03233
G1 X171.478 Y200.72 E82.27995
G1 X173.796 Y200.504 E82.52727
G1 X176.064 Y200.169 E82.77083
G1 X178.384 Y199.695 E83.02239
G1 X180.593 Y199.124 E83.26478
G1 X180.721 Y199.048 E83.28059
G1 X180.861 Y198.793 E83.3115
G1 X180.681 Y197.102 E83.49216
G1 X180.586 Y196.889 E83.51694
G1 X180.368 Y196.758 E83.54396
G1 X165.234 Y195.435 E85.15787
G1 X163.057 Y195.178 E85.39075
G1 X160.902 Y194.8 E85.62318
G1 X158.765 Y194.295 E85.85646
G1 X156.675 Y193.674 E86.08809
G1 X154.706 Y192.965 E86.31042
G1 X152.609 Y192.072 E86.55255
G1 X150.658 Y191.103 E86.78398
G1 X148.785 Y190.038 E87.01287
G1 X146.95 Y188.848 E87.24522
G1 X145.194 Y187.56 E87.47657
G1 X143.477 Y186.144 E87.71301
G1 X142.021 Y184.802 E87.92337
G1 X141.721 Y184.388 E87.97769
G1 X141.595 Y183.938 E88.02733
G1 X141.593 Y183.643 E88.05867
G1 X141.646 Y183.379 E88.08728
G1 X141.869 Y182.922 E88.1413
G1 X161.661 Y163.133 E91.11464
G1 X162.107 Y162.857 E91.17036
G1 X162.418 Y162.777 E91.20447
G1 X162.778 Y162.773 E91.24272
G1 X163.215 Y162.889 E91.29075
G1 X163.986 Y163.404 E91.38925
G1 X164.601 Y163.769 E91.46523
G1 X165.226 Y164.082 E91.53949
G1 X165.914 Y164.371 E91.61876
G1 X166.593 Y164.601 E91.69492
G1 X167.279 Y164.781 E91.77027
G1 X168.018 Y164.921 E91.85017
G1 X168.701 Y165.003 E91.92325
G1 X169.448 Y165.042 E92.00272
G1 X170.2 Y165.028 E92.08262
G1 X177.245 Y164.652 E92.83212
G1 F1500 E91.83212
G0 F6000 X176.595 Y162.356
G0 X169.011 Y162.184
G0 X168.024 Y162.042
G0 X167.064 Y161.77
G0 X166.147 Y161.378
G0 X165.305 Y160.878
G0 X159.094 Y155.424
G0 X159.064 Y154.235
;TYPE:WALL-OUTER
G1 F1500 E92.83212
G1 F1800 X131.816 Y181.482 E96.92581
G1 X131.816 Y182.156 E96.99741
G1 X132.54 Y183.201 E97.13247
G1 X133.993 Y185.125 E97.3886
G1 X135.533 Y186.946 E97.64196
G1 X137.146 Y188.658 E97.89185
G1 X138.871 Y190.304 E98.14515
G1 X140.677 Y191.853 E98.39792
G1 X142.543 Y193.289 E98.64806
G1 X144.499 Y194.63 E98.9
G1 X146.507 Y195.857 E99.15
G1 X148.604 Y196.988 E99.40311
G1 X150.753 Y198.003 E99.6556
G1 X152.933 Y198.895 E99.90583
G1 X155.177 Y199.676 E100.15825
G1 X157.434 Y200.325 E100.40774
G1 X159.768 Y200.865 E100.66225
G1 X162.084 Y201.274 E100.9121
G1 X164.448 Y201.56 E101.16507
G1 X166.788 Y201.717 E101.41422
G1 X169.161 Y201.749 E101.66634
G1 X171.54 Y201.654 E101.91928
G1 X173.908 Y201.434 E102.17193
G1 X176.226 Y201.091 E102.42087
G1 X178.556 Y200.616 E102.67349
G1 X180.905 Y200.01 E102.93121
G1 X181.326 Y199.769 E102.98274
G1 X181.506 Y199.582 E103.01032
G1 X181.733 Y199.151 E103.06207
G1 X181.786 Y198.637 E103.11696
G1 X181.603 Y196.926 E103.29977
G1 X181.524 Y196.643 E103.33099
G1 X181.339 Y196.321 E103.37044
G1 X181.187 Y196.158 E103.39411
G1 X180.77 Y195.907 E103.44582
G1 X180.391 Y195.82 E103.48713
G1 X165.343 Y194.505 E105.09187
G1 X163.218 Y194.256 E105.31916
G1 X161.111 Y193.887 E105.54641
G1 X159.031 Y193.397 E105.77343
G1 X156.992 Y192.793 E105.99935
G1 X154.998 Y192.074 E106.22453
G1 X153.025 Y191.233 E106.45239
G1 X151.12 Y190.289 E106.67825
G1 X149.273 Y189.239 E106.90396
G1 X147.479 Y188.076 E107.13109
G1 X145.753 Y186.809 E107.35856
G1 X144.111 Y185.456 E107.58459
G1 X142.667 Y184.125 E107.79322
G1 X142.567 Y183.987 E107.81132
G1 X142.525 Y183.837 E107.82787
G1 X142.542 Y183.65 E107.84782
G1 X142.609 Y183.514 E107.86393
G1 X162.294 Y163.823 E110.82186
G1 X162.443 Y163.731 E110.84047
G1 X162.667 Y163.703 E110.86445
G1 X162.834 Y163.755 E110.88303
G1 X163.483 Y164.194 E110.96627
G1 X164.151 Y164.591 E111.04882
G1 X164.835 Y164.934 E111.13011
G1 X165.582 Y165.247 E111.21616
G1 X166.323 Y165.498 E111.29927
G1 X167.073 Y165.695 E111.38165
G1 X167.874 Y165.847 E111.46827
G1 X168.621 Y165.937 E111.5482
G1 X169.432 Y165.978 E111.63447
G1 X170.249 Y165.963 E111.72127
G1 X178.144 Y165.541 E112.56121
G1 X178.273 Y165.466 E112.57706
G1 X177.802 Y161.033 E113.05066
G1 X177.701 Y160.958 E113.06402
G1 X169.939 Y161.365 E113.88976
G1 X169.089 Y161.354 E113.98007
G1 X168.224 Y161.231 E114.07289
G1 X167.351 Y160.988 E114.16916
G1 X166.522 Y160.634 E114.26492
G1 X165.785 Y160.197 E114.35594
G1 X165.274 Y159.82 E114.42341
G1 X159.064 Y154.235 E115.31069
G0 F6000 X158.852 Y154.447
G1 F1500 E114.31069
G0 F6000 X159.094 Y155.424
G0 X164.764 Y160.479
G0 X166.147 Y161.378
G0 X167.064 Y161.77
G0 X168.024 Y162.042
G0 X169.011 Y162.184
G0 X176.595 Y162.356
G0 X176.815 Y163.745
G0 X176.251 Y163.804
;TYPE:SKIN
G1 F1500 E115.31069
G1 F1803.9 X170.158 Y164.13 E115.95753
G1 F1794.2 X169.473 Y164.139 E116.03054
G1 F1798.1 X168.874 Y164.112 E116.09431
G1 F1801.9 X168.171 Y164.031 E116.16941
G1 F1798.1 X167.469 Y163.9 E116.24535
G1 F1796.2 X166.871 Y163.74 E116.31126
G1 F1792.3 X166.216 Y163.521 E116.38494
G1 F1794.2 X165.633 Y163.274 E116.45242
G1 X165.03 Y162.975 E116.52416
G1 F1796.2 X164.458 Y162.634 E116.59505
G1 F1786.6 X163.738 Y162.146 E116.68815
G1 F1784.7 X163.445 Y162.02 E116.72232
G1 F1794.2 X162.884 Y161.876 E116.78405
G1 F1798.1 X162.242 Y161.895 E116.85236
G1 F1800 X161.742 Y162.035 E116.90752
G1 X161.338 Y162.247 E116.95599
G1 X161.049 Y162.473 E116.99496
G1 X141.155 Y182.362 E119.98347
G1 X140.782 Y183.121 E120.07332
G1 X140.704 Y183.503 E120.11474
G1 X140.699 Y184.035 E120.17126
G1 X140.88 Y184.703 E120.24478
G1 X141.136 Y185.152 E120.29969
G1 X141.397 Y185.452 E120.34194
G1 X142.897 Y186.834 E120.55861
G1 X144.586 Y188.227 E120.7912
G1 X146.422 Y189.579 E121.03343
G1 X148.306 Y190.801 E121.27199
G1 X150.215 Y191.887 E121.50532
G1 X152.243 Y192.896 E121.74596
G1 X154.362 Y193.797 E121.99058
G1 X156.483 Y194.559 E122.23
G1 X158.496 Y195.155 E122.45303
G1 X160.728 Y195.684 E122.69672
