;FLAVOR:Marlin
;TIME:1961
;Filament used: 4.772m
;Layer height: 0.26
;MINX:144.293
;MINY:136.018
;MINZ:0.26
;MAXX:172.407
;MAXY:194.939
;MAXZ:13.78
;Generated with Cura_SteamEngine 5.4.0
M140 S60


; Pre-Processed for Cancel-Object support by preprocess_cancellation v0.2.0
; 2 known objects
EXCLUDE_OBJECT_DEFINE NAME=Lower_Belt_F_Primo_STL_1 CENTER=151.783,163.382 POLYGON=[[146.036,137.86],[146.036,192.14],[157.265,192.14],[157.265,137.86]]
EXCLUDE_OBJECT_DEFINE NAME=Lower_Belt_F_Primo_STL CENTER=165.008,163.807 POLYGON=[[159.336,137.86],[159.336,192.14],[170.565,192.14],[170.565,137.86]]
M105
M190 S60
M104 S210
M105
M109 S210
M82 ;absolute extrusion mode
START_GCODE
G92 E0
G92 E0
G1 F1500 E-1
;LAYER_COUNT:53
;LAYER:0
M107
M204 S400
G0 F6000 X144.888 Y136.886 Z0.26
;TYPE:SKIRT
G1 F1500 E0
G1 F1800 X145.3 Y136.503 E0.05976
G1 X145.55 Y136.337 E0.09164
G1 X146.123 Y136.11 E0.15712
G1 X146.733 Y136.018 E0.22265
G1 X156.667 Y136.018 E1.278
G1 X157.189 Y136.085 E1.33391
G1 X157.455 Y136.166 E1.36345
G1 X157.956 Y136.405 E1.42243
G1 X158.351 Y136.734 E1.47704
G1 X158.85 Y136.337 E1.54478
G1 X159.423 Y136.11 E1.61026
G1 X160.033 Y136.018 E1.67579
G1 X169.967 Y136.018 E2.73114
G1 X170.489 Y136.085 E2.78705
G1 X170.755 Y136.166 E2.81659
G1 X171.256 Y136.405 E2.87556
G1 X171.539 Y136.613 E2.91288
G1 X171.922 Y137.025 E2.97264
G1 X172.088 Y137.275 E3.00452
G1 X172.315 Y137.848 E3.06999
G1 X172.407 Y138.458 E3.13553
G1 X172.407 Y192.499 E8.87664
G1 X172.34 Y193.021 E8.93255
G1 X172.259 Y193.287 E8.96209
G1 X172.02 Y193.788 E9.02106
G1 X171.812 Y194.071 E9.05837
G1 X171.4 Y194.454 E9.11813
G1 X171.15 Y194.62 E9.15001
G1 X170.577 Y194.847 E9.21549
G1 X169.967 Y194.939 E9.28103
G1 X160.033 Y194.939 E10.33638
G1 X159.511 Y194.872 E10.39229
G1 X159.245 Y194.791 E10.42183
G1 X158.744 Y194.552 E10.4808
G1 X158.349 Y194.223 E10.53541
G1 X157.85 Y194.62 E10.60315
G1 X157.277 Y194.847 E10.66863
G1 X156.667 Y194.939 E10.73417
G1 X146.733 Y194.939 E11.78952
G1 X146.211 Y194.872 E11.84543
G1 X145.945 Y194.791 E11.87497
G1 X145.444 Y194.552 E11.93394
G1 X145.161 Y194.344 E11.97125
G1 X144.778 Y193.932 E12.03101
G1 X144.612 Y193.682 E12.06289
G1 X144.385 Y193.109 E12.12837
G1 X144.293 Y192.499 E12.1939
G1 X144.293 Y138.458 E17.93501
G1 X144.36 Y137.936 E17.99092
G1 X144.441 Y137.67 E18.02046
G1 X144.68 Y137.169 E18.07944
G1 X144.888 Y136.886 E18.11675
G1 F1500 E17.11675
G0 F6000 X146.318 Y138.07
G1 F1500 E18.11675
G1 F1800 X146.489 Y137.945 E18.13925
G1 X146.733 Y137.89 E18.16582
G1 X156.667 Y137.89 E19.22117
G1 X156.875 Y137.93 E19.24367
G1 X157.055 Y138.043 E19.26625
G1 X157.18 Y138.214 E19.28875
G1 X157.235 Y138.458 E19.31533
G1 X157.235 Y192.499 E25.05644
G1 X157.195 Y192.707 E25.07894
G1 X157.082 Y192.887 E25.10152
G1 X156.911 Y193.012 E25.12402
G1 X156.667 Y193.067 E25.15059
G1 X146.733 Y193.067 E26.20594
G1 X146.525 Y193.027 E26.22844
G1 X146.345 Y192.914 E26.25102
G1 X146.22 Y192.743 E26.27353
G1 X146.165 Y192.499 E26.3001
G1 X146.165 Y138.458 E32.04121
G1 X146.205 Y138.25 E32.06371
G1 X146.318 Y138.07 E32.08629
G0 F6000 X145.525 Y137.572
G1 F1800 X145.937 Y137.189 E32.14605
G1 X146.283 Y137.032 E32.18641
G1 X146.733 Y136.954 E32.23493
G1 X156.667 Y136.954 E33.29028
G1 X157.052 Y137.011 E33.33163
G1 X157.553 Y137.25 E33.3906
G1 X157.936 Y137.662 E33.45036
G1 X158.093 Y138.008 E33.49073
G1 X158.171 Y138.458 E33.53924
G1 X158.171 Y192.499 E39.28035
G1 X158.114 Y192.884 E39.3217
G1 X157.875 Y193.385 E39.38067
G1 X157.463 Y193.768 E39.44043
G1 X157.117 Y193.925 E39.4808
G1 X156.667 Y194.003 E39.52932
G1 X146.733 Y194.003 E40.58467
G1 X146.348 Y193.946 E40.62601
G1 X145.847 Y193.707 E40.68498
G1 X145.464 Y193.295 E40.74474
G1 X145.307 Y192.949 E40.78511
G1 X145.229 Y192.499 E40.83363
G1 X145.229 Y138.458 E46.57474
G1 X145.286 Y138.073 E46.61609
G1 X145.525 Y137.572 E46.67506
G1 F1500 E45.67506
G0 F6000 X157.32 Y137.805
G0 X158.529 Y138.458
G1 F1500 E46.67506
G1 F1800 X158.586 Y138.073 E46.7164
G1 X158.825 Y137.572 E46.77537
G1 X159.237 Y137.189 E46.83513
G1 X159.583 Y137.032 E46.8755
G1 X160.033 Y136.954 E46.92402
G1 X169.967 Y136.954 E47.97937
G1 X170.352 Y137.011 E48.02071
G1 X170.853 Y137.25 E48.07968
G1 X171.236 Y137.662 E48.13945
G1 X171.393 Y138.008 E48.17981
G1 X171.471 Y138.458 E48.22833
G1 X171.471 Y192.499 E53.96944
G1 X171.414 Y192.884 E54.01079
G1 X171.175 Y193.385 E54.06976
G1 X170.763 Y193.768 E54.12952
G1 X170.417 Y193.925 E54.16988
G1 X169.967 Y194.003 E54.2184
G1 X160.033 Y194.003 E55.27375
G1 X159.648 Y193.946 E55.3151
G1 X159.147 Y193.707 E55.37407
G1 X158.764 Y193.295 E55.43383
G1 X158.607 Y192.949 E55.47419
G1 X158.529 Y192.499 E55.52271
G1 X158.529 Y138.458 E61.26382
G0 F6000 X159.465 Y138.458
G1 F1800 X159.505 Y138.25 E61.28633
G1 X159.618 Y138.07 E61.3089
G1 X159.789 Y137.945 E61.33141
G1 X160.033 Y137.89 E61.35798
G1 X169.967 Y137.89 E62.41333
G1 X170.175 Y137.93 E62.43583
G1 X170.355 Y138.043 E62.45841
G1 X170.48 Y138.214 E62.48091
G1 X170.535 Y138.458 E62.50748
G1 X170.535 Y192.499 E68.24859
G1 X170.495 Y192.707 E68.2711
G1 X170.382 Y192.887 E68.29367
G1 X170.211 Y193.012 E68.31618
G1 X169.967 Y193.067 E68.34275
G1 X160.033 Y193.067 E69.3981
G1 X159.825 Y193.027 E69.4206
G1 X159.645 Y192.914 E69.44318
G1 X159.52 Y192.743 E69.46568
G1 X159.465 Y192.499 E69.49225
G1 X159.465 Y138.458 E75.23336
G1 F1500 E74.23336
;MESH:Lower Belt F Primo.STL(1)
EXCLUDE_OBJECT_START NAME=Lower_Belt_F_Primo_STL_1
G0 F6000 X155.993 Y139.132
G0 X155.263 Y191.095
;TYPE:WALL-INNER
G1 F1500 E75.23336
G1 F1800 X155.263 Y139.862 E80.67616
G1 X148.137 Y139.862 E81.4332
G1 X148.137 Y191.095 E86.876
G1 X155.263 Y191.095 E87.63304
G0 F6000 X156.199 Y192.031
;TYPE:WALL-OUTER
G1 F1800 X156.199 Y138.926 E93.27471
G1 X147.201 Y138.926 E94.23063
G1 X147.201 Y192.031 E99.8723
G1 X156.199 Y192.031 E100.82821
G0 F6000 X156.199 Y191.731
G0 X155.337 Y191.169
G0 X154.931 Y190.195
G0 X154.363 Y190.195
;TYPE:SKIN
G1 F1800 X149.037 Y190.195 E101.39403
G1 X149.037 Y140.762 E106.6456
G1 X154.363 Y140.762 E107.21142
G1 X154.363 Y190.195 E112.46299
G0 F6000 X154.931 Y190.195
G0 X150.015 Y190.763
G0 X150.015 Y189.726
G1 F1800 X149.504 Y189.215 E112.53976
G0 F6000 X148.469 Y189.215
G0 X148.469 Y187.891
G0 X149.504 Y187.891
G1 F1800 X151.339 Y189.726 E112.81545
G0 F6000 X151.339 Y190.763
G0 X152.662 Y190.763
G0 X152.662 Y189.726
G1 F1800 X149.504 Y186.568 E113.28991
G0 F6000 X148.469 Y186.568
G0 X148.469 Y185.244
G0 X149.504 Y185.244
G1 F1800 X153.894 Y189.634 E113.94947
G0 F6000 X154.931 Y189.634
G0 X154.931 Y188.311
G0 X153.894 Y188.311
G1 F1800 X149.504 Y183.92 E114.6091
G0 F6000 X148.469 Y183.92
G0 X148.469 Y182.596
G0 X149.504 Y182.596
G1 F1800 X153.894 Y186.987 E115.26873
G0 F6000 X154.931 Y186.987
G0 X154.931 Y185.663
G0 X153.894 Y185.663
G1 F1800 X149.504 Y181.273 E115.92829
G0 F6000 X148.469 Y181.273
G0 X148.469 Y179.949
G0 X149.504 Y179.949
G1 F1800 X153.894 Y184.339 E116.58785
G0 F6000 X154.931 Y184.339
G0 X154.931 Y183.016
G0 X153.894 Y183.016
G1 F1800 X149.504 Y178.625 E117.24748
G0 F6000 X148.469 Y178.625
G0 X148.469 Y177.302
G0 X149.504 Y177.302
G1 F1800 X153.894 Y181.692 E117.90704
G0 F6000 X154.931 Y181.692
G0 X154.931 Y180.368
G0 X153.894 Y180.368
G1 F1800 X149.504 Y175.978 E118.56659
G0 F6000 X148.469 Y175.978
G0 X148.469 Y174.654
G0 X149.504 Y174.654
G1 F1800 X153.894 Y179.045 E119.22622
G0 F6000 X154.931 Y179.045
G0 X154.931 Y177.721
G0 X153.894 Y177.721
G1 F1800 X149.504 Y173.33 E119.88586
G0 F6000 X148.469 Y173.33
G0 X148.469 Y172.007
G0 X149.504 Y172.007
G1 F1800 X153.894 Y176.397 E120.54541
G0 F6000 X154.931 Y176.397
G0 X154.931 Y175.073
G0 X153.894 Y175.073
G1 F1800 X149.504 Y170.683 E121.20497
G0 F6000 X148.469 Y170.683
G0 X148.469 Y169.359
G0 X149.504 Y169.359
G1 F1800 X153.894 Y173.75 E121.8646
G0 F6000 X154.931 Y173.75
G0 X154.931 Y172.426
G0 X153.894 Y172.426
G1 F1800 X149.504 Y168.036 E122.52416
G0 F6000 X148.469 Y168.036
G0 X148.469 Y166.712
G0 X149.504 Y166.712
G1 F1800 X153.894 Y171.102 E123.18371
G0 F6000 X154.931 Y171.102
G0 X154.931 Y169.779
G0 X153.894 Y169.779
G1 F1800 X149.504 Y165.388 E123.84335
G0 F6000 X148.469 Y165.388
G0 X148.469 Y164.065
G0 X149.504 Y164.065
G1 F1800 X153.894 Y168.455 E124.5029
G0 F6000 X154.931 Y168.455
G0 X154.931 Y167.131
G0 X153.894 Y167.131
G1 F1800 X149.504 Y162.741 E125.16246
G0 F6000 X148.469 Y162.741
G0 X148.469 Y161.417
G0 X149.504 Y161.417
G1 F1800 X153.894 Y165.808 E125.82209
G0 F6000 X154.931 Y165.808
G0 X154.931 Y164.484
G0 X153.894 Y164.484
G1 F1800 X149.504 Y160.093 E126.48172
G0 F6000 X148.469 Y160.093
G0 X148.469 Y158.77
G0 X149.504 Y158.77
G1 F1800 X153.894 Y163.16 E127.14128
G0 F6000 X154.931 Y163.16
G0 X154.931 Y161.836
G0 X153.894 Y161.836
G1 F1800 X149.504 Y157.446 E127.80083
G0 F6000 X148.469 Y157.446
G0 X148.469 Y156.122
G0 X149.504 Y156.122
G1 F1800 X153.894 Y160.513 E128.46047
G0 F6000 X154.931 Y160.513
G0 X154.931 Y159.189
G0 X153.894 Y159.189
G1 F1800 X149.504 Y154.799 E129.12002
G0 F6000 X148.469 Y154.799
G0 X148.469 Y153.475
G0 X149.504 Y153.475
G1 F1800 X153.894 Y157.865 E129.77958
G0 F6000 X154.931 Y157.865
G0 X154.931 Y156.542
G0 X153.894 Y156.542
G1 F1800 X149.504 Y152.151 E130.43921
G0 F6000 X148.469 Y152.151
G0 X148.469 Y150.827
G0 X149.504 Y150.827
G1 F1800 X153.894 Y155.218 E131.09884
G0 F6000 X154.931 Y155.218
G0 X154.931 Y153.894
G0 X153.894 Y153.894
G1 F1800 X149.504 Y149.504 E131.7584
G0 F6000 X148.469 Y149.504
G0 X148.469 Y148.18
G0 X149.504 Y148.18
G1 F1800 X153.894 Y152.571 E132.41803
G0 F6000 X154.931 Y152.571
G0 X154.931 Y151.247
G0 X153.894 Y151.247
G1 F1800 X149.504 Y146.856 E133.07766
G0 F6000 X148.469 Y146.856
G0 X148.469 Y145.533
G0 X149.504 Y145.533
G1 F1800 X153.894 Y149.923 E133.73722
G0 F6000 X154.931 Y149.923
G0 X154.931 Y148.599
G0 X153.894 Y148.599
G1 F1800 X149.504 Y144.209 E134.39678
G0 F6000 X148.469 Y144.209
G0 X148.469 Y142.885
G0 X149.504 Y142.885
G1 F1800 X153.894 Y147.276 E135.05641
G0 F6000 X154.931 Y147.276
G0 X154.931 Y145.952
G0 X153.894 Y145.952
G1 F1800 X149.504 Y141.562 E135.71596
G0 F6000 X148.469 Y141.562
G0 X148.541 Y140.266
G0 X150.495 Y140.194
G0 X150.495 Y141.229
G1 F1800 X153.894 Y144.628 E136.22663
G0 F6000 X154.931 Y144.628
G0 X154.931 Y143.305
G0 X153.894 Y143.305
G1 F1800 X151.819 Y141.229 E136.53846
G0 F6000 X151.819 Y140.194
G0 X153.143 Y140.194
G0 X153.143 Y141.229
G1 F1800 X153.894 Y141.981 E136.65136
G1 F1500 E135.65136
;MESH:Lower Belt F Primo.STL
EXCLUDE_OBJECT_END NAME=Lower_Belt_F_Primo_STL_1
EXCLUDE_OBJECT_START NAME=Lower_Belt_F_Primo_STL
G0 F6000 X154.931 Y141.981
G0 X155.987 Y191.095
G0 X160.713 Y191.095
G0 X168.563 Y191.095
;TYPE:WALL-INNER
G1 F1500 E136.65136
G1 F1800 X168.563 Y139.862 E142.09416
G1 X161.437 Y139.862 E142.8512
G1 X161.437 Y191.095 E148.294
G1 X168.563 Y191.095 E149.05104
G0 F6000 X169.499 Y192.031
;TYPE:WALL-OUTER
G1 F1800 X169.499 Y138.926 E154.69271
G1 X160.501 Y138.926 E155.64863
G1 X160.501 Y192.031 E161.2903
G1 X169.499 Y192.031 E162.24621
G0 F6000 X169.499 Y191.731
G0 X168.637 Y191.169
G0 X168.231 Y190.195
G0 X167.663 Y190.195
;TYPE:SKIN
G1 F1800 X162.337 Y190.195 E162.81203
G1 X162.337 Y140.762 E168.0636
G1 X167.663 Y140.762 E168.62941
G1 X167.663 Y190.195 E173.88099
G0 F6000 X168.231 Y190.195
G0 X163.251 Y190.763
G0 X163.251 Y189.725
G1 F1800 X162.804 Y189.278 E173.94815
G0 F6000 X161.769 Y189.278
G0 X161.769 Y187.954
G0 X162.804 Y187.954
G1 F1800 X164.575 Y189.725 E174.21422
G0 F6000 X164.575 Y190.763
G0 X165.899 Y190.763
G0 X165.899 Y189.725
G1 F1800 X162.804 Y186.63 E174.67922
G0 F6000 X161.769 Y186.63
G0 X161.769 Y185.307
G0 X162.804 Y185.307
G1 F1800 X167.194 Y189.697 E175.33877
G0 F6000 X168.231 Y189.697
G0 X168.231 Y188.373
G0 X167.194 Y188.373
G1 F1800 X162.804 Y183.983 E175.99833
G0 F6000 X161.769 Y183.983
G0 X161.769 Y182.659
G0 X162.804 Y182.659
G1 F1800 X167.194 Y187.05 E176.65796
G0 F6000 X168.231 Y187.05
G0 X168.231 Y185.726
G0 X167.194 Y185.726
G1 F1800 X162.804 Y181.336 E177.31752
G0 F6000 X161.769 Y181.336
G0 X161.769 Y180.012
G0 X162.804 Y180.012
G1 F1800 X167.194 Y184.402 E177.97707
G0 F6000 X168.231 Y184.402
G0 X168.231 Y183.079
G0 X167.194 Y183.079
G1 F1800 X162.804 Y178.688 E178.63671
G0 F6000 X161.769 Y178.688
G0 X161.769 Y177.365
G0 X162.804 Y177.365
G1 F1800 X167.194 Y181.755 E179.29626
G0 F6000 X168.231 Y181.755
G0 X168.231 Y180.431
G0 X167.194 Y180.431
G1 F1800 X162.804 Y176.041 E179.95582
G0 F6000 X161.769 Y176.041
G0 X161.769 Y174.717
G0 X162.804 Y174.717
G1 F1800 X167.194 Y179.108 E180.61545
G0 F6000 X168.231 Y179.108
G0 X168.231 Y177.784
G0 X167.194 Y177.784
G1 F1800 X162.804 Y173.393 E181.27508
G0 F6000 X161.769 Y173.393
G0 X161.769 Y172.07
G0 X162.804 Y172.07
G1 F1800 X167.194 Y176.46 E181.93464
G0 F6000 X168.231 Y176.46
G0 X168.231 Y175.136
G0 X167.194 Y175.136
G1 F1800 X162.804 Y170.746 E182.5942
G0 F6000 X161.769 Y170.746
G0 X161.769 Y169.422
G0 X162.804 Y169.422
G1 F1800 X167.194 Y173.813 E183.25383
G0 F6000 X168.231 Y173.813
G0 X168.231 Y172.489
G0 X167.194 Y172.489
G1 F1800 X162.804 Y168.099 E183.91338
G0 F6000 X161.769 Y168.099
G0 X161.769 Y166.775
G0 X162.804 Y166.775
G1 F1800 X167.194 Y171.165 E184.57294
G0 F6000 X168.231 Y171.165
G0 X168.231 Y169.842
G0 X167.194 Y169.842
G1 F1800 X162.804 Y165.451 E185.23257
G0 F6000 X161.769 Y165.451
G0 X161.769 Y164.127
G0 X162.804 Y164.127
G1 F1800 X167.194 Y168.518 E185.8922
G0 F6000 X168.231 Y168.518
G0 X168.231 Y167.194
G0 X167.194 Y167.194
G1 F1800 X162.804 Y162.804 E186.55176
G0 F6000 X161.769 Y162.804
G0 X161.769 Y161.48
G0 X162.804 Y161.48
G1 F1800 X167.194 Y165.87 E187.21132
G0 F6000 X168.231 Y165.87
G0 X168.231 Y164.547
G0 X167.194 Y164.547
G1 F1800 X162.804 Y160.156 E187.87095
G0 F6000 X161.769 Y160.156
G0 X161.769 Y158.833
G0 X162.804 Y158.833
G1 F1800 X167.194 Y163.223 E188.53051
G0 F6000 X168.231 Y163.223
G0 X168.231 Y161.899
G0 X167.194 Y161.899
G1 F1800 X162.804 Y157.509 E189.19006
G0 F6000 X161.769 Y157.509
G0 X161.769 Y156.185
G0 X162.804 Y156.185
G1 F1800 X167.194 Y160.576 E189.84969
G0 F6000 X168.231 Y160.576
G0 X168.231 Y159.252
G0 X167.194 Y159.252
G1 F1800 X162.804 Y154.862 E190.50925
G0 F6000 X161.769 Y154.862
G0 X161.769 Y153.538
G0 X162.804 Y153.538
G1 F1800 X167.194 Y157.928 E191.16881
G0 F6000 X168.231 Y157.928
G0 X168.231 Y156.605
G0 X167.194 Y156.605
G1 F1800 X162.804 Y152.214 E191.82844
G0 F6000 X161.769 Y152.214
G0 X161.769 Y150.89
G0 X162.804 Y150.89
G1 F1800 X167.194 Y155.281 E192.48807
G0 F6000 X168.231 Y155.281
G0 X168.231 Y153.957
G0 X167.194 Y153.957
G1 F1800 X162.804 Y149.567 E193.14763
G0 F6000 X161.769 Y149.567
G0 X161.769 Y148.243
G0 X162.804 Y148.243
G1 F1800 X167.194 Y152.633 E193.80718
G0 F6000 X168.231 Y152.633
G0 X168.231 Y151.31
G0 X167.194 Y151.31
G1 F1800 X162.804 Y146.919 E194.46681
G0 F6000 X161.769 Y146.919
G0 X161.769 Y145.596
G0 X162.804 Y145.596
G1 F1800 X167.194 Y149.986 E195.12637
G0 F6000 X168.231 Y149.986
G0 X168.231 Y148.662
G0 X167.194 Y148.662
G1 F1800 X162.804 Y144.272 E195.78593
G0 F6000 X161.769 Y144.272
G0 X161.769 Y142.948
G0 X162.804 Y142.948
G1 F1800 X167.194 Y147.339 E196.44556
G0 F6000 X168.231 Y147.339
G0 X168.231 Y146.015
G0 X167.194 Y146.015
G1 F1800 X162.804 Y141.625 E197.10512
G0 F6000 X161.769 Y141.625
G0 X161.841 Y140.266
G0 X163.733 Y140.194
G0 X163.733 Y141.23
G1 F1800 X167.194 Y144.691 E197.6251
G0 F6000 X168.231 Y144.691
G0 X168.231 Y143.368
G0 X167.194 Y143.368
G1 F1800 X165.057 Y141.23 E197.94624
G0 F6000 X165.057 Y140.194
G0 X166.38 Y140.194
G0 X166.38 Y141.23
G1 F1800 X167.194 Y142.044 E198.06853
G1 F1500 E197.06853
;MESH:NONMESH
EXCLUDE_OBJECT_END NAME=Lower_Belt_F_Primo_STL
G0 F600 X167.194 Y142.044 Z0.52
G0 F6000 X168.231 Y142.044
G0 X168.159 Y140.266
G0 X161.841 Y140.266
G0 X160.713 Y191.169
G0 X155.987 Y191.169
G0 X155.959 Y191.418
;TIME_ELAPSED:96.279572
;LAYER:1
M106 S63.8
M204 S550
;TYPE:WALL-INNER
;MESH:Lower Belt F Primo.STL(1)
EXCLUDE_OBJECT_START NAME=Lower_Belt_F_Primo_STL_1
G1 F1500 E198.06853
G1 F4050 X155.959 Y139.166 E202.33858
G1 X147.441 Y139.166 E203.03467
G1 X147.441 Y191.418 E207.30471
G1 X155.959 Y191.418 E208.0008
M204 S1000
G0 F10200 X155.709 Y191.168
