;FLAVOR:Marlin
;TIME:2609
;Filament used: 4.01268m
;Layer height: 0.26
;MINX:133.682
;MINY:142.914
;MINZ:0.26
;MAXX:195.361
;MAXY:173.786
;MAXZ:13.78
;Generated with Cura_SteamEngine 5.4.0
M140 S60


; Pre-Processed for Cancel-Object support by preprocess_cancellation v0.2.0
; 2 known objects
EXCLUDE_OBJECT_DEFINE NAME=Lower_Belt_F_Primo_Mirrored_stl_1 CENTER=166.405,151.838 POLYGON=[[137.71,145.986],[137.71,157.415],[192.29,157.415],[192.29,145.986]]
EXCLUDE_OBJECT_DEFINE NAME=Lower_Belt_F_Primo_Mirrored_stl CENTER=166.452,164.997 POLYGON=[[134.228,143.46],[134.228,173.24],[194.815,173.24],[194.815,143.46]]
M105
M190 S60
M104 S210
M105
M109 S210
M82 ;absolute extrusion mode
START_GCODE
G92 E0
G92 E0
G1 F1500 E-1
;LAYER_COUNT:53
;LAYER:0
M107
M204 S500
G0 F6000 X134.808 Y144.046 Z0.26
;TYPE:SKIRT
G1 F1500 E0
G1 F3600 X135.26 Y143.658 E0.03516
G1 X135.768 Y143.345 E0.07037
G1 X136.358 Y143.098 E0.10812
G1 X136.972 Y142.962 E0.14524
G1 X137.468 Y142.917 E0.17464
G1 X190.89 Y142.914 E3.32761
G1 X191.631 Y142.926 E3.37135
G1 X192.14 Y142.974 E3.40152
G1 X192.761 Y143.125 E3.43924
G1 X193.269 Y143.343 E3.47187
G1 X193.847 Y143.706 E3.51215
G1 X194.232 Y144.043 E3.54235
G1 X194.619 Y144.496 E3.57751
G1 X194.931 Y145.004 E3.6127
G1 X195.178 Y145.594 E3.65045
G1 X195.314 Y146.209 E3.68762
G1 X195.358 Y146.704 E3.71695
G1 X195.361 Y156.038 E4.26785
G1 X195.35 Y156.825 E4.3143
G1 X195.35 Y159.551 E4.47519
G1 X195.361 Y160.29 E4.51881
G1 X195.361 Y169.279 E5.04934
G1 X195.35 Y170.048 E5.09473
G1 X195.304 Y170.557 E5.1249
G1 X195.154 Y171.18 E5.16272
G1 X194.936 Y171.689 E5.1954
G1 X194.624 Y172.197 E5.23058
G1 X194.239 Y172.651 E5.26572
G1 X193.786 Y173.04 E5.30096
G1 X193.278 Y173.353 E5.33617
G1 X192.69 Y173.6 E5.37381
G1 X192.074 Y173.738 E5.41107
G1 X191.574 Y173.783 E5.4407
G1 X138.159 Y173.786 E8.59326
G1 X137.418 Y173.775 E8.637
G1 X136.909 Y173.728 E8.66717
G1 X136.287 Y173.578 E8.70493
G1 X135.778 Y173.36 E8.73761
G1 X135.27 Y173.048 E8.7728
G1 X134.816 Y172.663 E8.80793
G1 X134.427 Y172.21 E8.84317
G1 X134.114 Y171.702 E8.87839
G1 X133.867 Y171.111 E8.91619
G1 X133.73 Y170.498 E8.95326
G1 X133.685 Y169.995 E8.98307
G1 X133.682 Y160.645 E9.53491
G1 X133.693 Y159.851 E9.58177
G1 X133.693 Y157.103 E9.74396
G1 X133.684 Y156.668 E9.76964
G1 X133.682 Y147.356 E10.31924
G1 X133.693 Y146.648 E10.36103
G1 X133.74 Y146.139 E10.3912
G1 X133.891 Y145.518 E10.42892
G1 X134.109 Y145.008 E10.46165
G1 X134.421 Y144.5 E10.49684
G1 X134.808 Y144.046 E10.53204
G0 F6000 X135.219 Y144.405
G1 F3600 X135.611 Y144.076 E10.56225
G1 X136.049 Y143.813 E10.5924
G1 X136.523 Y143.621 E10.62259
G1 X137.021 Y143.506 E10.65275
G1 X137.517 Y143.461 E10.68215
G1 X190.882 Y143.46 E13.83175
G1 X191.58 Y143.47 E13.87295
G1 X192.089 Y143.518 E13.90313
G1 X192.585 Y143.644 E13.93333
G1 X193.054 Y143.845 E13.96345
G1 X193.487 Y144.117 E13.99363
G1 X193.872 Y144.454 E14.02383
G1 X194.2 Y144.846 E14.05399
G1 X194.463 Y145.285 E14.0842
G1 X194.655 Y145.759 E14.11438
G1 X194.77 Y146.257 E14.14454
G1 X194.814 Y146.752 E14.17387
G1 X194.815 Y156.03 E14.72146
G1 X194.804 Y156.817 E14.76792
G1 X194.804 Y159.551 E14.92928
G1 X194.815 Y160.298 E14.97337
G1 X194.815 Y169.272 E15.50302
G1 X194.806 Y169.999 E15.54593
G1 X194.76 Y170.508 E15.57609
G1 X194.635 Y171.004 E15.60628
G1 X194.434 Y171.474 E15.63645
G1 X194.162 Y171.907 E15.66663
G1 X193.827 Y172.293 E15.69679
G1 X193.435 Y172.622 E15.727
G1 X192.997 Y172.885 E15.75715
G1 X192.523 Y173.078 E15.78736
G1 X192.025 Y173.194 E15.81754
G1 X191.525 Y173.239 E15.84717
G1 X138.166 Y173.24 E18.99642
G1 X137.468 Y173.231 E19.03762
G1 X136.959 Y173.184 E19.06779
G1 X136.463 Y173.059 E19.09798
G1 X135.993 Y172.858 E19.12815
G1 X135.56 Y172.586 E19.15833
G1 X135.174 Y172.251 E19.18849
G1 X134.845 Y171.859 E19.2187
G1 X134.582 Y171.421 E19.24885
G1 X134.39 Y170.947 E19.27903
G1 X134.274 Y170.449 E19.30921
G1 X134.229 Y169.946 E19.33902
G1 X134.228 Y160.653 E19.88749
G1 X134.239 Y159.859 E19.93436
G1 X134.239 Y157.103 E20.09702
G1 X134.23 Y156.668 E20.1227
G1 X134.228 Y147.363 E20.67188
G1 X134.237 Y146.698 E20.71113
G1 X134.284 Y146.189 E20.7413
G1 X134.41 Y145.693 E20.7715
G1 X134.611 Y145.223 E20.80167
G1 X134.883 Y144.79 E20.83185
G1 X135.219 Y144.405 E20.86201
G1 F1500 E19.86201
;MESH:Lower Belt F Primo Mirrored.stl(1)
EXCLUDE_OBJECT_START NAME=Lower_Belt_F_Primo_Mirrored_stl_1
G0 F6000 X137.925 Y146.068
G0 X137.925 Y147.157
G0 X189.953 Y148.322
G0 X190.177 Y155.302
;TYPE:WALL-INNER
G1 F1500 E20.86201
G1 F3600 X190.177 Y148.098 E21.28719
G1 X138.866 Y148.098 E24.31557
G1 X138.866 Y155.302 E24.74075
G1 X190.177 Y155.302 E27.76914
G0 F6000 X190.723 Y155.848
G1 F3600 X190.723 Y147.552 E28.25877
G1 X138.32 Y147.552 E31.3516
G1 X138.32 Y155.848 E31.84123
G1 X190.723 Y155.848 E34.93406
G0 F6000 X191.269 Y156.394
;TYPE:WALL-OUTER
G1 F3600 X191.269 Y147.006 E35.48814
G1 X137.774 Y147.006 E38.64542
G1 X137.774 Y156.394 E39.1995
G1 X191.269 Y156.394 E42.35678
G0 F6000 X191.269 Y156.194
G0 X190.662 Y155.787
G0 X190.025 Y154.777
G0 X189.652 Y154.777
;TYPE:SKIN
G1 F3600 X139.391 Y154.777 E45.32319
G1 X139.391 Y148.623 E45.6864
G1 X189.652 Y148.623 E48.65281
G1 X189.652 Y154.777 E49.01602
G0 F6000 X190.025 Y154.777
G0 X190.025 Y149.226
G0 X189.378 Y149.226
G1 F3600 X189.048 Y148.896 E49.04357
G0 F6000 X188.276 Y148.896
G1 F3600 X189.378 Y149.998 E49.13555
G0 F6000 X189.378 Y150.77
G1 F3600 X187.504 Y148.896 E49.29196
G0 F6000 X186.732 Y148.896
G1 F3600 X189.378 Y151.542 E49.51282
G0 F6000 X189.378 Y152.315
G1 F3600 X185.959 Y148.896 E49.79819
G0 F6000 X185.187 Y148.896
G1 F3600 X189.378 Y153.087 E50.148
G0 F6000 X189.378 Y153.859
G1 F3600 X184.415 Y148.896 E50.56225
G0 F6000 X183.643 Y148.896
G1 F3600 X189.25 Y154.503 E51.03025
G0 F6000 X188.478 Y154.503
G1 F3600 X182.871 Y148.896 E51.49825
G0 F6000 X182.099 Y148.896
G1 F3600 X187.706 Y154.503 E51.96625
G0 F6000 X186.934 Y154.503
G1 F3600 X181.326 Y148.896 E52.43429
G0 F6000 X180.554 Y148.896
G1 F3600 X186.162 Y154.503 E52.90233
G0 F6000 X185.389 Y154.503
G1 F3600 X179.782 Y148.896 E53.37033
G0 F6000 X179.01 Y148.896
G1 F3600 X184.617 Y154.503 E53.83833
G0 F6000 X183.845 Y154.503
G1 F3600 X178.238 Y148.896 E54.30633
G0 F6000 X177.466 Y148.896
G1 F3600 X183.073 Y154.503 E54.77433
G0 F6000 X182.301 Y154.503
G1 F3600 X176.693 Y148.896 E55.24237
G0 F6000 X175.921 Y148.896
G1 F3600 X181.529 Y154.503 E55.71041
G0 F6000 X180.756 Y154.503
G1 F3600 X175.149 Y148.896 E56.17841
G0 F6000 X174.377 Y148.896
G1 F3600 X179.984 Y154.503 E56.64641
G0 F6000 X179.212 Y154.503
G1 F3600 X173.605 Y148.896 E57.11441
G0 F6000 X172.833 Y148.896
G1 F3600 X178.44 Y154.503 E57.58241
G0 F6000 X177.668 Y154.503
G1 F3600 X172.061 Y148.896 E58.05041
G0 F6000 X171.288 Y148.896
G1 F3600 X176.896 Y154.503 E58.51845
G0 F6000 X176.124 Y154.503
G1 F3600 X170.516 Y148.896 E58.98649
G0 F6000 X169.744 Y148.896
G1 F3600 X175.351 Y154.503 E59.45449
G0 F6000 X174.579 Y154.503
G1 F3600 X168.972 Y148.896 E59.92249
G0 F6000 X168.2 Y148.896
G1 F3600 X173.807 Y154.503 E60.39049
G0 F6000 X173.035 Y154.503
G1 F3600 X167.428 Y148.896 E60.85849
G0 F6000 X166.655 Y148.896
G1 F3600 X172.263 Y154.503 E61.32653
G0 F6000 X171.491 Y154.503
G1 F3600 X165.883 Y148.896 E61.79457
G0 F6000 X165.111 Y148.896
G1 F3600 X170.718 Y154.503 E62.26257
G0 F6000 X169.946 Y154.503
G1 F3600 X164.339 Y148.896 E62.73057
G0 F6000 X163.567 Y148.896
G1 F3600 X169.174 Y154.503 E63.19857
G0 F6000 X168.402 Y154.503
G1 F3600 X162.795 Y148.896 E63.66657
G0 F6000 X162.022 Y148.896
G1 F3600 X167.63 Y154.503 E64.13461
G0 F6000 X166.858 Y154.503
G1 F3600 X161.25 Y148.896 E64.60266
G0 F6000 X160.478 Y148.896
G1 F3600 X166.085 Y154.503 E65.07066
G0 F6000 X165.313 Y154.503
G1 F3600 X159.706 Y148.896 E65.53866
G0 F6000 X158.934 Y148.896
G1 F3600 X164.541 Y154.503 E66.00666
G0 F6000 X163.769 Y154.503
G1 F3600 X158.162 Y148.896 E66.47465
G0 F6000 X157.389 Y148.896
G1 F3600 X162.997 Y154.503 E66.9427
G0 F6000 X162.225 Y154.503
G1 F3600 X156.617 Y148.896 E67.41074
G0 F6000 X155.845 Y148.896
G1 F3600 X161.452 Y154.503 E67.87874
G0 F6000 X160.68 Y154.503
G1 F3600 X155.073 Y148.896 E68.34674
G0 F6000 X154.301 Y148.896
G1 F3600 X159.908 Y154.503 E68.81474
G0 F6000 X159.136 Y154.503
G1 F3600 X153.529 Y148.896 E69.28274
G0 F6000 X152.756 Y148.896
G1 F3600 X158.364 Y154.503 E69.75078
G0 F6000 X157.592 Y154.503
G1 F3600 X151.984 Y148.896 E70.21882
G0 F6000 X151.212 Y148.896
G1 F3600 X156.82 Y154.503 E70.68686
G0 F6000 X156.047 Y154.503
G1 F3600 X150.44 Y148.896 E71.15486
G0 F6000 X149.668 Y148.896
G1 F3600 X155.275 Y154.503 E71.62286
G0 F6000 X154.503 Y154.503
G1 F3600 X148.896 Y148.896 E72.09086
G0 F6000 X148.124 Y148.896
G1 F3600 X153.731 Y154.503 E72.55886
G0 F6000 X152.959 Y154.503
G1 F3600 X147.351 Y148.896 E73.0269
G0 F6000 X146.579 Y148.896
G1 F3600 X152.187 Y154.503 E73.49494
G0 F6000 X151.414 Y154.503
G1 F3600 X145.807 Y148.896 E73.96294
G0 F6000 X145.035 Y148.896
G1 F3600 X150.642 Y154.503 E74.43094
G0 F6000 X149.87 Y154.503
G1 F3600 X144.263 Y148.896 E74.89894
G0 F6000 X143.491 Y148.896
G1 F3600 X149.098 Y154.503 E75.36694
G0 F6000 X148.326 Y154.503
G1 F3600 X142.718 Y148.896 E75.83498
G0 F6000 X141.946 Y148.896
G1 F3600 X147.554 Y154.503 E76.30302
G0 F6000 X146.781 Y154.503
G1 F3600 X141.174 Y148.896 E76.77102
G0 F6000 X140.402 Y148.896
G1 F3600 X146.009 Y154.503 E77.23902
G0 F6000 X145.237 Y154.503
G1 F3600 X139.663 Y148.929 E77.70427
G0 F6000 X139.663 Y149.701
G1 F3600 X144.465 Y154.503 E78.10508
G0 F6000 X143.693 Y154.503
G1 F3600 X139.663 Y150.473 E78.44145
G0 F6000 X139.663 Y151.245
G1 F3600 X142.921 Y154.503 E78.71339
G0 F6000 X142.148 Y154.503
G1 F3600 X139.663 Y152.018 E78.9208
G0 F6000 X139.663 Y152.79
G1 F3600 X141.376 Y154.503 E79.06378
G0 F6000 X140.604 Y154.503
G1 F3600 X139.663 Y153.562 E79.14232
G0 F6000 X139.663 Y154.334
G1 F3600 X139.832 Y154.503 E79.15643
G0 F6000 X139.832 Y155.311
G1 F1500 E78.15643
;MESH:Lower Belt F Primo Mirrored.stl
EXCLUDE_OBJECT_END NAME=Lower_Belt_F_Primo_Mirrored_stl_1
EXCLUDE_OBJECT_START NAME=Lower_Belt_F_Primo_Mirrored_stl
G0 F6000 X190.177 Y156.237
G0 X190.177 Y157.332
G0 X190.177 Y159.368
G0 X190.177 Y160.463
G0 X190.177 Y168.602
;TYPE:WALL-INNER
G1 F1500 E79.15643
G1 F3600 X190.177 Y161.398 E79.58161
G1 X138.866 Y161.398 E82.60999
G1 X138.866 Y168.602 E83.03517
G1 X190.177 Y168.602 E86.06355
G0 F6000 X190.723 Y169.148
G1 F3600 X190.723 Y160.852 E86.55318
G1 X138.32 Y160.852 E89.64601
G1 X138.32 Y169.148 E90.13564
G1 X190.723 Y169.148 E93.22847
G0 F6000 X191.269 Y169.694
;TYPE:WALL-OUTER
G1 F3600 X191.269 Y160.306 E93.78256
G1 X137.774 Y160.306 E96.93984
G1 X137.774 Y169.694 E97.49392
G1 X191.269 Y169.694 E100.6512
G0 F6000 X191.269 Y169.494
G0 X190.662 Y169.087
G0 X190.025 Y168.077
G0 X189.652 Y168.077
;TYPE:SKIN
G1 F3600 X139.391 Y168.077 E103.61761
G1 X139.391 Y161.923 E103.98082
G1 X189.652 Y161.923 E106.94723
G1 X189.652 Y168.077 E107.31044
G0 F6000 X190.025 Y168.077
G0 X190.025 Y162.353
G0 X189.378 Y162.353
G1 F3600 X189.221 Y162.196 E107.32354
G0 F6000 X188.449 Y162.196
G1 F3600 X189.378 Y163.125 E107.40108
G0 F6000 X189.378 Y163.897
G1 F3600 X187.677 Y162.196 E107.54306
G0 F6000 X186.905 Y162.196
G1 F3600 X189.378 Y164.669 E107.74947
G0 F6000 X189.378 Y165.441
G1 F3600 X186.133 Y162.196 E108.02032
G0 F6000 X185.36 Y162.196
G1 F3600 X189.378 Y166.213 E108.35565
G0 F6000 X189.378 Y166.986
G1 F3600 X184.588 Y162.196 E108.75546
G0 F6000 X183.816 Y162.196
G1 F3600 X189.378 Y167.758 E109.2197
G0 F6000 X188.651 Y167.803
G1 F3600 X183.044 Y162.196 E109.6877
G0 F6000 X182.272 Y162.196
G1 F3600 X187.879 Y167.803 E110.1557
G0 F6000 X187.107 Y167.803
G1 F3600 X181.5 Y162.196 E110.6237
G0 F6000 X180.728 Y162.196
G1 F3600 X186.335 Y167.803 E111.0917
G0 F6000 X185.563 Y167.803
G1 F3600 X179.955 Y162.196 E111.55974
G0 F6000 X179.183 Y162.196
G1 F3600 X184.791 Y167.803 E112.02779
G0 F6000 X184.018 Y167.803
G1 F3600 X178.411 Y162.196 E112.49579
G0 F6000 X177.639 Y162.196
G1 F3600 X183.246 Y167.803 E112.96378
G0 F6000 X182.474 Y167.803
G1 F3600 X176.867 Y162.196 E113.43178
G0 F6000 X176.095 Y162.196
G1 F3600 X181.702 Y167.803 E113.89978
G0 F6000 X180.93 Y167.803
G1 F3600 X175.322 Y162.196 E114.36783
G0 F6000 X174.55 Y162.196
G1 F3600 X180.158 Y167.803 E114.83587
G0 F6000 X179.385 Y167.803
G1 F3600 X173.778 Y162.196 E115.30387
G0 F6000 X173.006 Y162.196
G1 F3600 X178.613 Y167.803 E115.77187
G0 F6000 X177.841 Y167.803
G1 F3600 X172.234 Y162.196 E116.23987
G0 F6000 X171.462 Y162.196
G1 F3600 X177.069 Y167.803 E116.70787
G0 F6000 X176.297 Y167.803
G1 F3600 X170.689 Y162.196 E117.17591
G0 F6000 X169.917 Y162.196
G1 F3600 X175.525 Y167.803 E117.64395
G0 F6000 X174.752 Y167.803
G1 F3600 X169.145 Y162.196 E118.11195
G0 F6000 X168.373 Y162.196
G1 F3600 X173.98 Y167.803 E118.57995
G0 F6000 X173.208 Y167.803
G1 F3600 X167.601 Y162.196 E119.04795
G0 F6000 X166.829 Y162.196
G1 F3600 X172.436 Y167.803 E119.51595
G0 F6000 X171.664 Y167.803
G1 F3600 X166.056 Y162.196 E119.98399
G0 F6000 X165.284 Y162.196
G1 F3600 X170.892 Y167.803 E120.45203
G0 F6000 X170.119 Y167.803
G1 F3600 X164.512 Y162.196 E120.92003
G0 F6000 X163.74 Y162.196
G1 F3600 X169.347 Y167.803 E121.38803
G0 F6000 X168.575 Y167.803
G1 F3600 X162.968 Y162.196 E121.85603
G0 F6000 X162.196 Y162.196
G1 F3600 X167.803 Y167.803 E122.32403
G0 F6000 X167.031 Y167.803
G1 F3600 X161.423 Y162.196 E122.79207
G0 F6000 X160.651 Y162.196
G1 F3600 X166.259 Y167.803 E123.26011
G0 F6000 X165.487 Y167.803
G1 F3600 X159.879 Y162.196 E123.72815
G0 F6000 X159.107 Y162.196
G1 F3600 X164.714 Y167.803 E124.19615
G0 F6000 X163.942 Y167.802
G1 F3600 X158.335 Y162.196 E124.66411
G0 F6000 X157.563 Y162.196
G1 F3600 X163.169 Y167.802 E125.13203
G0 F6000 X162.397 Y167.802
G1 F3600 X156.791 Y162.196 E125.59994
G0 F6000 X156.018 Y162.196
G1 F3600 X161.625 Y167.802 E126.0679
G0 F6000 X160.853 Y167.802
G1 F3600 X155.246 Y162.196 E126.53586
G0 F6000 X154.474 Y162.196
G1 F3600 X160.081 Y167.802 E127.00382
G0 F6000 X159.309 Y167.802
G1 F3600 X153.702 Y162.196 E127.47178
G0 F6000 X152.93 Y162.196
G1 F3600 X158.536 Y167.802 E127.93969
G0 F6000 X157.764 Y167.802
G1 F3600 X152.158 Y162.196 E128.40761
G0 F6000 X151.385 Y162.196
G1 F3600 X156.992 Y167.802 E128.87557
G0 F6000 X156.22 Y167.802
G1 F3600 X150.613 Y162.196 E129.34352
G0 F6000 X149.841 Y162.196
G1 F3600 X155.448 Y167.802 E129.81148
G0 F6000 X154.676 Y167.802
G1 F3600 X149.069 Y162.196 E130.27944
G0 F6000 X148.297 Y162.196
G1 F3600 X153.903 Y167.802 E130.74736
G0 F6000 X153.131 Y167.802
G1 F3600 X147.525 Y162.196 E131.21527
G0 F6000 X146.752 Y162.196
G1 F3600 X152.359 Y167.802 E131.68323
G0 F6000 X151.587 Y167.802
G1 F3600 X145.98 Y162.196 E132.15119
G0 F6000 X145.208 Y162.196
G1 F3600 X150.815 Y167.802 E132.61915
G0 F6000 X150.043 Y167.802
G1 F3600 X144.436 Y162.196 E133.0871
G0 F6000 X143.664 Y162.196
G1 F3600 X149.27 Y167.802 E133.55502
G0 F6000 X148.498 Y167.802
G1 F3600 X142.892 Y162.196 E134.02294
G0 F6000 X142.119 Y162.196
G1 F3600 X147.726 Y167.802 E134.49089
G0 F6000 X146.954 Y167.802
G1 F3600 X141.347 Y162.196 E134.95885
G0 F6000 X140.575 Y162.196
G1 F3600 X146.182 Y167.802 E135.42681
G0 F6000 X145.41 Y167.802
G1 F3600 X139.803 Y162.196 E135.89477
G0 F6000 X139.664 Y162.829
G1 F3600 X144.637 Y167.802 E136.30985
G0 F6000 X143.865 Y167.802
G1 F3600 X139.664 Y163.601 E136.66049
G0 F6000 X139.664 Y164.373
G1 F3600 X143.093 Y167.802 E136.9467
G0 F6000 X142.321 Y167.802
G1 F3600 X139.664 Y165.145 E137.16848
G0 F6000 X139.664 Y165.917
G1 F3600 X141.549 Y167.802 E137.32581
G0 F6000 X140.777 Y167.802
G1 F3600 X139.664 Y166.689 E137.41871
G0 F6000 X139.664 Y167.461
G1 F3600 X140.005 Y167.802 E137.44717
G0 F6000 X140.005 Y168.611
G1 F1500 E136.44717
;MESH:NONMESH
EXCLUDE_OBJECT_END NAME=Lower_Belt_F_Primo_Mirrored_stl
G0 F600 X140.005 Y168.611 Z0.52
G0 F6000 X139.09 Y168.378
G0 X137.925 Y160.457
G0 X137.925 Y159.368
G0 X136.848 Y157.32
G0 X135.219 Y144.405
;TIME_ELAPSED:71.209373
;LAYER:1
M106 S63.8
;TYPE:SKIRT
G1 F1500 E137.44717
G1 F3600 X135.611 Y144.076 E137.47041
G1 X136.049 Y143.813 E137.4936
G1 X136.523 Y143.621 E137.51682
