;FLAVOR:Marlin
;TIME:3464
;Filament used: 11.0885m
;Layer height: 0.26
;MINX:76.576
;MINY:121.578
;MINZ:0.26
;MAXX:253.422
;MAXY:168.422
;MAXZ:38.22
;Generated with Cura_SteamEngine 5.4.0
M140 S60


; Pre-Processed for Cancel-Object support by preprocess_cancellation v0.2.0
; 1 known objects
EXCLUDE_OBJECT_DEFINE NAME=Mighty_Blorr_stl CENTER=165.765,145.942 POLYGON=[[76.576,121.578],[76.576,168.422],[253.422,168.422],[253.422,121.578]]
M105
M190 S60
M104 S210
M105
M109 S210
M82 ;absolute extrusion mode
START_GCODE
G92 E0
G92 E0
G1 F1500 E-1
;LAYER_COUNT:147
;LAYER:0
M107
G0 F6000 X93.017 Y122.227 Z0.26
;TYPE:SKIRT
G1 F1500 E0
G1 F1800 X93.464 Y121.956 E0.04775
G1 X93.947 Y121.756 E0.0955
G1 X94.455 Y121.632 E0.14326
G1 X95.008 Y121.579 E0.194
G1 X234.342 Y121.578 E12.92086
G1 X235.04 Y121.588 E12.98462
G1 X235.561 Y121.636 E13.03241
G1 X236.068 Y121.762 E13.08013
G1 X236.55 Y121.964 E13.12787
G1 X236.996 Y122.237 E13.17563
G1 X237.395 Y122.575 E13.2234
G1 X237.738 Y122.97 E13.27118
G1 X238.017 Y123.412 E13.31892
G1 X238.225 Y123.891 E13.36662
G1 X238.355 Y124.381 E13.41293
G1 X238.874 Y127.155 E13.6707
G1 X239.446 Y129.802 E13.91806
G1 X240.101 Y132.455 E14.16766
G1 X240.837 Y135.114 E14.41967
G1 X241.63 Y137.701 E14.66682
G1 X242.507 Y140.289 E14.91642
G1 X243.466 Y142.879 E15.16868
G1 X244.468 Y145.367 E15.41368
G1 X245.58 Y147.917 E15.66778
G1 X246.728 Y150.356 E15.914
G1 X247.959 Y152.794 E16.16347
G1 X249.272 Y155.22 E16.41543
G1 X250.634 Y157.574 E16.66385
G1 X252.065 Y159.894 E16.91283
G1 X252.874 Y161.16 E17.05006
G1 X253.121 Y161.621 E17.09783
G1 X253.295 Y162.114 E17.14558
G1 X253.391 Y162.628 E17.19334
G1 X253.422 Y163.351 E17.25944
G1 X253.412 Y165.012 E17.41116
G1 X253.369 Y165.533 E17.45891
G1 X253.247 Y166.041 E17.50663
G1 X253.049 Y166.525 E17.5544
G1 X252.78 Y166.973 E17.60213
G1 X252.445 Y167.375 E17.64993
G1 X252.053 Y167.721 E17.69768
G1 X251.613 Y168.004 E17.74547
G1 X251.135 Y168.216 E17.79323
G1 X250.631 Y168.352 E17.84091
G1 X250.004 Y168.421 E17.89853
G1 X225.708 Y168.422 E20.11774
G1 X224.819 Y168.404 E20.19896
G1 X223.877 Y168.337 E20.28522
G1 X222.834 Y168.248 E20.38083
G1 X220.102 Y168.095 E20.63077
G1 X217.361 Y168.018 E20.88123
G1 X214.655 Y168.018 E21.1284
G1 X211.882 Y168.097 E21.38179
G1 X209.192 Y168.251 E21.6279
G1 X207.079 Y168.406 E21.82142
G1 X206.143 Y168.422 E21.90693
G1 X179.708 Y168.422 E24.32152
G1 X179.01 Y168.412 E24.38528
G1 X177.877 Y168.337 E24.489
G1 X176.834 Y168.248 E24.58461
G1 X174.102 Y168.095 E24.83454
G1 X171.361 Y168.018 E25.08501
G1 X168.655 Y168.018 E25.33217
G1 X165.882 Y168.097 E25.58557
G1 X163.192 Y168.251 E25.83167
G1 X161.079 Y168.406 E26.0252
G1 X160.143 Y168.422 E26.1107
G1 X128.708 Y168.422 E28.982
G1 X128.01 Y168.412 E29.04576
G1 X126.877 Y168.337 E29.14947
G1 X125.834 Y168.248 E29.24509
G1 X123.102 Y168.095 E29.49502
G1 X120.361 Y168.018 E29.74549
G1 X117.655 Y168.018 E29.99265
G1 X114.882 Y168.097 E30.24604
G1 X112.192 Y168.251 E30.49215
G1 X110.079 Y168.406 E30.68567
G1 X109.143 Y168.422 E30.77118
G1 X80.658 Y168.422 E33.37302
G1 X79.96 Y168.412 E33.43678
G1 X79.439 Y168.364 E33.48457
G1 X78.932 Y168.238 E33.53229
G1 X78.45 Y168.036 E33.58003
G1 X78.004 Y167.763 E33.62779
G1 X77.605 Y167.425 E33.67555
G1 X77.262 Y167.03 E33.72334
G1 X76.983 Y166.588 E33.77108
G1 X76.775 Y166.109 E33.81878
G1 X76.642 Y165.603 E33.86657
G1 X76.576 Y164.967 E33.92497
G1 X76.588 Y162.982 E34.10629
G1 X76.631 Y162.461 E34.15404
G1 X76.753 Y161.953 E34.20176
G1 X76.988 Y161.377 E34.25858
G1 X78.677 Y158.724 E34.54585
G1 X80.083 Y156.365 E34.79669
G1 X81.431 Y153.952 E35.04915
G1 X82.672 Y151.573 E35.29424
G1 X83.873 Y149.107 E35.54478
G1 X85.005 Y146.602 E35.79587
G1 X86.057 Y144.086 E36.04496
G1 X87.048 Y141.517 E36.29647
G1 X87.952 Y138.955 E36.54462
G1 X88.781 Y136.382 E36.79154
G1 X89.548 Y133.747 E37.04221
G1 X90.235 Y131.105 E37.29156
G1 X90.855 Y128.416 E37.54362
G1 X91.396 Y125.719 E37.79487
G1 X91.646 Y124.381 E37.9192
G1 X91.781 Y123.876 E37.96695
G1 X91.991 Y123.398 E38.01464
G1 X92.272 Y122.956 E38.06248
G1 X92.617 Y122.563 E38.11024
G1 X93.017 Y122.227 E38.15796
G1 F1500 E37.15796
;MESH:Mighty Blorr.stl
EXCLUDE_OBJECT_START NAME=Mighty_Blorr_stl
G0 F6000 X96.657 Y124.335
G0 X96.657 Y126.657
G0 X96.557 Y163.369
G0 X107.72 Y163.368
G0 X107.374 Y160.903
G0 X107.992 Y157.278
G0 X109.772 Y153.934
G0 X112.286 Y151.521
G0 X115.516 Y149.911
G0 X119.118 Y149.378
G0 X122.739 Y150.004
G0 X125.967 Y151.71
G0 X128.49 Y154.307
G0 X130.093 Y157.544
G0 X130.599 Y161.255
G0 X130.279 Y163.369
G0 X158.72 Y163.368
G0 X158.374 Y160.903
G0 X159.003 Y157.265
G0 X160.697 Y154.009
G0 X163.314 Y151.506
G0 X166.516 Y149.911
G0 X170.118 Y149.378
G0 X173.739 Y150.004
G0 X176.967 Y151.71
G0 X179.483 Y154.288
G0 X181.094 Y157.549
G0 X181.6 Y161.256
G0 X181.28 Y163.368
G0 X204.721 Y163.369
G0 X204.375 Y160.904
G0 X205.578 Y156.129
G0 X206.873 Y154.369
G0 X209.369 Y151.873
G0 X212.514 Y150.269
G0 X216 Y149.717
G0 X219.486 Y150.269
G0 X222.631 Y151.873
G0 X225.127 Y154.369
G0 X226.731 Y157.514
G0 X227.472 Y162.054
G0 X227.28 Y163.368
G0 X233.675 Y163.733
G0 X234.021 Y163.733
;TYPE:WALL-INNER
G1 F1500 E38.15796
G1 F1800 X233.83 Y163.488 E38.18633
G1 X233.733 Y163 E38.23178
G1 X233.733 Y126.267 E41.587
G1 X96.268 Y126.268 E54.14314
G1 X96.267 Y163 E57.49826
G1 X96.17 Y163.488 E57.54371
G1 X95.979 Y163.733 E57.57208
G1 X108.145 Y163.732 E58.68333
G1 X107.714 Y161.001 E58.93587
G1 X108.249 Y157.619 E59.24863
G1 X108.318 Y157.409 E59.26882
G1 X109.821 Y154.458 E59.57131
G1 X110.01 Y154.227 E59.59857
G1 X112.304 Y151.938 E59.89458
G1 X112.466 Y151.822 E59.91278
G1 X115.518 Y150.265 E60.22573
G1 X119.01 Y149.715 E60.54863
G1 X122.37 Y150.25 E60.8594
G1 X122.597 Y150.324 E60.8812
G1 X125.453 Y151.777 E61.17389
G1 X125.728 Y151.966 E61.20437
G1 X128.029 Y154.267 E61.5016
G1 X128.187 Y154.481 E61.5259
G1 X129.678 Y157.408 E61.82594
G1 X129.742 Y157.596 E61.84408
G1 X130.285 Y160.999 E62.15885
G1 X129.854 Y163.733 E62.41166
G1 X159.145 Y163.732 E65.08712
G1 X158.714 Y161.001 E65.33966
G1 X159.235 Y157.709 E65.64409
G1 X159.322 Y157.408 E65.67271
G1 X160.88 Y154.358 E65.98554
G1 X163.273 Y151.966 E66.29459
G1 X163.459 Y151.822 E66.31608
G1 X166.519 Y150.265 E66.62968
G1 X170.01 Y149.715 E66.95249
G1 X173.37 Y150.25 E67.26326
G1 X173.597 Y150.324 E67.28507
G1 X176.453 Y151.777 E67.57775
G1 X176.728 Y151.966 E67.60823
G1 X179.03 Y154.268 E67.90559
G1 X179.184 Y154.475 E67.92916
G1 X180.678 Y157.408 E68.22982
G1 X180.741 Y157.595 E68.24784
G1 X181.286 Y161 E68.56281
G1 X180.855 Y163.732 E68.81544
G1 X205.146 Y163.733 E71.0342
G1 X204.715 Y160.999 E71.28701
G1 X205.258 Y157.595 E71.60186
G1 X205.322 Y157.408 E71.61991
G1 X206.796 Y154.51 E71.91689
G1 X206.97 Y154.268 E71.94412
G1 X209.273 Y151.966 E72.24154
G1 X209.459 Y151.822 E72.26303
G1 X212.519 Y150.265 E72.57663
G1 X216.009 Y149.715 E72.89935
G1 X219.488 Y150.266 E73.22108
G1 X222.644 Y151.881 E73.5449
G1 X225.135 Y154.372 E73.86668
G1 X226.734 Y157.512 E74.18854
G1 X227.262 Y160.855 E74.49767
G1 X227.255 Y161.199 E74.5291
G1 X226.855 Y163.732 E74.76333
G1 X234.021 Y163.733 E75.41788
G0 F6000 X233.675 Y163.733
G0 X226.88 Y163.711
G0 X225.74 Y164.577
;TYPE:WALL-OUTER
G1 F1800 X234.333 Y164.578 E76.20277
G1 F1649.7 X235 Y164.5 E76.2697
G1 F1521 X249.5 Y164.5 E77.83708
G1 X249.5 Y163.5 E77.94518
G1 X235 Y163.5 E79.51256
G1 F1649.7 X234.746 Y163.338 E79.54259
G1 F1800 X234.61 Y163.163 E79.56283
G1 X234.578 Y163 E79.578
G1 X234.578 Y125.422 E83.0104
G1 X95.423 Y125.423 E95.72091
G1 X95.422 Y163 E99.15322
G1 X95.39 Y163.163 E99.16839
G1 F1762.5 X95.264 Y163.353 E99.18966
G1 F1609.5 X95.087 Y163.497 E99.21297
G1 F1514.9 X80.5 Y163.5 E100.79606
G1 F1521 X80.5 Y164.5 E100.90416
G1 F1514.9 X95.174 Y164.496 E102.49669
G1 F1609.5 X95.666 Y164.56 E102.54738
G1 F1762.5 X96.333 Y164.578 E102.60962
G1 F1800 X109.26 Y164.577 E103.79038
G1 X109.068 Y164.157 E103.83256
G1 X108.572 Y161.015 E104.12311
G1 X109.084 Y157.767 E104.42345
G1 X110.565 Y154.866 E104.72096
G1 X112.876 Y152.557 E105.01935
G1 X115.768 Y151.084 E105.3158
G1 X119 Y150.57 E105.61472
G1 X122.232 Y151.084 E105.91365
G1 X125.13 Y152.561 E106.21075
G1 X127.438 Y154.87 E106.50895
G1 X128.918 Y157.77 E106.80634
G1 X129.427 Y161.014 E107.10627
G1 X128.932 Y164.156 E107.39681
G1 X128.74 Y164.577 E107.43907
G1 X160.26 Y164.577 E110.31813
G1 X160.068 Y164.157 E110.36031
G1 X159.572 Y161.015 E110.65086
G1 X160.084 Y157.768 E110.9511
G1 X161.563 Y154.869 E111.24837
G1 X163.869 Y152.563 E111.54625
G1 X166.768 Y151.084 E111.84351
G1 X170 Y150.57 E112.14244
G1 X173.232 Y151.084 E112.44136
G1 X176.13 Y152.561 E112.73846
G1 X178.439 Y154.872 E113.03686
G1 X179.913 Y157.77 E113.33383
G1 X180.428 Y161.015 E113.63394
G1 X179.932 Y164.157 E113.92449
G1 X179.74 Y164.577 E113.96667
G1 X206.26 Y164.577 E116.38903
G1 X206.068 Y164.156 E116.43129
G1 X205.573 Y161.014 E116.72182
G1 X206.082 Y157.77 E117.02176
G1 X207.561 Y154.872 E117.31894
G1 X209.869 Y152.563 E117.61714
G1 X212.768 Y151.084 E117.91441
G1 X216 Y150.57 E118.21333
G1 X219.226 Y151.08 E118.51166
G1 X222.134 Y152.565 E118.8099
G1 X224.435 Y154.873 E119.10759
G1 X225.915 Y157.776 E119.40522
G1 X226.431 Y161 E119.70345
G1 X225.932 Y164.157 E119.99539
G1 X225.74 Y164.577 E120.03758
G0 F6000 X226.04 Y164.577
G0 X226.88 Y163.711
G0 X227.804 Y163.443
G0 X227.805 Y162.921
;TYPE:SKIN
G1 F1800 X228.057 Y161.326 E120.18507
G1 X228.068 Y160.764 E120.23641
G1 X227.515 Y157.258 E120.56061
G1 X225.788 Y153.883 E120.9069
G1 X223.358 Y151.444 E121.22138
G1 X222.924 Y151.106 E121.27163
G1 X219.894 Y149.568 E121.582
G1 X219.483 Y149.445 E121.62119
G1 X216.163 Y148.918 E121.92824
G1 X215.802 Y148.928 E121.96122
G1 X212.388 Y149.468 E122.27694
G1 X212.075 Y149.58 E122.3073
G1 X209.087 Y151.103 E122.61363
G1 X208.722 Y151.368 E122.65483
G1 X206.411 Y153.679 E122.95336
G1 X206.106 Y154.084 E122.99967
G1 X204.576 Y157.089 E123.30768
G1 X204.459 Y157.429 E123.34052
G1 X203.92 Y160.836 E123.65559
G1 X203.94 Y161.291 E123.69719
G1 X204.196 Y162.921 E123.8479
G1 X181.805 Y162.92 E125.89311
G1 X182.057 Y161.328 E126.04033
G1 X182.089 Y160.887 E126.08072
G1 X181.542 Y157.433 E126.40014
G1 X181.426 Y157.093 E126.43295
G1 X179.876 Y154.044 E126.74537
G1 X179.642 Y153.729 E126.78121
G1 X177.261 Y151.353 E127.08846
G1 X176.913 Y151.103 E127.1276
G1 X173.924 Y149.58 E127.43401
G1 X173.589 Y149.463 E127.46642
G1 X170.162 Y148.918 E127.78338
G1 X169.802 Y148.928 E127.81628
G1 X166.388 Y149.468 E128.13199
G1 X166.075 Y149.58 E128.16236
G1 X163.087 Y151.103 E128.46869
G1 X162.722 Y151.368 E128.50989
G1 X160.334 Y153.756 E128.81836
G1 X160.118 Y154.053 E128.8519
G1 X158.574 Y157.093 E129.16334
G1 X158.444 Y157.537 E129.2056
G1 X157.919 Y160.834 E129.51054
G1 X157.939 Y161.292 E129.55242
G1 X158.195 Y162.92 E129.70295
G1 X130.804 Y162.921 E132.20486
G1 X131.056 Y161.327 E132.35226
G1 X131.088 Y160.888 E132.39247
G1 X130.541 Y157.429 E132.71234
G1 X130.426 Y157.091 E132.74495
G1 X128.878 Y154.054 E133.05631
G1 X128.655 Y153.743 E133.09127
G1 X126.261 Y151.354 E133.40019
G1 X125.913 Y151.103 E133.43938
G1 X122.924 Y149.58 E133.7458
G1 X122.589 Y149.463 E133.77821
G1 X119.162 Y148.918 E134.09517
G1 X118.802 Y148.928 E134.12806
G1 X115.387 Y149.468 E134.44387
G1 X115.1 Y149.57 E134.47169
G1 X112.051 Y151.122 E134.78419
G1 X111.686 Y151.406 E134.82643
G1 X109.44 Y153.646 E135.11617
G1 X109.134 Y154.023 E135.16052
G1 X107.577 Y157.074 E135.47339
G1 X107.442 Y157.543 E135.51797
G1 X106.919 Y160.835 E135.82244
G1 X106.939 Y161.292 E135.86422
G1 X107.195 Y162.92 E136.01475
G1 X97.08 Y162.92 E136.93866
G1 X97.08 Y127.08 E140.21231
G1 X232.922 Y127.078 E152.6202
G1 X232.922 Y162.921 E155.89413
G1 X227.805 Y162.921 E156.36152
G1 F1500 E155.36152
G0 F6000 X227.804 Y163.443
G0 X233.443 Y163.369
G0 X233.444 Y128.533
G0 X232.499 Y128.533
G1 F1500 E156.36152
G1 F1800 X231.466 Y127.5 E156.49495
G0 F6000 X231.466 Y126.556
G0 X230.271 Y126.556
G0 X230.271 Y127.5
G1 F1800 X232.499 Y129.728 E156.78276
G0 F6000 X233.444 Y129.728
G0 X233.444 Y130.923
G0 X232.499 Y130.923
G1 F1800 X229.076 Y127.5 E157.22492
G0 F6000 X229.076 Y126.556
G0 X227.881 Y126.556
G0 X227.881 Y127.5
G1 F1800 X232.499 Y132.118 E157.82145
G0 F6000 X233.444 Y132.118
G0 X233.444 Y133.313
G0 X232.499 Y133.313
G1 F1800 X226.686 Y127.5 E158.57235
G0 F6000 X226.686 Y126.556
G0 X225.491 Y126.556
G0 X225.491 Y127.5
G1 F1800 X232.499 Y134.508 E159.47761
G0 F6000 X233.444 Y134.508
G0 X233.444 Y135.703
G0 X232.499 Y135.703
G1 F1800 X224.296 Y127.5 E160.53723
G0 F6000 X224.296 Y126.556
G0 X223.101 Y126.556
G0 X223.101 Y127.5
G1 F1800 X232.499 Y136.898 E161.75122
G0 F6000 X233.444 Y136.898
G0 X233.444 Y138.093
G0 X232.499 Y138.093
G1 F1800 X221.906 Y127.5 E163.11957
G0 F6000 X221.906 Y126.556
G0 X220.711 Y126.556
G0 X220.711 Y127.5
G1 F1800 X232.499 Y139.288 E164.64229
G0 F6000 X233.444 Y139.288
G0 X233.444 Y140.483
G0 X232.499 Y140.483
G1 F1800 X219.516 Y127.5 E166.31937
G0 F6000 X219.516 Y126.556
G0 X218.321 Y126.556
G0 X218.321 Y127.5
G1 F1800 X232.499 Y141.678 E168.15082
G0 F6000 X233.444 Y141.678
G0 X233.444 Y142.873
G0 X232.499 Y142.873
G1 F1800 X217.126 Y127.5 E170.13663
G0 F6000 X217.126 Y126.556
G0 X215.931 Y126.556
G0 X215.931 Y127.5
G1 F1800 X232.499 Y144.068 E172.2768
G0 F6000 X233.444 Y144.068
G0 X233.444 Y145.263
G0 X232.499 Y145.263
G1 F1800 X214.736 Y127.5 E174.57134
G0 F6000 X214.736 Y126.556
G0 X213.541 Y126.556
G0 X213.541 Y127.5
G1 F1800 X232.499 Y146.458 E177.02024
G0 F6000 X233.444 Y146.458
G0 X233.444 Y147.653
G0 X232.499 Y147.653
G1 F1800 X212.346 Y127.5 E179.62351
G0 F6000 X212.346 Y126.556
G0 X211.151 Y126.556
G0 X211.151 Y127.5
G1 F1800 X232.499 Y148.848 E182.38114
G0 F6000 X233.444 Y148.848
G0 X233.444 Y150.043
G0 X232.499 Y150.043
G1 F1800 X209.956 Y127.5 E185.29314
G0 F6000 X209.956 Y126.556
G0 X208.761 Y126.556
G0 X208.761 Y127.5
G1 F1800 X232.499 Y151.238 E188.3595
G0 F6000 X233.444 Y151.238
G0 X233.444 Y152.433
G0 X232.499 Y152.433
G1 F1800 X207.566 Y127.5 E191.58023
G0 F6000 X207.566 Y126.556
G0 X206.371 Y126.556
G0 X206.371 Y127.5
G1 F1800 X232.499 Y153.628 E194.95531
G0 F6000 X233.444 Y153.628
G0 X233.444 Y154.823
G0 X232.499 Y154.823
G1 F1800 X205.176 Y127.5 E198.48477
G0 F6000 X205.176 Y126.556
G0 X203.981 Y126.556
G0 X203.981 Y127.5
G1 F1800 X232.499 Y156.018 E202.16859
G0 F6000 X233.444 Y156.018
G0 X233.444 Y157.213
G0 X232.499 Y157.213
G1 F1800 X202.786 Y127.5 E206.00677
G0 F6000 X202.786 Y126.556
G0 X201.591 Y126.556
G0 X201.591 Y127.5
G1 F1800 X232.499 Y158.408 E209.99931
G0 F6000 X233.444 Y158.408
G0 X233.444 Y159.603
G0 X232.499 Y159.603
G1 F1800 X200.396 Y127.5 E214.14622
G0 F6000 X200.396 Y126.556
G0 X199.201 Y126.556
G0 X199.201 Y127.5
G1 F1800 X221.732 Y150.031 E217.05667
G1 X221.847 Y150.146
G0 F6000 X221.443 Y150.94
G0 X219.383 Y149.957
G0 X219.531 Y149.026
G1 F1800 X198.006 Y127.5 E219.83723
G0 F6000 X198.006 Y126.556
G0 X196.811 Y126.556
G0 X196.811 Y127.5
G1 F1800 X218.111 Y148.8 E222.58866
G0 F6000 X217.963 Y149.731
G0 X216.543 Y149.506
G0 X216.691 Y148.575
G1 F1800 X195.616 Y127.5 E225.31103
G0 F6000 X195.616 Y126.556
G0 X194.421 Y126.556
G0 X194.421 Y127.5
G1 F1800 X215.473 Y148.552 E228.03043
G0 F6000 X215.619 Y149.484
G0 X214.586 Y149.647
G0 X214.44 Y148.715
G1 F1800 X193.226 Y127.5 E230.77081
G0 F6000 X193.226 Y126.556
G0 X192.031 Y126.556
G0 X192.031 Y127.5
G1 F1800 X213.407 Y148.877 E233.53213
G0 F6000 X213.553 Y149.809
G0 X212.531 Y149.969
G0 X212.374 Y149.039
G1 F1800 X190.836 Y127.5 E236.31437
G0 F6000 X190.836 Y126.556
G0 X189.641 Y126.556
G0 X189.641 Y127.5
G1 F1800 X211.526 Y149.386 E239.14143
G0 F6000 X210.734 Y149.789
G1 F1800 X188.446 Y127.5 E242.02055
G0 F6000 X188.446 Y126.556
G0 X187.251 Y126.556
G0 X187.251 Y127.5
G1 F1800 X209.943 Y150.193 E244.95186
G0 F6000 X209.152 Y150.596
G1 F1800 X186.056 Y127.5 E247.93529
G0 F6000 X186.056 Y126.556
G0 X184.861 Y126.556
G0 X184.861 Y127.5
G1 F1800 X208.427 Y151.066 E250.97943
G0 F6000 X207.829 Y151.664
G1 F1800 X183.666 Y127.5 E254.10075
G0 F6000 X183.666 Y126.556
G0 X182.471 Y126.556
G0 X182.471 Y127.5
