;FLAVOR:Marlin
;TIME:3744
;Filament used: 8.13586m
;Layer height: 0.26
;MINX:115.968
;MINY:141.9
;MINZ:0.26
;MAXX:214.319
;MAXY:228.511
;MAXZ:20.28
;Generated with Cura_SteamEngine 5.4.0
M140 S60


; Pre-Processed for Cancel-Object support by preprocess_cancellation v0.2.0
; 2 known objects
EXCLUDE_OBJECT_DEFINE NAME=MPCNC_Primo_Cable_Chain_Truck_Fitting_stl CENTER=165.519,172.367 POLYGON=[[121.118,145.643],[121.118,184.353],[208.888,184.353],[208.888,145.643]]
EXCLUDE_OBJECT_DEFINE NAME=MPCNC_Primo_Cable_Chain_Truck_Fitting_stl_1 CENTER=163.487,192.492 POLYGON=[[119.783,164.723],[119.783,224.768],[210.501,224.768],[210.501,164.723]]
M105
M190 S60
M104 S210
M105
M109 S210
M82 ;absolute extrusion mode
START_GCODE
G92 E0
G92 E0
G1 F1500 E-1
;LAYER_COUNT:78
;LAYER:0
M107
G0 F6000 X121.597 Y164.062 Z0.26
;TYPE:SKIRT
G1 F1500 E0
G1 F1800 X123.004 Y163.098 E0.15579
G1 X125.595 Y161.511 E0.43332
G1 X127.836 Y160.046 E0.67787
G1 X130.114 Y158.461 E0.93135
G1 X132.306 Y156.843 E1.18021
G1 X134.444 Y155.169 E1.42823
G1 X136.567 Y153.408 E1.68018
G1 X138.602 Y151.621 E1.92755
G1 X140.609 Y149.757 E2.17774
G1 X142.555 Y147.841 E2.42719
G1 X144.431 Y145.888 E2.67454
G1 X145.871 Y144.312 E2.86954
G1 X146.593 Y143.632 E2.96013
G1 X147.087 Y143.261 E3.01656
G1 X147.619 Y142.921 E3.07423
G1 X148.136 Y142.639 E3.12802
G1 X148.843 Y142.349 E3.19782
G1 X149.401 Y142.175 E3.25121
G1 X150.281 Y141.98 E3.33354
G1 X151.036 Y141.927 E3.40267
G1 X152.404 Y141.9 E3.52765
G1 X179.201 Y141.933 E5.97531
G1 X179.895 Y141.944 E6.0387
G1 X180.494 Y142 E6.09366
G1 X181.602 Y142.289 E6.19825
G1 X182.253 Y142.531 E6.26168
G1 X183.021 Y142.91 E6.33991
G1 X183.633 Y143.297 E6.40605
G1 X184.279 Y143.809 E6.48134
G1 X184.668 Y144.17 E6.52982
G1 X186.282 Y145.919 E6.7472
G1 X188.181 Y147.871 E6.99595
G1 X190.143 Y149.778 E7.24586
G1 X192.138 Y151.61 E7.49327
G1 X194.221 Y153.417 E7.74514
G1 X196.337 Y155.15 E7.99497
G1 X198.485 Y156.81 E8.24293
G1 X200.711 Y158.432 E8.49451
G1 X202.94 Y159.961 E8.7414
G1 X205.233 Y161.441 E8.99068
G1 X206.662 Y162.299 E9.14293
G1 X208.079 Y163.166 E9.29466
G1 X208.917 Y163.857 E9.39387
G1 X209.686 Y164.512 E9.48614
G1 X210.103 Y164.933 E9.54026
G1 X210.799 Y165.771 E9.63977
G1 X211.973 Y167.465 E9.82802
G1 X212.284 Y168.016 E9.88582
G1 X212.67 Y168.879 E9.97217
G1 X213.143 Y170.224 E10.1024
G1 X213.384 Y171.043 E10.18038
G1 X213.825 Y172.613 E10.32933
G1 X213.998 Y173.197 E10.38497
G1 X214.108 Y173.708 E10.43271
G1 X214.128 Y174.44 E10.4996
G1 X214.062 Y175.274 E10.57601
G1 X213.956 Y176.395 E10.67886
G1 X213.777 Y179.128 E10.92903
G1 X213.675 Y181.868 E11.17948
G1 X213.65 Y184.607 E11.42967
G1 X213.703 Y187.313 E11.67688
G1 X213.834 Y190.049 E11.92708
G1 X214.043 Y192.791 E12.17826
G1 X214.319 Y195.51 E12.42789
G1 X214.291 Y196.363 E12.50585
G1 X214.045 Y198.009 E12.65787
G1 X213.381 Y200.471 E12.89078
G1 X213.057 Y201.328 E12.97447
G1 X212.835 Y201.801 E13.02219
G1 X212.562 Y202.212 E13.06726
G1 X211.553 Y203.515 E13.21779
G1 X210.98 Y204.187 E13.29846
G1 X210.394 Y204.829 E13.37785
G1 X208.729 Y206.321 E13.58206
G1 X207.962 Y206.864 E13.6679
G1 X207.237 Y207.344 E13.74732
G1 X204.935 Y208.75 E13.9937
G1 X202.622 Y210.254 E14.24571
G1 X200.388 Y211.799 E14.49381
G1 X198.188 Y213.414 E14.74309
G1 X196.032 Y215.092 E14.99264
G1 X193.925 Y216.832 E15.24223
G1 X191.869 Y218.629 E15.49165
G1 X189.872 Y220.473 E15.73993
G1 X187.929 Y222.375 E15.98828
G1 X185.994 Y224.379 E16.24273
G1 X184.4 Y226.12 E16.45834
G1 X183.683 Y226.781 E16.54742
G1 X183.208 Y227.148 E16.60224
G1 X182.675 Y227.489 E16.66004
G1 X182.159 Y227.771 E16.71375
G1 X181.448 Y228.062 E16.78392
G1 X180.89 Y228.236 E16.83731
G1 X180.01 Y228.431 E16.91964
G1 X179.255 Y228.484 E16.98877
G1 X177.887 Y228.511 E17.11375
G1 X151.09 Y228.478 E19.56141
G1 X150.396 Y228.467 E19.62481
G1 X149.807 Y228.412 E19.67884
G1 X148.686 Y228.129 E19.78445
G1 X148.04 Y227.88 E19.84768
G1 X147.271 Y227.501 E19.92599
G1 X146.656 Y227.112 E19.99246
G1 X146.006 Y226.596 E20.06827
G1 X145.619 Y226.236 E20.11654
G1 X144.044 Y224.529 E20.32869
G1 X142.127 Y222.557 E20.5799
G1 X140.166 Y220.65 E20.82975
G1 X138.154 Y218.801 E21.07934
G1 X136.087 Y217.008 E21.32928
G1 X133.988 Y215.289 E21.57709
G1 X131.83 Y213.62 E21.82628
G1 X129.608 Y212.001 E22.0774
G1 X127.377 Y210.469 E22.3246
G1 X125.063 Y208.975 E22.57618
G1 X122.25 Y207.272 E22.87654
G1 X121.139 Y206.361 E23.00778
G1 X120.588 Y205.889 E23.07405
G1 X120.167 Y205.458 E23.12908
G1 X119.489 Y204.631 E23.22676
G1 X118.324 Y202.954 E23.41327
G1 X118.005 Y202.386 E23.47278
G1 X117.59 Y201.43 E23.56797
G1 X117.321 Y200.689 E23.63998
G1 X116.879 Y199.322 E23.7712
G1 X116.277 Y197.152 E23.9769
G1 X116.176 Y196.639 E24.02466
G1 X116.165 Y195.943 E24.08824
G1 X116.365 Y193.624 E24.30084
G1 X116.534 Y190.845 E24.55515
G1 X116.621 Y188.145 E24.80189
G1 X116.632 Y185.403 E25.05235
G1 X116.565 Y182.664 E25.30261
G1 X116.422 Y179.949 E25.55094
G1 X116.107 Y176.283 E25.88703
G1 X116.007 Y175.334 E25.97419
G1 X115.968 Y174.786 E26.02437
G1 X116.004 Y174.008 E26.09551
G1 X116.266 Y172.396 E26.24469
G1 X116.525 Y171.378 E26.34063
G1 X116.908 Y169.946 E26.47603
G1 X117.227 Y169.097 E26.55887
G1 X117.448 Y168.623 E26.60664
G1 X117.716 Y168.217 E26.65108
G1 X118.962 Y166.602 E26.83739
G1 X119.895 Y165.583 E26.96359
G1 X120.582 Y164.949 E27.04898
G1 X121.597 Y164.062 E27.1721
G1 F1500 E26.1721
G0 F6000 X124.077 Y167.064
G1 F1500 E27.1721
G1 F1800 X124.276 Y166.981 E27.1918
G1 X124.327 Y166.956 E27.19699
G1 X125.022 Y166.547 E27.27064
G1 X125.155 Y166.422 E27.28732
G1 X125.185 Y166.347 E27.29469
G1 X125.487 Y166.27 E27.32316
G1 X125.529 Y166.257 E27.32718
G1 X126.168 Y166.02 E27.38943
G1 X126.322 Y165.92 E27.4062
G1 X126.351 Y165.874 E27.41117
G1 X127.916 Y165.492 E27.55831
G1 X127.965 Y165.494 E27.56279
G1 X128.492 Y165.438 E27.6112
G1 X128.507 Y165.436 E27.61258
G1 X128.949 Y165.37 E27.6534
G1 X130.516 Y165.291 E27.79671
G1 X132.501 Y165.339 E27.97808
G1 X133.172 Y165.413 E28.03974
G1 X134 Y165.544 E28.11631
G1 X135.01 Y165.794 E28.21135
G1 X135.013 Y165.799 E28.21188
G1 X135.214 Y165.922 E28.23341
G1 X135.929 Y166.117 E28.3011
G1 X135.974 Y166.127 E28.30531
G1 X136.255 Y166.171 E28.33129
G1 X136.285 Y166.236 E28.33783
G1 X136.452 Y166.368 E28.35727
G1 X137.115 Y166.658 E28.42337
G1 X137.241 Y166.691 E28.43527
G1 X137.387 Y166.706 E28.44867
G1 X137.428 Y166.818 E28.45957
G1 X137.58 Y166.96 E28.47857
G1 X138.254 Y167.332 E28.54889
G1 X138.301 Y167.355 E28.55367
G1 X138.956 Y167.617 E28.6181
G1 X139.113 Y167.647 E28.6327
G1 X139.32 Y167.647 E28.65161
G1 X139.447 Y167.747 E28.66637
G1 X139.57 Y167.784 E28.67811
G1 X140.28 Y167.884 E28.7436
G1 X140.34 Y167.888 E28.74909
G1 X145.9 Y167.874 E29.25695
G1 X145.897 Y173.21 E29.74434
G1 X145.899 Y173.251 E29.74809
G1 X145.965 Y173.922 E29.80968
G1 X145.989 Y174.028 E29.8196
G1 X146.377 Y175.075 E29.92159
G1 X146.434 Y175.18 E29.9325
G1 X146.95 Y175.877 E30.01172
G1 X146.953 Y176.384 E30.05803
G1 X146.96 Y176.458 E30.06482
G1 X147.103 Y177.23 E30.13653
G1 X147.113 Y177.27 E30.1403
G1 X147.276 Y177.835 E30.19401
G1 X147.291 Y177.88 E30.19834
G1 X147.492 Y178.365 E30.2463
G1 X147.512 Y178.406 E30.25046
G1 X147.812 Y178.954 E30.30753
G1 X147.851 Y179.014 E30.31406
G1 X148.468 Y179.793 E30.40483
G1 X148.606 Y179.906 E30.42112
G1 X148.655 Y179.931 E30.42615
G1 X148.731 Y180.145 E30.44689
G1 X148.828 Y180.301 E30.46367
G1 X148.918 Y180.359 E30.47345
G1 X148.836 Y180.858 E30.51964
G1 X147.403 Y180.87 E30.65054
G1 X146.608 Y180.854 E30.72317
G1 X146.592 Y180.854 E30.72463
G1 X144.707 Y180.889 E30.89684
G1 X140.544 Y180.89 E31.27709
G1 X140.502 Y180.892 E31.28093
G1 X139.809 Y180.961 E31.34454
G1 X139.767 Y180.967 E31.34841
G1 X139.353 Y181.051 E31.387
G1 X139.311 Y181.062 E31.39097
G1 X138.573 Y181.293 E31.4616
G1 X138.499 Y181.324 E31.46893
G1 X137.894 Y181.649 E31.53166
G1 X137.855 Y181.673 E31.53584
G1 X137.376 Y182.001 E31.58887
G1 X137.342 Y182.027 E31.59278
G1 X136.822 Y182.466 E31.65494
G1 X136.797 Y182.489 E31.65804
G1 X136.431 Y182.853 E31.70519
G1 X136.275 Y182.842 E31.71947
G1 X136.166 Y182.873 E31.72983
G1 X135.429 Y183.198 E31.8034
G1 X135.361 Y183.236 E31.81051
G1 X135.255 Y183.308 E31.82222
G1 X135.04 Y183.301 E31.84187
G1 X134.373 Y183.495 E31.90532
G1 X134.312 Y183.518 E31.91127
G1 X133.789 Y183.763 E31.96402
G1 X133.671 Y183.714 E31.97569
G1 X133.546 Y183.71 E31.98712
G1 X132.815 Y183.799 E32.05438
G1 X132.745 Y183.814 E32.06092
G1 X132.163 Y183.988 E32.1164
G1 X131.944 Y183.904 E32.13783
G1 X131.237 Y183.873 E32.20247
G1 X131.188 Y183.874 E32.20695
G1 X130.422 Y183.929 E32.27709
G1 X130.246 Y183.981 E32.29386
G1 X130.19 Y184.031 E32.30071
G1 X129.287 Y183.935 E32.38366
G1 X129.272 Y183.934 E32.38503
G1 X128.487 Y183.879 E32.45691
G1 X128.306 Y183.906 E32.47362
G1 X128.253 Y183.941 E32.47943
G1 X126.378 Y183.19 E32.66392
G1 X126.198 Y183.161 E32.68057
G1 X126.113 Y183.185 E32.68864
G1 X126.034 Y183.123 E32.69781
G1 X125.935 Y183.065 E32.70829
G1 X125.627 Y182.936 E32.73879
G1 X125.447 Y182.903 E32.75551
G1 X125.413 Y182.916 E32.75883
G1 X125.044 Y182.622 E32.80193
G1 X124.97 Y182.574 E32.80998
G1 X124.338 Y182.259 E32.87448
G1 X124.16 Y182.215 E32.89123
G1 X124.079 Y182.231 E32.89877
G1 X123.986 Y182.105 E32.91308
G1 X123.847 Y181.985 E32.92985
G1 X123.782 Y181.966 E32.93604
G1 X123.677 Y181.82 E32.95246
G1 X123.599 Y181.737 E32.96287
G1 X123.345 Y181.532 E32.99268
G1 X123.181 Y181.45 E33.00943
G1 X123.113 Y181.449 E33.01564
G1 X123.053 Y181.352 E33.02606
G1 X122.983 Y181.267 E33.03612
G1 X122.712 Y181.014 E33.06998
G1 X122.603 Y180.95 E33.08153
G1 X121.797 Y180.124 E33.18694
G1 X121.644 Y180.023 E33.20369
G1 X121.463 Y179.997 E33.22039
G1 X121.451 Y180.001 E33.22154
G1 X121.421 Y179.811 E33.23911
G1 X121.406 Y179.75 E33.24485
G1 X121.194 Y179.082 E33.30887
G1 X121.172 Y179.027 E33.31428
G1 X120.841 Y178.336 E33.38426
G1 X120.729 Y178.192 E33.40092
G1 X120.697 Y178.177 E33.40415
G1 X120.686 Y178.049 E33.41589
G1 X120.672 Y177.971 E33.42312
G1 X120.454 Y177.184 E33.49772
G1 X120.368 Y177.023 E33.51439
G1 X120.288 Y176.97 E33.52315
G1 X120.303 Y176.861 E33.5332
G1 X120.306 Y176.77 E33.54152
G1 X120.246 Y175.996 E33.61243
G1 X120.233 Y175.921 E33.61938
G1 X120.043 Y175.203 E33.68722
G1 X119.959 Y175.04 E33.70397
G1 X119.942 Y175.025 E33.70604
G1 X119.976 Y174.843 E33.72295
G1 X119.97 Y174.682 E33.73767
G1 X119.924 Y174.505 E33.75438
G1 X119.899 Y174.475 E33.75794
G1 X119.968 Y174.35 E33.77098
G1 X120.016 Y174.205 E33.78493
G1 X120.144 Y173.285 E33.86978
G1 X120.129 Y173.103 E33.88646
G1 X120.122 Y173.09 E33.88781
G1 X120.147 Y173.054 E33.89181
G1 X120.204 Y172.935 E33.90386
G1 X120.377 Y172.35 E33.95958
G1 X120.389 Y172.168 E33.97624
G1 X120.381 Y172.149 E33.97813
G1 X120.428 Y172.076 E33.98606
G1 X120.471 Y171.991 E33.99476
G1 X120.641 Y171.523 E34.04024
G1 X120.664 Y171.342 E34.0569
G1 X120.632 Y171.248 E34.06597
G1 X120.66 Y171.098 E34.07991
G1 X120.74 Y171.018 E34.09025
G1 X120.829 Y170.885 E34.10486
G1 X120.936 Y170.634 E34.12979
G1 X120.97 Y170.454 E34.14652
G1 X120.954 Y170.407 E34.15105
G1 X121.07 Y170.313 E34.16469
G1 X121.127 Y170.257 E34.17199
G1 X121.261 Y170.098 E34.19098
G1 X121.346 Y169.936 E34.20769
G1 X121.348 Y169.9 E34.21099
G1 X121.478 Y169.792 E34.22642
G1 X121.538 Y169.731 E34.23424
G1 X121.834 Y169.36 E34.27759
G1 X121.914 Y169.196 E34.29426
G1 X121.915 Y169.145 E34.29892
G1 X121.967 Y169.108 E34.30475
G1 X122.074 Y168.997 E34.31883
G1 X122.307 Y168.644 E34.35746
G1 X122.313 Y168.64 E34.35812
G1 X122.373 Y168.595 E34.36497
G1 X122.638 Y168.357 E34.39751
G1 X122.744 Y168.208 E34.41421
G1 X122.749 Y168.181 E34.41672
G1 X123.666 Y167.427 E34.52515
G1 X123.944 Y167.232 E34.55617
G1 X124.067 Y167.097 E34.57285
G1 X124.077 Y167.064 E34.576
G0 F6000 X124.617 Y167.753
G1 F1800 X124.755 Y167.684 E34.5901
G1 X125.45 Y167.275 E34.66375
G1 X125.691 Y167.09 E34.6915
G1 X125.697 Y167.088 E34.69208
G1 X125.823 Y167.049 E34.70413
G1 X126.462 Y166.812 E34.76638
G1 X126.744 Y166.665 E34.79543
G1 X126.77 Y166.641 E34.79866
G1 X128.036 Y166.333 E34.91767
G1 X128.058 Y166.331 E34.91969
G1 X128.059 Y166.337 E34.92025
G1 X128.586 Y166.278 E34.96868
G1 X128.632 Y166.272 E34.97292
G1 X129.035 Y166.212 E35.01014
G1 X130.525 Y166.137 E35.14641
G1 X132.448 Y166.184 E35.32211
G1 X133.073 Y166.252 E35.37953
G1 X133.828 Y166.371 E35.44934
G1 X134.648 Y166.574 E35.5265
G1 X134.779 Y166.659 E35.54077
G1 X134.991 Y166.737 E35.5614
G1 X135.706 Y166.932 E35.6291
G1 X135.842 Y166.961 E35.6418
G1 X135.852 Y166.963 E35.64273
G1 X136.114 Y167.142 E35.67171
G1 X136.777 Y167.432 E35.73781
G1 X136.875 Y167.458 E35.74707
G1 X137.171 Y167.7 E35.78199
G1 X137.845 Y168.072 E35.85231
G1 X137.987 Y168.139 E35.86665
G1 X138.642 Y168.401 E35.93109
G1 X138.95 Y168.481 E35.96016
G1 X139.048 Y168.488 E35.96913
G1 X139.452 Y168.621 E36.00798
G1 X140.162 Y168.721 E36.07347
G1 X140.342 Y168.733 E36.08995
G1 X145.054 Y168.721 E36.52035
G1 X145.052 Y173.209 E36.93029
G1 X145.058 Y173.334 E36.94172
G1 X145.124 Y174.005 E37.0033
G1 X145.197 Y174.322 E37.03302
G1 X145.585 Y175.369 E37.135
G1 X145.755 Y175.682 E37.16754
G1 X146.107 Y176.157 E37.22154
G1 X146.108 Y176.389 E37.24273
G1 X146.129 Y176.612 E37.26319
G1 X146.272 Y177.384 E37.33491
G1 X146.301 Y177.504 E37.34618
G1 X146.464 Y178.069 E37.39989
G1 X146.511 Y178.203 E37.41286
G1 X146.712 Y178.688 E37.46082
G1 X146.771 Y178.812 E37.47336
G1 X147.071 Y179.36 E37.53043
G1 X147.189 Y179.538 E37.54993
G1 X147.573 Y180.023 E37.60644
G1 X147.413 Y180.025 E37.62105
G1 X146.625 Y180.009 E37.69304
G1 X146.576 Y180.009 E37.69752
G1 X144.691 Y180.044 E37.86973
G1 X140.544 Y180.045 E38.24852
G1 X140.418 Y180.051 E38.26004
G1 X139.725 Y180.12 E38.32365
G1 X139.599 Y180.139 E38.33529
G1 X139.185 Y180.223 E38.37387
G1 X139.058 Y180.256 E38.38586
G1 X138.32 Y180.487 E38.45649
G1 X138.099 Y180.58 E38.4784
G1 X137.494 Y180.905 E38.54113
G1 X137.378 Y180.976 E38.55355
G1 X136.899 Y181.304 E38.60657
G1 X136.797 Y181.381 E38.61825
G1 X136.277 Y181.82 E38.68041
G1 X136.201 Y181.889 E38.68978
G1 X136.059 Y182.03 E38.70806
G1 X135.987 Y182.041 E38.71472
G1 X135.825 Y182.1 E38.73046
G1 X135.088 Y182.425 E38.80404
G1 X135.021 Y182.462 E38.81103
G1 X134.804 Y182.489 E38.831
G1 X134.137 Y182.683 E38.89445
G1 X133.954 Y182.752 E38.91231
G1 X133.699 Y182.871 E38.93802
G1 X133.65 Y182.863 E38.94255
G1 X133.444 Y182.871 E38.96138
G1 X132.713 Y182.96 E39.02865
G1 X132.503 Y183.004 E39.04824
G1 X132.178 Y183.101 E39.07922
G1 X131.981 Y183.06 E39.0976
G1 X131.274 Y183.029 E39.16224
G1 X131.127 Y183.031 E39.17567
G1 X130.361 Y183.086 E39.24582
G1 X130.049 Y183.149 E39.27489
G1 X130.019 Y183.163 E39.27792
G1 X129.376 Y183.095 E39.33698
G1 X129.331 Y183.091 E39.3411
G1 X128.546 Y183.036 E39.41298
G1 X128.3 Y183.05 E39.43549
G1 X126.692 Y182.406 E39.5937
G1 X126.385 Y182.326 E39.62268
G1 X126.331 Y182.326 E39.62761
G1 X126.262 Y182.285 E39.63494
G1 X125.954 Y182.156 E39.66545
G1 X125.742 Y182.097 E39.68555
G1 X125.571 Y181.961 E39.7055
G1 X125.347 Y181.818 E39.72978
G1 X124.715 Y181.503 E39.79428
G1 X124.496 Y181.426 E39.81548
G1 X124.444 Y181.372 E39.82233
G1 X124.351 Y181.314 E39.83234
G1 X124.129 Y181.079 E39.86187
G1 X123.875 Y180.874 E39.89168
G1 X123.609 Y180.709 E39.92027
G1 X123.559 Y180.649 E39.92741
G1 X123.288 Y180.396 E39.96127
G1 X123.136 Y180.286 E39.97841
G1 X122.401 Y179.533 E40.07452
G1 X122.165 Y179.345 E40.10208
G1 X122 Y178.826 E40.15183
G1 X121.935 Y178.662 E40.16794
G1 X121.604 Y177.971 E40.23792
G1 X121.497 Y177.806 E40.25589
G1 X121.486 Y177.746 E40.26146
G1 X121.268 Y176.959 E40.33605
G1 X121.145 Y176.665 E40.36516
G1 X121.088 Y175.931 E40.43241
G1 X121.05 Y175.705 E40.45334
G1 X120.86 Y174.987 E40.52118
G1 X120.816 Y174.879 E40.53183
G1 X120.82 Y174.812 E40.53796
G1 X120.814 Y174.651 E40.55268
G1 X120.791 Y174.509 E40.56582
G1 X120.853 Y174.322 E40.58381
G1 X120.981 Y173.402 E40.66866
G1 X120.983 Y173.24 E40.68345
G1 X121.014 Y173.175 E40.69003
G1 X121.187 Y172.59 E40.74575
G1 X121.224 Y172.362 E40.76685
G1 X121.265 Y172.28 E40.77523
G1 X121.435 Y171.812 E40.82071
