;FLAVOR:Marlin
;TIME:1921
;Filament used: 4.15682m
;Layer height: 0.26
;MINX:113.806
;MINY:138.496
;MINZ:0.26
;MAXX:216.528
;MAXY:191.832
;MAXZ:17.94
;Generated with Cura_SteamEngine 5.4.0
M140 S60


; Pre-Processed for Cancel-Object support by preprocess_cancellation v0.2.0
; 1 known objects
EXCLUDE_OBJECT_DEFINE NAME=MPCNC_Gantry_30x30_profile_clamp_stl CENTER=159.540,155.374 POLYGON=[[113.806,138.496],[113.806,191.832],[216.528,191.832],[216.528,138.496]]
M105
M190 S60
M104 S210
M105
M109 S210
M82 ;absolute extrusion mode
START_GCODE
G92 E0
G92 E0
G1 F1500 E-1
;LAYER_COUNT:69
;LAYER:0
M107
G0 F6000 X115.183 Y139.369 Z0.26
;TYPE:SKIRT
G1 F1500 E0
G1 F1800 X115.613 Y139.071 E0.04779
G1 X116.21 Y138.787 E0.10817
G1 X116.706 Y138.621 E0.15595
G1 X117.479 Y138.517 E0.22719
G1 X118.483 Y138.498 E0.31891
G1 X131.087 Y138.496 E1.47017
G1 X131.799 Y138.506 E1.53521
G1 X132.405 Y138.562 E1.5908
G1 X135.55 Y139.384 E1.88772
G1 X138.222 Y139.998 E2.13814
G1 X140.891 Y140.533 E2.38678
G1 X143.581 Y140.994 E2.63606
G1 X146.292 Y141.38 E2.88619
G1 X148.982 Y141.685 E3.13347
G1 X151.717 Y141.918 E3.38419
G1 X154.447 Y142.071 E3.63394
G1 X157.199 Y142.149 E3.88541
G1 X159.221 Y142.158 E4.0701
G1 X159.991 Y142.226 E4.14071
G1 X160.824 Y142.436 E4.21918
G1 X161.887 Y142.932 E4.32632
G1 X162.901 Y143.422 E4.42919
G1 X165.414 Y144.551 E4.68083
G1 X167.957 Y145.606 E4.9323
G1 X170.47 Y146.568 E5.17809
G1 X173.061 Y147.476 E5.42886
G1 X175.676 Y148.311 E5.6796
G1 X178.263 Y149.056 E5.9255
G1 X180.93 Y149.743 E6.17706
G1 X183.616 Y150.354 E6.42867
G1 X186.281 Y150.883 E6.67684
G1 X188.966 Y151.337 E6.92557
G1 X191.668 Y151.715 E7.17477
G1 X194.401 Y152.019 E7.42595
G1 X197.094 Y152.242 E7.67277
G1 X199.861 Y152.392 E7.92588
G1 X201.818 Y152.451 E8.10472
G1 X205.762 Y152.457 E8.46496
G1 X208.882 Y152.4 E8.74999
G1 X210.675 Y152.398 E8.91377
G1 X212.036 Y152.42 E9.0381
G1 X212.803 Y152.445 E9.10819
G1 X213.322 Y152.502 E9.15589
G1 X213.827 Y152.637 E9.20363
G1 X214.429 Y152.909 E9.26397
G1 X214.876 Y153.181 E9.31177
G1 X215.276 Y153.517 E9.35948
G1 X215.62 Y153.911 E9.40726
G1 X216.029 Y154.566 E9.47779
G1 X216.321 Y155.253 E9.54597
G1 X216.449 Y155.76 E9.59374
G1 X216.499 Y156.287 E9.64209
G1 X216.517 Y157.435 E9.74696
G1 X216.523 Y159.033 E9.89293
G1 X216.489 Y163.006 E10.25583
G1 X216.497 Y165.366 E10.4714
G1 X216.528 Y167.739 E10.68817
G1 X216.49 Y171.557 E11.03693
G1 X216.498 Y173.954 E11.25587
G1 X216.528 Y176.27 E11.46743
G1 X216.512 Y177.7 E11.59806
G1 X216.502 Y181.337 E11.93027
G1 X216.528 Y183.553 E12.13269
G1 X216.489 Y185.874 E12.34472
G1 X216.495 Y185.95 E12.35169
G1 X216.471 Y186.818 E12.431
G1 X216.46 Y188.228 E12.55979
G1 X216.416 Y188.749 E12.60755
G1 X216.293 Y189.257 E12.65529
G1 X216.094 Y189.74 E12.70301
G1 X215.823 Y190.188 E12.75083
G1 X215.488 Y190.589 E12.79856
G1 X214.868 Y191.113 E12.87271
G1 X214.253 Y191.471 E12.93771
G1 X213.767 Y191.663 E12.98544
G1 X213.13 Y191.807 E13.04509
G1 X211.97 Y191.832 E13.15107
G1 X211.067 Y191.831 E13.23355
G1 X208.821 Y191.805 E13.43872
G1 X208.144 Y191.788 E13.50057
G1 X207.313 Y191.681 E13.5771
G1 X206.64 Y191.468 E13.64158
G1 X206.171 Y191.237 E13.68933
G1 X205.686 Y190.896 E13.74349
G1 X204.947 Y190.183 E13.83728
G1 X202.969 Y188.318 E14.0856
G1 X200.895 Y186.469 E14.33939
G1 X198.836 Y184.738 E14.5851
G1 X196.675 Y183.023 E14.83709
G1 X194.505 Y181.398 E15.08471
G1 X192.272 Y179.823 E15.33431
G1 X189.986 Y178.305 E15.58496
G1 X187.679 Y176.864 E15.83341
G1 X185.303 Y175.474 E16.08484
G1 X182.932 Y174.173 E16.33187
G1 X180.49 Y172.925 E16.58237
G1 X178.027 Y171.751 E16.83159
G1 X175.53 Y170.646 E17.081
G1 X172.96 Y169.596 E17.33458
G1 X170.416 Y168.639 E17.58285
G1 X167.882 Y167.766 E17.82766
G1 X165.261 Y166.946 E18.07851
G1 X162.601 Y166.196 E18.33095
G1 X159.981 Y165.535 E18.57776
G1 X157.295 Y164.939 E18.82907
G1 X154.6 Y164.421 E19.07974
G1 X151.917 Y163.983 E19.32805
G1 X149.234 Y163.622 E19.57532
G1 X146.512 Y163.335 E19.82533
G1 X143.44 Y163.098 E20.10676
G1 X142.735 Y162.968 E20.17224
G1 X139.802 Y162.363 E20.44578
G1 X139.154 Y162.22 E20.5064
G1 X138.222 Y161.943 E20.59521
G1 X135.573 Y160.736 E20.8611
G1 X134.826 Y160.383 E20.93657
G1 X133.652 Y159.642 E21.06338
G1 X132.882 Y159.125 E21.14809
G1 X130.99 Y157.735 E21.36253
G1 X128.728 Y156.154 E21.61461
G1 X126.47 Y154.669 E21.86146
G1 X124.11 Y153.212 E22.1148
G1 X121.776 Y151.86 E22.36117
G1 X119.345 Y150.542 E22.61376
G1 X116.909 Y149.309 E22.86314
G1 X115.758 Y148.756 E22.97978
G1 X115.305 Y148.494 E23.02758
G1 X114.898 Y148.167 E23.07527
G1 X114.545 Y147.781 E23.12304
G1 X114.255 Y147.346 E23.1708
G1 X114.035 Y146.871 E23.21861
G1 X113.89 Y146.369 E23.26634
G1 X113.809 Y145.688 E23.32898
G1 X113.806 Y142.83 E23.59003
G1 X113.816 Y142.133 E23.6537
G1 X113.864 Y141.612 E23.70149
G1 X113.99 Y141.105 E23.74921
G1 X114.192 Y140.623 E23.79695
G1 X114.484 Y140.143 E23.84827
G1 X114.804 Y139.729 E23.89606
G1 X115.183 Y139.369 E23.94381
G1 F1500 E22.94381
;MESH:MPCNC Gantry 30x30 profile clamp..stl
EXCLUDE_OBJECT_START NAME=MPCNC_Gantry_30x30_profile_clamp_stl
G0 F6000 X117.867 Y142.559
G0 X130.564 Y143.544
G0 X135.394 Y152.911
G0 X144.532 Y156.712
G0 X144.834 Y158.487
G0 X144.892 Y158.487
;TYPE:WALL-INNER
G1 F1500 E23.94381
G1 F1800 X144.892 Y156.359 E24.13818
G1 X144.446 Y156.344 E24.17894
G1 X143.047 Y156.186 E24.30754
G1 X141.631 Y155.881 E24.43984
G1 X140.139 Y155.389 E24.58334
G1 X139.143 Y154.967 E24.68215
G1 X138.067 Y154.393 E24.79354
G1 X136.79 Y153.557 E24.93295
G1 X135.613 Y152.596 E25.07174
G1 X134.613 Y151.602 E25.20053
G1 X133.612 Y150.376 E25.3451
G1 X132.768 Y149.077 E25.4866
G1 X132.084 Y147.756 E25.62247
G1 X131.391 Y145.849 E25.80781
G1 X131.057 Y144.513 E25.93359
G1 X130.878 Y143.185 E26.05599
G1 X128.51 Y143.184 E26.27229
G1 F1618.1 X127.834 Y143.281 E26.34168
G1 F1469.6 X118.591 Y143.281 E27.37577
G1 X118.592 Y144.317 E27.49168
G1 X127.834 Y144.317 E28.52566
G1 F1618.1 X128.275 Y144.491 E28.57383
G1 F1800 X128.641 Y144.702 E28.61242
G1 X128.893 Y144.983 E28.6469
G1 X129.017 Y145.225 E28.67174
G1 X129.55 Y147.061 E28.84636
G1 X130.196 Y148.719 E29.00889
G1 X131.058 Y150.362 E29.17837
G1 X132.469 Y152.372 E29.40268
G1 X134.211 Y154.197 E29.63313
G1 X135.523 Y155.259 E29.78731
G1 X137.015 Y156.241 E29.95046
G1 X140.049 Y157.627 E30.25513
G1 X144.044 Y158.449 E30.62768
G1 X144.892 Y158.487 E30.70522
G1 F1500 E29.70522
G0 F6000 X144.834 Y158.487
G0 X145.52 Y155.747
G0 X146.812 Y155.744
G0 X151.191 Y155.756
G0 X151.191 Y154.462
G0 X153.694 Y153.812
G0 X153.665 Y153.823
G1 F1500 E30.70522
G1 F1800 X165.718 Y153.823 E31.80614
G1 X166.418 Y152.873 E31.91393
G1 X159.222 Y146.842 E32.77154
G1 X159.127 Y146.932 E32.78349
G1 X158.672 Y147.976 E32.88751
G1 X158.016 Y149.212 E33.01533
G1 X157.111 Y150.561 E33.1637
G1 X156.381 Y151.465 E33.26984
G1 X155.054 Y152.772 E33.43997
G1 X154.172 Y153.495 E33.54414
G1 X153.665 Y153.823 E33.59929
G0 F6000 X153.694 Y153.812
G0 X151.269 Y154.445
G0 X150.245 Y154.668
;TYPE:WALL-OUTER
G1 F1800 X166.145 Y154.668 E35.05161
G1 X167.569 Y152.735 E35.27091
G1 X159.785 Y146.21 E36.19866
G1 X159.48 Y146.045 E36.23034
G1 X159.212 Y145.999 E36.25517
G1 X158.912 Y146.051 E36.28298
G1 X158.635 Y146.213 E36.31229
G1 X158.404 Y146.471 E36.34393
G1 X157.94 Y147.549 E36.45112
G1 X157.247 Y148.853 E36.58601
G1 X156.454 Y150.03 E36.71564
G1 X155.738 Y150.912 E36.81941
G1 X154.518 Y152.118 E36.9761
G1 X153.652 Y152.825 E37.07821
G1 X152.172 Y153.78 E37.2391
G1 X150.245 Y154.668 E37.4329
G0 F6000 X150.545 Y154.668
G1 F1500 E36.4329
G0 F6000 X151.269 Y154.445
G0 X145.52 Y155.747
G0 X144.865 Y158.459
G0 X145.737 Y159.37
G1 F1500 E37.4329
G1 F1800 X145.737 Y155.535 E37.78319
G1 X144.538 Y155.504 E37.89275
G1 X143.225 Y155.359 E38.01341
G1 X141.826 Y155.056 E38.14415
G1 X140.501 Y154.623 E38.27148
G1 X139.471 Y154.187 E38.37364
G1 X138.527 Y153.684 E38.47134
G1 X137.322 Y152.9 E38.60265
G1 X136.24 Y152.024 E38.72981
G1 X135.224 Y151.019 E38.86035
G1 X134.296 Y149.879 E38.99462
G1 X133.54 Y148.725 E39.12063
G1 X132.867 Y147.43 E39.25393
G1 X132.199 Y145.601 E39.43179
G1 X131.884 Y144.328 E39.55157
G1 X131.689 Y142.876 E39.68539
G1 X131.634 Y142.34 E39.73461
G1 X117.65 Y142.341 E41.01191
G1 X117.652 Y145.257 E41.27826
G1 X127.834 Y145.258 E42.20829
G1 X128.103 Y145.354 E42.23438
G1 X128.216 Y145.481 E42.24991
G1 X128.749 Y147.331 E42.42576
G1 X129.426 Y149.069 E42.59613
G1 X130.335 Y150.802 E42.77488
G1 X131.815 Y152.909 E43.01007
G1 X133.637 Y154.82 E43.25124
G1 X135.024 Y155.942 E43.41419
G1 X136.605 Y156.982 E43.58704
G1 X139.62 Y158.36 E43.88984
G1 X139.941 Y158.467 E43.92074
G1 X143.94 Y159.29 E44.29367
G1 X145.737 Y159.37 E44.45797
G0 F6000 X145.737 Y159.07
G1 F1500 E43.45797
G0 F6000 X144.865 Y158.459
G0 X144.532 Y156.712
G0 X140.181 Y155.403
G0 X139.135 Y154.961
G0 X138.108 Y154.415
G0 X136.843 Y153.595
G0 X135.665 Y152.642
G0 X134.589 Y151.574
G0 X133.631 Y150.399
G0 X131.295 Y146.677
G0 X130.564 Y143.544
G0 X128.5 Y143.533
G0 X127.773 Y143.748
G0 X128.649 Y144.379
G0 X128.891 Y143.959
;TYPE:SKIN
G1 F1500 E44.45797
G1 F1972.8 X130.2 Y143.959 E44.56707
G1 F2038.9 X130.26 Y144.406 E44.60343
G1 F2185.3 X130.58 Y145.597 E44.69622
G1 F1609.5 X130.448 Y146.189 E44.75817
G1 F1192.9 X130.43 Y146.303 E44.77408
G1 F1214.9 X130.312 Y146.184 E44.79676
G1 F1649.7 X129.932 Y145.77 E44.85277
G1 F2233.5 X129.709 Y144.974 E44.91362
G1 F2080.7 X129.543 Y144.559 E44.94894
G1 F1972.8 X129.175 Y144.144 E44.99517
G1 X128.891 Y143.959 E45.02341
G0 F6000 X128.649 Y144.379
G0 X127.765 Y143.837
G0 X128.5 Y143.533
G0 X130.564 Y143.544
G0 X131.148 Y146.041
G0 X130.43 Y146.303
G1 F1130 X130.563 Y146.71 E45.08571
G1 F1122.5 X131.136 Y148.23 E45.32364
G1 F1130 X131.925 Y149.744 E45.57204
G1 F1150.5 X132.774 Y150.998 E45.78845
G1 F1141.9 X133.301 Y151.691 E45.9138
G1 F1141 X133.861 Y152.324 E46.03558
G1 F1147.9 X134.938 Y153.419 E46.25556
G1 F1131.7 X136.139 Y154.393 E46.48021
G1 F1132.5 X137.529 Y155.307 E46.72171
G1 F1165.5 X138.725 Y155.901 E46.91009
G1 F1188.3 X139.729 Y156.341 E47.06176
G1 F1143.6 X140.377 Y156.597 E47.16193
G1 F1163.7 X141.393 Y156.868 E47.31049
G1 F1224.6 X142.923 Y157.189 E47.52037
G1 F1188.3 X143.841 Y157.334 E47.64896
G1 F1500 E46.64896
G0 F6000 X143.686 Y158.079
G0 X144.53 Y158.109
G0 X145.52 Y155.747
G0 X146.812 Y155.744
G0 X151.191 Y155.756
G0 X151.191 Y154.462
G0 X165.539 Y153.469
G0 X165.306 Y153.007
G1 F1500 E47.64896
G1 F1800 X155.975 Y153.012 E48.50126
G1 X156.961 Y152.036 E48.62798
G1 X157.74 Y151.075 E48.74098
G1 X158.674 Y149.7 E48.8928
G1 X159.502 Y148.137 E49.05437
G1 X165.306 Y153.007 E49.74641
G0 F6000 X165.729 Y153.32
G0 X163.344 Y153.534
G0 X163.344 Y152.589
G1 F1800 X159.602 Y148.847 E50.22978
G0 F6000 X159.19 Y149.63
G1 F1800 X162.149 Y152.589 E50.61201
G0 F6000 X162.149 Y153.534
G0 X160.954 Y153.534
G0 X160.954 Y152.589
G1 F1800 X158.727 Y150.362 E50.89968
G0 F6000 X158.245 Y151.075
G1 F1800 X159.759 Y152.589 E51.09525
G0 F6000 X159.759 Y153.534
G0 X158.564 Y153.534
G0 X158.564 Y152.589
G1 F1800 X157.729 Y151.754 E51.20312
G0 F6000 X157.187 Y152.406
G1 F1800 X157.369 Y152.589 E51.22669
G1 F1500 E50.22669
G0 F6000 X157.369 Y153.534
G0 X165.381 Y154.446
G0 X166.853 Y155.682
G0 X165.381 Y158.494
G0 X165.339 Y158.457
;TYPE:WALL-INNER
G1 F1500 E51.22669
G1 F1800 X172.122 Y158.454 E51.84625
G1 F1690 X172.668 Y158.399 E51.89964
G1 F1503 X173.214 Y158.343 E51.95968
G1 F1413.6 X176.309 Y158.332 E52.31967
G1 F1390.3 X179.404 Y158.321 E52.68567
G1 F1379 X179.403 Y157.217 E52.8173
G1 F1380.2 X177.366 Y157.223 E53.05995
G1 F1401.8 X173.214 Y157.276 E53.54695
G1 F1591 X172.543 Y156.974 E53.62299
G1 F1800 X171.391 Y156.26 E53.74679
G1 X169.201 Y154.855 E53.98445
G1 X168.635 Y154.527 E54.04421
G1 X165.339 Y158.457 E54.51271
G0 F6000 X165.381 Y158.494
G0 X163.785 Y159.078
G0 X162.854 Y159.306
;TYPE:WALL-OUTER
G1 F1800 X179.623 Y159.295 E56.0444
G1 F1640.8 X180.211 Y159.212 E56.1039
G1 F1391.6 X180.799 Y159.129 E56.17406
G1 F1505.9 X180.377 Y158.541 E56.25308
G1 F1800 X180.377 Y156.541 E56.43576
G1 F1930.2 X180.735 Y156.18 E56.47907
G1 X180.076 Y156.24 E56.53543
G1 F1800 X177.35 Y156.249 E56.78443
G1 X173.213 Y156.319 E57.16236
G1 X172.989 Y156.256 E57.18362
G1 X171.847 Y155.548 E57.30635
G1 X169.641 Y154.134 E57.54568
G1 X168.444 Y153.441 E57.67202
G1 X164.422 Y158.236 E58.24367
G1 X163.93 Y158.724 E58.30697
G1 X163.092 Y159.226 E58.3962
G1 X162.854 Y159.306 E58.41913
G0 F6000 X163.154 Y159.306
G0 X163.785 Y159.078
G0 X161.932 Y159.428
G1 F2755.4 X160.494 Y159.477 E58.50498
G1 F1500 E57.50498
G0 F6000 X163.708 Y159.099
G0 X179.504 Y158.427
G0 X180.799 Y159.129
G1 F1500 E58.50498
G1 F1295.6 X187.152 Y159.127 E59.31121
G1 F1289 X189.809 Y159.136 E59.65011
G1 F1280.3 X198.163 Y159.136 E60.72291
G1 F1268.6 X201.717 Y159.146 E61.18354
G1 F1244.7 X205.271 Y159.157 E61.653
G1 F1240.6 X207.777 Y159.151 E61.9851
G1 F1500 E60.9851
G0 F6000 X208.467 Y159.236
G0 X212.087 Y159.18
G0 X211.442 Y156.187
G1 F1500 E61.9851
G1 F2109.6 X209.766 Y156.174 E62.11573
G1 F2121.3 X207.96 Y156.19 E62.25571
G1 F2220.4 X206.154 Y156.206 E62.38944
G1 F2332.8 X204.348 Y156.222 E62.51673
G1 F2391.5 X202.394 Y156.223 E62.65106
G1 F2325.7 X201.98 Y156.204 E62.68036
G1 F2246.7 X196.745 Y156.199 E63.06346
G1 F2207.5 X191.51 Y156.194 E63.45335
G1 F2172.9 X186.275 Y156.188 E63.84947
G1 F2112.5 X183.844 Y156.174 E64.03867
G1 F2075 X180.735 Y156.18 E64.28501
G1 F1500 E63.28501
G0 F6000 X179.504 Y157.115
G0 X180.154 Y156.54
G0 X181.452 Y157.194
G0 X210.789 Y157.194
G0 X211.442 Y156.187
G1 F1500 E64.28501
G1 F1988.2 X211.853 Y156.541 E64.32987
G1 F1837 X211.858 Y158.338 E64.49071
G1 F1854.9 X211.845 Y164.212 E65.01137
G1 F1857.1 X211.858 Y168.325 E65.3755
G1 X211.845 Y172.74 E65.76636
G1 X211.858 Y176.858 E66.13093
G1 X211.845 Y179.876 E66.39811
G1 X211.858 Y183.986 E66.76197
G1 F1839.2 X211.831 Y187.431 E67.06995
G1 F1560 X211.569 Y187.85 E67.12203
G1 F1568 X212.202 Y188.003 E67.19031
G1 F1891.8 X212.603 Y187.996 E67.22517
G1 F1930.2 X212.612 Y187.024 E67.30797
G1 F1910.8 X212.66 Y185.827 E67.41105
G1 F1850.4 X212.69 Y183.986 E67.57465
G1 F1828.1 X212.69 Y182.996 E67.66368
G1 F1857.1 X212.653 Y179.859 E67.94142
G1 F1880.1 X212.661 Y178.716 E68.04138
G1 F1850.4 X212.69 Y176.858 E68.20649
G1 F1828.1 X212.69 Y175.868 E68.29553
G1 F1857.1 X212.653 Y172.723 E68.57397
G1 F1873.2 X212.669 Y170.526 E68.76682
G1 F1866.3 X212.66 Y170.021 E68.81131
G1 F1850.4 X212.69 Y168.325 E68.96203
G1 F1828.1 X212.69 Y167.337 E69.05089
G1 F1857.1 X212.653 Y164.195 E69.32907
G1 F1854.9 X212.691 Y158.331 E69.84886
G1 F1837 X212.676 Y156.442 E70.01793
G1 F1848.1 X212.582 Y156.264 E70.03584
G1 X212.142 Y156.257 E70.07499
G1 F1988.2 X211.442 Y156.187 E70.13316
G0 F6000 X211.669 Y156.382
G1 F1500 E69.13316
G0 F6000 X212.137 Y156.54
G0 X212.137 Y187.715
G0 X211.569 Y187.85
G1 F1500 E70.13316
G1 F1371.5 X209.442 Y187.845 E70.38814
G1 F1572.9 X209.036 Y187.418 E70.44973
G1 F1815 X209.026 Y183.137 E70.83752
G1 F1852.6 X209.037 Y182.667 E70.87925
G1 X209.026 Y175.997 E71.47119
G1 F1854.9 X209.038 Y175.553 E71.51056
G1 X209.026 Y167.476 E72.22649
G1 F1852.6 X209.037 Y167.003 E72.26848
G1 F1854.9 X209.027 Y159.747 E72.91164
G1 F1791.5 X209.008 Y158.975 E72.98251
G1 F1752.3 X208.574 Y158.975 E73.02323
G1 F1458.3 X207.777 Y159.151 E73.11525
G1 F1476.7 X208.193 Y159.602 E73.18356
G1 F1832.5 X208.216 Y161.49 E73.35296
G1 F1850.4 X208.203 Y164.782 E73.64547
G1 F1857.1 X208.226 Y167.058 E73.84698
G1 F1850.4 X208.194 Y167.455 E73.88237
G1 F1832.5 X208.198 Y171.161 E74.21487
G1 F1843.6 X208.209 Y171.662 E74.25956
G1 F1845.9 X208.203 Y173.314 E74.4067
G1 F1857.1 X208.227 Y175.599 E74.60901
G1 F1850.4 X208.194 Y175.974 E74.64246
G1 F1832.5 X208.198 Y178.995 E74.9135
G1 F1841.4 X208.207 Y179.496 E74.95824
G1 F1843.6 X208.203 Y180.437 E75.04216
G1 F1857.1 X208.226 Y182.722 E75.24446
G1 F1850.4 X208.194 Y183.116 E75.27958
G1 F1815 X208.206 Y187.942 E75.71674
G1 F1800 X208.625 Y187.957 E75.75504
G1 F1572.9 X209.442 Y187.845 E75.84124
G0 F6000 X209.236 Y187.628
G1 F1500 E74.84124
G0 F6000 X208.717 Y187.628
G0 X208.803 Y159.18
G0 X180.16 Y159.082
