;FLAVOR:Marlin
;TIME:3568
;Filament used: 8.73811m
;Layer height: 0.26
;MINX:113.5
;MINY:92.035
;MINZ:0.26
;MAXX:228.825
;MAXY:194.886
;MAXZ:17.94
;Generated with Cura_SteamEngine 5.4.0
M140 S60


; Pre-Processed for Cancel-Object support by preprocess_cancellation v0.2.0
; 2 known objects
EXCLUDE_OBJECT_DEFINE NAME=MPCNC_Gantry_30x30_profile_clamp_2_stl CENTER=170.686,174.347 POLYGON=[[116.697,141.803],[116.697,188.147],[213.273,188.147],[213.273,141.803]]
EXCLUDE_OBJECT_DEFINE NAME=MPCNC_Gantry_30x30_profile_clamp_3_stl CENTER=211.691,149.526 POLYGON=[[113.5,92.035],[113.5,194.886],[228.825,194.886],[228.825,92.035]]
M105
M190 S60
M104 S210
M105
M109 S210
M82 ;absolute extrusion mode
START_GCODE
G92 E0
G92 E0
G1 F1500 E-1
;LAYER_COUNT:69
;LAYER:0
M107
G0 F6000 X114.968 Y139.392 Z0.26
;TYPE:SKIRT
G1 F1500 E0
G1 F1800 X115.398 Y139.094 E0.04779
G1 X115.985 Y138.807 E0.10747
G1 X118.386 Y138.193 E0.33384
G1 X121.011 Y137.452 E0.58297
G1 X123.636 Y136.631 E0.8342
G1 X126.197 Y135.75 E1.08157
G1 X128.782 Y134.777 E1.33386
G1 X131.306 Y133.746 E1.5829
G1 X133.796 Y132.644 E1.83162
G1 X136.265 Y131.469 E2.08137
G1 X138.693 Y130.227 E2.33048
G1 X141.101 Y128.908 E2.58126
G1 X143.418 Y127.552 E2.82648
G1 X145.787 Y126.075 E3.08147
G1 X148.048 Y124.575 E3.32931
G1 X150.258 Y123.016 E3.57635
G1 X152.475 Y121.356 E3.82932
G1 X154.594 Y119.675 E4.07638
G1 X156.669 Y117.931 E4.32397
G1 X158.733 Y116.094 E4.57635
G1 X160.722 Y114.22 E4.82596
G1 X162.659 Y112.288 E5.07585
G1 X164.538 Y110.306 E5.32531
G1 X166.348 Y108.284 E5.57319
G1 X168.13 Y106.177 E5.82525
G1 X169.822 Y104.057 E6.073
G1 X171.463 Y101.879 E6.32209
G1 X173.048 Y99.645 E6.57228
G1 X174.555 Y97.388 E6.82017
G1 X176.041 Y95.02 E7.07553
G1 X176.706 Y93.91 E7.19372
G1 X177.008 Y93.484 E7.24141
G1 X177.371 Y93.108 E7.28915
G1 X177.788 Y92.792 E7.33694
G1 X178.318 Y92.504 E7.39204
G1 X178.802 Y92.306 E7.4398
G1 X179.31 Y92.184 E7.48752
G1 X179.815 Y92.131 E7.5339
G1 X181.764 Y92.109 E7.71194
G1 X189.755 Y92.065 E8.44185
G1 X191.925 Y92.082 E8.64007
G1 X193.001 Y92.103 E8.73837
G1 X196.97 Y92.109 E9.1009
G1 X211.048 Y92.035 E10.38681
G1 X211.823 Y92.05 E10.45761
G1 X212.343 Y92.1 E10.50533
G1 X212.85 Y92.23 E10.55314
G1 X213.331 Y92.434 E10.60086
G1 X213.775 Y92.71 E10.64861
G1 X214.172 Y93.05 E10.69636
G1 X214.512 Y93.447 E10.7441
G1 X214.79 Y93.879 E10.79102
G1 X215.026 Y94.346 E10.83882
G1 X215.188 Y94.843 E10.88656
G1 X215.284 Y95.531 E10.95001
G1 X215.312 Y96.31 E11.02122
G1 X215.373 Y99.597 E11.3215
G1 X215.375 Y100.382 E11.39321
G1 X215.356 Y101.161 E11.46438
G1 X215.307 Y102.427 E11.58011
G1 X215.278 Y104.827 E11.79934
G1 X215.278 Y105.818 E11.88986
G1 X215.317 Y108.606 E12.14454
G1 X215.434 Y111.344 E12.39486
G1 X215.625 Y114.048 E12.64246
G1 X215.895 Y116.77 E12.89231
G1 X216.238 Y119.45 E13.1391
G1 X216.671 Y122.207 E13.39401
G1 X217.165 Y124.862 E13.64068
G1 X217.735 Y127.51 E13.88809
G1 X218.389 Y130.181 E14.13927
G1 X219.112 Y132.81 E14.38832
G1 X219.909 Y135.412 E14.63689
G1 X220.791 Y138.027 E14.88896
G1 X221.734 Y140.582 E15.13773
G1 X222.751 Y143.115 E15.38705
G1 X223.856 Y145.655 E15.64006
G1 X224.778 Y147.639 E15.83989
G1 X224.962 Y148.129 E15.8877
G1 X225.083 Y148.71 E15.9419
G1 X225.129 Y149.729 E16.03507
G1 X225.175 Y152.983 E16.33233
G1 X225.297 Y155.72 E16.58257
G1 X225.497 Y158.451 E16.83269
G1 X225.771 Y161.147 E17.08022
G1 X226.121 Y163.835 E17.32781
G1 X226.555 Y166.57 E17.58075
G1 X227.058 Y169.241 E17.82901
G1 X227.642 Y171.926 E18.08
G1 X228.285 Y174.531 E18.32508
G1 X228.693 Y176.033 E18.46725
G1 X228.81 Y176.645 E18.52416
G1 X228.825 Y177.722 E18.62254
G1 X228.822 Y190.53 E19.79243
G1 X228.813 Y191.184 E19.85218
G1 X228.766 Y191.705 E19.89996
G1 X228.535 Y192.515 E19.97689
G1 X228.246 Y193.089 E20.03559
G1 X227.943 Y193.515 E20.08334
G1 X227.415 Y194.037 E20.15116
G1 X226.899 Y194.395 E20.20853
G1 X226.429 Y194.624 E20.25628
G1 X225.93 Y194.779 E20.30401
G1 X225.237 Y194.864 E20.36778
G1 X224.106 Y194.886 E20.47111
G1 X222.293 Y194.886 E20.63671
G1 X221.578 Y194.874 E20.70203
G1 X220.958 Y194.816 E20.7589
G1 X220.17 Y194.598 E20.83358
G1 X217.531 Y193.912 E21.08264
G1 X214.864 Y193.299 E21.3326
G1 X212.175 Y192.761 E21.58308
G1 X209.5 Y192.304 E21.83096
G1 X206.779 Y191.917 E22.082
G1 X204.095 Y191.613 E22.32872
G1 X201.357 Y191.381 E22.57971
G1 X198.221 Y191.209 E22.86659
G1 X197.545 Y191.103 E22.92909
G1 X194.439 Y190.293 E23.22228
G1 X191.788 Y189.685 E23.47071
G1 X189.113 Y189.149 E23.7199
G1 X186.419 Y188.689 E23.96954
G1 X183.702 Y188.304 E24.22019
G1 X181.008 Y187.999 E24.46783
G1 X178.286 Y187.77 E24.71734
G1 X175.542 Y187.616 E24.96837
G1 X172.8 Y187.54 E25.21892
G1 X171.979 Y187.537 E25.29392
G1 X170.461 Y187.496 E25.43262
G1 X169.941 Y187.442 E25.48037
G1 X169.354 Y187.288 E25.53581
G1 X168.653 Y186.973 E25.606
G1 X167.072 Y186.232 E25.76549
G1 X164.575 Y185.146 E26.0142
G1 X162.006 Y184.116 E26.26701
G1 X159.484 Y183.185 E26.51257
G1 X156.891 Y182.312 E26.76248
G1 X154.258 Y181.506 E27.014
G1 X151.646 Y180.787 E27.26145
G1 X149.021 Y180.143 E27.50833
G1 X146.274 Y179.553 E27.76497
G1 X143.653 Y179.065 E28.00848
G1 X140.913 Y178.636 E28.26181
G1 X138.227 Y178.292 E28.50915
G1 X135.538 Y178.026 E28.75596
G1 X132.769 Y177.83 E29.00952
G1 X130.064 Y177.715 E29.25682
G1 X127.282 Y177.676 E29.51095
G1 X126.475 Y177.676 E29.58467
G1 X123.222 Y177.729 E29.88184
G1 X121.978 Y177.768 E29.99552
G1 X120.807 Y177.766 E30.10248
G1 X117.707 Y177.709 E30.38568
G1 X117.015 Y177.687 E30.44892
G1 X116.495 Y177.631 E30.4967
G1 X115.99 Y177.496 E30.54444
G1 X115.272 Y177.157 E30.61697
G1 X114.746 Y176.782 E30.67597
G1 X114.372 Y176.417 E30.72371
G1 X114.058 Y175.999 E30.77146
G1 X113.811 Y175.538 E30.81923
G1 X113.637 Y175.045 E30.86698
G1 X113.526 Y174.448 E30.92245
G1 X113.5 Y173.248 E31.03208
G1 X113.557 Y162.8 E31.98642
G1 X113.528 Y159.451 E32.29234
G1 X113.549 Y155.492 E32.65396
G1 X113.53 Y154.034 E32.78714
G1 X113.537 Y153.93 E32.79666
G1 X113.527 Y152.188 E32.95578
G1 X113.575 Y143.873 E33.71529
G1 X113.605 Y142.207 E33.86749
G1 X113.654 Y141.687 E33.9152
G1 X113.782 Y141.18 E33.96296
G1 X114.016 Y140.623 E34.01815
G1 X114.269 Y140.165 E34.06594
G1 X114.589 Y139.752 E34.11366
G1 X114.968 Y139.392 E34.16141
G1 F1500 E33.16141
;MESH:MPCNC Gantry 30x30 profile clamp. (2).stl
EXCLUDE_OBJECT_START NAME=MPCNC_Gantry_30x30_profile_clamp_2_stl
G0 F6000 X118.704 Y141.408
G0 X118.656 Y143.729
G0 X118.553 Y172.671
G0 X120.214 Y172.715
G0 X158.559 Y172.656
G0 X160.202 Y173.848
G0 X160.132 Y173.941
;TYPE:WALL-INNER
G1 F1500 E34.16141
G1 F1800 X160.132 Y174.012 E34.16789
G1 X162.7 Y175.886 E34.45827
G1 X163.02 Y176.237 E34.50165
G1 X170.878 Y182.828 E35.43846
G1 X170.98 Y182.834 E35.44779
G1 X171.061 Y182.731 E35.45976
G1 X171.623 Y181.453 E35.58728
G1 X172.206 Y180.4 E35.69722
G1 X173.058 Y179.149 E35.83547
G1 X173.76 Y178.271 E35.93815
G1 X175.07 Y176.975 E36.10647
G1 X176.269 Y176.028 E36.24603
G1 X178.198 Y174.871 E36.45149
G1 X179.539 Y174.288 E36.58505
G1 X181.111 Y173.794 E36.73556
G1 X182.602 Y173.495 E36.87446
G1 X183.982 Y173.36 E37.00111
G1 X185.651 Y173.372 E37.15357
G1 X186.992 Y173.515 E37.27675
G1 X188.591 Y173.858 E37.42612
G1 X189.994 Y174.316 E37.56093
G1 X191.431 Y174.967 E37.70503
G1 X192.703 Y175.703 E37.83926
G1 X194.449 Y177.037 E38.03996
G1 X195.546 Y178.119 E38.1807
G1 X196.528 Y179.32 E38.3224
G1 X197.33 Y180.535 E38.45538
G1 X198.07 Y181.952 E38.6014
G1 X198.797 Y183.95 E38.7956
G1 X199.064 Y185.048 E38.89882
G1 X199.213 Y185.896 E38.97746
G1 X199.288 Y186.535 E39.03623
G1 X201.648 Y186.535 E39.25179
G1 F1618.1 X202.323 Y186.439 E39.32107
G1 F1469.6 X211.567 Y186.439 E40.35527
G1 F1468.1 X211.566 Y185.404 E40.47118
G1 F1469.6 X202.323 Y185.403 E41.50528
G1 F1618.1 X201.882 Y185.229 E41.55345
G1 F1800 X201.517 Y185.019 E41.59191
G1 X201.265 Y184.738 E41.62639
G1 X201.118 Y184.449 E41.656
G1 X200.925 Y183.674 E41.72895
G1 X200.319 Y181.85 E41.90451
G1 X198.721 Y178.747 E42.22332
G1 X197.653 Y177.313 E42.38664
G1 X195.956 Y175.533 E42.61127
G1 X194.606 Y174.436 E42.77016
G1 X192.411 Y173.105 E43.00464
G1 X190.145 Y172.112 E43.23061
G1 X188.98 Y171.76 E43.34178
G1 X187.599 Y171.468 E43.47071
G1 X185.995 Y171.265 E43.61839
G1 X184.694 Y171.21 E43.73733
G1 X184.04 Y171.214 E43.79707
G1 X177.228 Y171.35 E44.4194
G1 X175.913 Y171.401 E44.53961
G1 X168.502 Y171.836 E45.2177
G1 X167.755 Y172.026 E45.2881
G1 X167.373 Y172.153 E45.32487
G1 X159.769 Y172.145 E46.01942
G1 F1762.5 X158.615 Y172.161 E46.12709
G1 F1707.1 X152.625 Y172.163 E46.704
G1 F1738.3 X151.463 Y172.136 E46.81394
G1 F1781 X133.565 Y172.119 E48.46617
G1 F1744.3 X133.246 Y172.08 E48.49646
G1 F1718.6 X121.786 Y172.079 E49.59277
G1 F1758.4 X121.043 Y171.819 E49.66638
G1 F1800 X120.8 Y171.588 E49.697
G1 X120.621 Y171.29 E49.72875
G1 X120.519 Y170.945 E49.76161
G1 X120.522 Y166.047 E50.209
G1 X120.558 Y165.438 E50.26472
G1 X120.556 Y159.127 E50.84118
G1 X120.522 Y158.675 E50.88258
G1 X120.52 Y157.595 E50.98123
G1 X120.556 Y156.963 E51.03905
G1 X120.556 Y151.818 E51.50899
G1 X120.547 Y151.267 E51.55933
G1 X120.52 Y150.696 E51.61154
G1 X120.558 Y149.746 E51.69839
G1 X120.553 Y143.38 E52.27986
G1 X118.271 Y143.332 E52.48835
G1 X118.214 Y152.736 E53.34733
G1 X118.252 Y153.079 E53.37885
G1 X118.214 Y159.656 E53.97961
G1 X118.261 Y160.208 E54.03021
G1 X118.19 Y173.027 E55.20113
G1 X120.304 Y173.066 E55.39425
G1 F1778.9 X120.537 Y172.988 E55.41696
G1 F1738.3 X121.786 Y172.965 E55.53512
G1 F1718.6 X133.15 Y172.966 E56.62225
G1 F1744.3 X133.565 Y172.979 E56.66138
G1 F1772.7 X151.579 Y172.985 E58.33211
G1 F1756.4 X151.926 Y173.024 E58.3648
G1 F1712.8 X152.612 Y173.064 E58.43076
G1 F1691.9 X153.133 Y173.058 E58.48139
G1 F1690 X153.409 Y173.066 E58.50825
G1 F1705.2 X158.63 Y173.041 E59.01167
G1 F1762.5 X159.383 Y173.309 E59.08623
G1 F1800 X159.857 Y173.661 E59.14016
G1 X160.132 Y173.941 E59.17601
G1 F1500 E58.17601
G0 F6000 X160.202 Y173.848
G0 X159.045 Y173.065
G0 X133.473 Y172.169
G0 X133.475 Y171.267
;TYPE:WALL-OUTER
G1 F1500 E59.17601
G1 F1800 X133.435 Y171.215 E59.182
G1 X121.786 Y171.214 E60.24603
G1 X121.538 Y171.134 E60.26983
G1 X121.457 Y171.057 E60.28004
G1 X121.369 Y170.862 E60.29958
G1 X121.366 Y166.095 E60.735
G1 X121.403 Y165.462 E60.79292
G1 X121.401 Y159.095 E61.37448
G1 X121.365 Y158.613 E61.41863
G1 X121.364 Y157.642 E61.50732
G1 X121.401 Y156.986 E61.56734
G1 X121.401 Y151.805 E62.04057
G1 X121.393 Y151.261 E62.09027
G1 X121.365 Y150.771 E62.1351
G1 X121.403 Y149.784 E62.22532
G1 X121.398 Y142.553 E62.8858
G1 X117.436 Y142.468 E63.24778
G1 X117.418 Y144.057 E63.39293
G1 X117.369 Y152.8 E64.19153
G1 X117.407 Y153.075 E64.21689
G1 X117.369 Y159.693 E64.82139
G1 X117.416 Y160.209 E64.86872
G1 X117.343 Y173.191 E66.05452
G1 X117.346 Y173.856 E66.11526
G1 X120.499 Y173.915 E66.40331
G1 X120.566 Y173.831 E66.41312
G1 X151.525 Y173.836 E69.24094
G1 X151.815 Y173.879 E69.26772
G1 X152.585 Y173.937 E69.33825
G1 X153.147 Y173.93 E69.38959
G1 X153.386 Y173.94 E69.41144
G1 X158.628 Y173.905 E69.89026
G1 X158.879 Y173.988 E69.9144
G1 X159.445 Y174.408 E69.97878
G1 X159.444 Y174.557 E69.99239
G1 X162.264 Y176.615 E70.31127
G1 X162.369 Y176.794 E70.33022
G1 X170.382 Y183.516 E71.28557
G1 X170.661 Y183.666 E71.3145
G1 X171.181 Y183.689 E71.36205
G1 X171.566 Y183.476 E71.40224
G1 X171.8 Y183.152 E71.43874
G1 X172.364 Y181.859 E71.56759
G1 X172.885 Y180.908 E71.66664
G1 X173.718 Y179.677 E71.8024
G1 X174.407 Y178.82 E71.90284
G1 X175.649 Y177.595 E72.06218
G1 X176.732 Y176.739 E72.18827
G1 X178.581 Y175.628 E72.38531
G1 X179.876 Y175.063 E72.51436
G1 X181.281 Y174.622 E72.64887
G1 X182.684 Y174.336 E72.77965
G1 X184.064 Y174.201 E72.90631
G1 X185.615 Y174.216 E73.04798
G1 X186.886 Y174.354 E73.16476
G1 X188.347 Y174.668 E73.30125
G1 X189.708 Y175.115 E73.4321
G1 X191.008 Y175.699 E73.56228
G1 X192.219 Y176.399 E73.69004
G1 X193.915 Y177.693 E73.88489
G1 X194.933 Y178.703 E74.01588
G1 X195.849 Y179.825 E74.14818
G1 X196.624 Y181 E74.27675
G1 X197.305 Y182.321 E74.4125
G1 X198.004 Y184.25 E74.5999
G1 X198.231 Y185.195 E74.68868
G1 X198.385 Y186.069 E74.76974
G1 X198.454 Y186.675 E74.82545
G1 X198.503 Y187.38 E74.89
G1 X212.508 Y187.38 E76.16922
G1 X212.507 Y184.463 E76.43567
G1 X202.323 Y184.463 E77.36588
G1 X202.054 Y184.366 E77.392
G1 X201.926 Y184.186 E77.41217
G1 X201.75 Y183.479 E77.47872
G1 X201.1 Y181.522 E77.66708
G1 X199.44 Y178.299 E77.99822
G1 X198.3 Y176.767 E78.17265
G1 X196.53 Y174.911 E78.40691
G1 X195.095 Y173.743 E78.57591
G1 X192.802 Y172.353 E78.82083
G1 X190.437 Y171.317 E79.05667
G1 X189.19 Y170.941 E79.17564
G1 X187.74 Y170.633 E79.31104
G1 X186.065 Y170.422 E79.46524
G1 X184.708 Y170.365 E79.5893
G1 X184.024 Y170.37 E79.65178
G1 X177.196 Y170.505 E80.27557
G1 X175.864 Y170.557 E80.39733
G1 X168.372 Y170.997 E81.08283
G1 X167.462 Y171.228 E81.16859
G1 X167.26 Y171.308 E81.18844
G1 X133.475 Y171.267 E84.27438
G0 F6000 X133.435 Y171.215
G0 X133.2 Y171.215
G1 F1500 E83.27438
G0 F6000 X133.198 Y172.168
G0 X120.214 Y172.715
G0 X118.553 Y172.671
G0 X118.564 Y152.707
G0 X118.629 Y143.701
G0 X120.192 Y143.735
G0 X120.522 Y171.8
G0 X120.259 Y172.209
;TYPE:SKIN
G1 F1500 E84.27438
G1 F1740.3 X120.155 Y172.236 E84.28453
G1 X119.02 Y172.215 E84.39178
G1 X119.022 Y171.784 E84.4325
G1 F1843.6 X118.976 Y171.117 E84.49212
G1 F1983.1 X118.997 Y166.02 E84.91472
G1 F1985.6 X119.008 Y165.388 E84.96705
G1 F1983.1 X119.029 Y160.172 E85.39951
G1 F1970.2 X118.994 Y159.627 E85.44509
G1 F1967.7 X118.99 Y158.699 E85.52263
G1 F1990.8 X119.022 Y153.038 E85.99015
G1 F1967.7 X118.994 Y152.683 E86.0199
G1 F1972.8 X118.993 Y150.683 E86.18659
G1 F1983.1 X119.008 Y149.72 E86.26644
G1 F1988.2 X119.032 Y144.116 E86.72985
G1 F2009.2 X119.786 Y144.133 E86.79157
G1 F1988.2 X119.782 Y149.722 E87.25374
G1 F1983.1 X119.751 Y150.687 E87.33379
G1 X119.772 Y151.289 E87.38373
G1 F1955 X119.776 Y152.665 E87.49945
G1 F1970.2 X119.786 Y153.081 E87.53417
G1 F1980.5 X119.78 Y156.917 E87.85263
G1 F1985.6 X119.753 Y157.549 E87.90501
G1 F1998.7 X119.753 Y158.73 E88.00216
G1 F1967.7 X119.775 Y159.125 E88.03521
G1 F1975.3 X119.789 Y160.208 E88.12536
G1 F1985.6 X119.782 Y165.39 E88.55444
G1 X119.755 Y166.001 E88.60508
G1 F1980.5 X119.746 Y171.054 E89.02457
G1 F1843.6 X119.861 Y171.615 E89.07564
G1 F1740.3 X120.12 Y172.056 E89.12395
G1 X120.259 Y172.209 E89.14348
G1 F1500 E88.14348
G0 F6000 X120.522 Y171.8
G0 X120.192 Y143.735
G0 X118.629 Y143.701
G0 X118.564 Y159.64
G0 X118.553 Y172.671
G0 X159.045 Y173.065
G0 X167.707 Y179.688
G0 X170.84 Y182.321
G0 X173.03 Y179.186
G0 X173.762 Y178.276
G0 X175.071 Y176.979
G0 X176.277 Y176.027
G0 X178.199 Y174.876
G0 X179.606 Y174.265
G0 X181.051 Y173.81
G0 X182.537 Y173.505
G0 X184.062 Y173.355
G0 X185.668 Y173.374
G0 X187.039 Y173.523
G0 X188.549 Y173.85
G0 X189.989 Y174.32
G0 X191.375 Y174.939
G0 X192.702 Y175.706
G0 X194.481 Y177.066
G0 X195.567 Y178.148
G0 X196.525 Y179.322
G0 X197.365 Y180.598
G0 X198.069 Y181.959
G0 X199.624 Y186.176
G0 X201.658 Y186.185
G0 X202.384 Y185.972
G0 X201.51 Y185.342
G0 X201.268 Y185.761
G1 F1500 E89.14348
G1 F2047.1 X199.997 Y185.761 E89.24556
G1 F2207.5 X199.484 Y183.723 E89.40208
G1 F2263.4 X199.005 Y182.382 E89.50552
G1 F2308 X198.727 Y181.688 E89.55878
G1 F2395.3 X197.983 Y180.243 E89.67034
G1 F2308 X197.526 Y179.505 E89.73217
G1 F2266.8 X197.11 Y178.894 E89.78579
G1 F2270.1 X196.57 Y178.22 E89.84834
G1 F2283.8 X196.053 Y177.613 E89.90574
G1 F2304.5 X194.945 Y176.503 E90.01763
G1 F2240.1 X193.774 Y175.595 E90.12639
G1 F2276.9 X193.085 Y175.099 E90.18769
G1 F2336.4 X191.678 Y174.283 E90.30215
G1 F2332.8 X190.34 Y173.687 E90.40538
G1 F2287.2 X189.659 Y173.442 E90.4574
G1 F2250 X188.814 Y173.168 E90.52231
G1 F2276.9 X187.197 Y172.811 E90.64189
G1 X185.705 Y172.649 E90.75025
G1 F2250 X184.082 Y172.625 E90.86886
G1 F2130.3 X182.408 Y172.748 E90.99841
G1 F1913.2 X180.867 Y173.016 E91.13283
G1 F1800 X179.334 Y173.495 E91.27953
G1 X177.798 Y174.167 E91.43267
G1 X175.828 Y175.346 E91.64237
G1 X174.549 Y176.352 E91.791
G1 X173.176 Y177.706 E91.96714
G1 X172.429 Y178.635 E92.07602
G1 X171.473 Y180.038 E92.2311
