;FLAVOR:Marlin
;TIME:2450
;Filament used: 5.28068m
;Layer height: 0.26
;MINX:136.229
;MINY:118.728
;MINZ:0.26
;MAXX:193.771
;MAXY:208.515
;MAXZ:15.86
;Generated with Cura_SteamEngine 5.4.0
M140 S60


; Pre-Processed for Cancel-Object support by preprocess_cancellation v0.2.0
; 1 known objects
EXCLUDE_OBJECT_DEFINE NAME=nema17_mount_xrear_stl CENTER=167.736,165.296 POLYGON=[[136.229,118.728],[136.229,207.59],[193.771,207.59],[193.771,118.728]]
M105
M190 S60
M104 S210
M105
M109 S210
M82 ;absolute extrusion mode
START_GCODE
G92 E0
G92 E0
G1 F1500 E-1
;LAYER_COUNT:61
;LAYER:0
M107
G0 F6000 X157.683 Y120.025 Z0.26
;TYPE:SKIRT
G1 F1500 E0
G1 F1800 X158.039 Y119.642 E0.04776
G1 X158.45 Y119.319 E0.09551
G1 X158.905 Y119.061 E0.14329
G1 X159.394 Y118.876 E0.19104
G1 X159.906 Y118.768 E0.23884
G1 X160.679 Y118.728 E0.30954
G1 X189.691 Y118.728 E2.95951
G1 X190.389 Y118.738 E3.02327
G1 X190.91 Y118.786 E3.07106
G1 X191.417 Y118.912 E3.11878
G1 X191.899 Y119.114 E3.16652
G1 X192.345 Y119.387 E3.21428
G1 X192.744 Y119.725 E3.26205
G1 X193.087 Y120.12 E3.30983
G1 X193.366 Y120.562 E3.35757
G1 X193.574 Y121.041 E3.40527
G1 X193.707 Y121.547 E3.45306
G1 X193.77 Y122.15 E3.50844
G1 X193.771 Y186.309 E9.36876
G1 X193.76 Y187.019 E9.43362
G1 X193.679 Y187.763 E9.50198
G1 X193.498 Y188.4 E9.56247
G1 X193.249 Y188.946 E9.61728
G1 X192.795 Y189.625 E9.69189
G1 X192.4 Y190.112 E9.74916
G1 X191.946 Y190.578 E9.80859
G1 X183.928 Y198.595 E10.84425
G1 X183.413 Y199.094 E10.90975
G1 X182.951 Y199.471 E10.96422
G1 X182.332 Y199.867 E11.03134
G1 X180.988 Y200.584 E11.17048
G1 X178.543 Y201.939 E11.42581
G1 X176.214 Y203.317 E11.67299
G1 X173.894 Y204.78 E11.92351
G1 X171.671 Y206.264 E12.16765
G1 X171.215 Y206.52 E12.21542
G1 X170.726 Y206.704 E12.26314
G1 X170.214 Y206.811 E12.31092
G1 X169.453 Y206.85 E12.38052
G1 X164.568 Y206.844 E12.82672
G1 X154.654 Y206.851 E13.73227
G1 X153.947 Y206.841 E13.79685
G1 X153.426 Y206.793 E13.84464
G1 X152.919 Y206.667 E13.89236
G1 X152.436 Y206.465 E13.94018
G1 X151.99 Y206.192 E13.98794
G1 X151.591 Y205.855 E14.03565
G1 X151.249 Y205.461 E14.0833
G1 X149.785 Y203.492 E14.30742
G1 X148.089 Y201.333 E14.55819
G1 X146.354 Y199.248 E14.80595
G1 X144.547 Y197.199 E15.05549
G1 X142.659 Y195.175 E15.30831
G1 X141.293 Y193.781 E15.48658
G1 X138.057 Y190.544 E15.90466
G1 X137.604 Y190.078 E15.96402
G1 X137.187 Y189.555 E16.02512
G1 X136.89 Y189.097 E16.07498
G1 X136.64 Y188.638 E16.12272
G1 X136.413 Y187.943 E16.1895
G1 X136.313 Y187.47 E16.23366
G1 X136.239 Y186.809 E16.29441
G1 X136.229 Y186.074 E16.36155
G1 X136.229 Y156.976 E19.01938
G1 X136.24 Y156.264 E19.08443
G1 X136.326 Y155.451 E19.1591
G1 X136.53 Y154.72 E19.22842
G1 X136.857 Y154.054 E19.29619
G1 X137.157 Y153.581 E19.34735
G1 X137.505 Y153.123 E19.39989
G1 X138.91 Y151.564 E19.59159
G1 X140.727 Y149.445 E19.84655
G1 X142.418 Y147.354 E20.09219
G1 X144.064 Y145.198 E20.33995
G1 X145.703 Y142.92 E20.59628
G1 X147.19 Y140.726 E20.83837
G1 X148.674 Y138.394 E21.09085
G1 X150.08 Y136.045 E21.34091
G1 X151.419 Y133.653 E21.5913
G1 X152.68 Y131.247 E21.83942
G1 X153.87 Y128.809 E22.08722
G1 X155.008 Y126.298 E22.33903
G1 X156.072 Y123.761 E22.59032
G1 X157.164 Y120.929 E22.86756
G1 X157.389 Y120.457 E22.91532
G1 X157.683 Y120.025 E22.96305
G1 F1500 E21.96305
;MESH:nema17-mount-xrear.stl
EXCLUDE_OBJECT_START NAME=nema17_mount_xrear_stl
G0 F6000 X160.988 Y122.789
G0 X174.872 Y123.866
G0 X172.236 Y127.441
G0 X173.467 Y129.649
G0 X172.756 Y133.885
G0 X173.467 Y134.649
G0 X173.183 Y137.295
G0 X173.587 Y138.415
G0 X174.414 Y139.11
G0 X176.556 Y139.633
G0 X176.503 Y139.65
;TYPE:WALL-INNER
G1 F1500 E22.96305
G1 F1800 X176.705 Y139.744 E22.9834
G1 X177.12 Y140.025 E23.02918
G1 X177.617 Y140.566 E23.09628
G1 X177.918 Y141.124 E23.15419
G1 X178.067 Y141.622 E23.20167
G1 X178.119 Y142.358 E23.26906
G1 X177.957 Y143.1 E23.33844
G1 X177.58 Y143.811 E23.41194
G1 X176.982 Y144.392 E23.4881
G1 X176.375 Y144.714 E23.55086
G1 X175.729 Y144.891 E23.61204
G1 X175.195 Y144.909 E23.66085
G1 X174.849 Y144.862 E23.69274
G1 X174.351 Y144.721 E23.74002
G1 X173.994 Y144.556 E23.77594
G1 X173.406 Y144.117 E23.84297
G1 X173.016 Y143.626 E23.90024
G1 X172.745 Y143.087 E23.95534
G1 X172.603 Y142.471 E24.01309
G1 X172.588 Y142.158 E24.04171
G1 X172.635 Y141.611 E24.09186
G1 X172.771 Y141.131 E24.13743
G1 X173.123 Y140.488 E24.20438
G1 X173.683 Y139.944 E24.27569
G1 X174.193 Y139.65 E24.32946
G1 X173.993 Y139.556 E24.34965
G1 X173.489 Y139.215 E24.40523
G1 X173.081 Y138.735 E24.46277
G1 X172.745 Y138.122 E24.52663
G1 X172.603 Y137.471 E24.58749
G1 X172.588 Y137.158 E24.61611
G1 X172.635 Y136.611 E24.66626
G1 X172.771 Y136.131 E24.71183
G1 X173.123 Y135.488 E24.77878
G1 X173.683 Y134.944 E24.85009
G1 X174.193 Y134.65 E24.90386
G1 X173.993 Y134.556 E24.92405
G1 X173.489 Y134.215 E24.97963
G1 X173.081 Y133.735 E25.03717
G1 X172.745 Y133.122 E25.10103
G1 X172.603 Y132.471 E25.16189
G1 X172.588 Y132.158 E25.19051
G1 X172.635 Y131.611 E25.24066
G1 X172.771 Y131.131 E25.28623
G1 X173.123 Y130.488 E25.35318
G1 X173.683 Y129.944 E25.42449
G1 X174.193 Y129.65 E25.47826
G1 X173.993 Y129.556 E25.49845
G1 X173.489 Y129.215 E25.55403
G1 X173.081 Y128.735 E25.61157
G1 X172.745 Y128.122 E25.67543
G1 X172.588 Y127.405 E25.74247
G1 X172.619 Y126.741 E25.80318
G1 X172.721 Y126.286 E25.84578
G1 X173.015 Y125.674 E25.90779
G1 X173.251 Y125.36 E25.94367
G1 X173.621 Y125 E25.99082
G1 X173.946 Y124.771 E26.02714
G1 F1756.4 X174.61 Y124.464 E26.09562
G1 F1677 X174.911 Y124.377 E26.12634
G1 F1656.9 X175.503 Y124.359 E26.18511
G1 F1644.3 X175.862 Y124.391 E26.22115
G1 F1658.7 X176.566 Y124.651 E26.29554
G1 F1726.4 X177.214 Y125.085 E26.36981
G1 F1774.8 X177.682 Y125.674 E26.4395
G1 F1800 X177.879 Y126.044 E26.47779
G1 X178.077 Y126.604 E26.53204
G1 X178.11 Y127.409 E26.60563
G1 X177.95 Y128.111 E26.6714
G1 X177.597 Y128.789 E26.74122
G1 X177.015 Y129.356 E26.81544
G1 X176.503 Y129.65 E26.86936
G1 X176.705 Y129.744 E26.88972
G1 X177.12 Y130.025 E26.93549
G1 X177.617 Y130.566 E27.0026
G1 X177.918 Y131.124 E27.06051
G1 X178.067 Y131.622 E27.10799
G1 X178.12 Y132.361 E27.17566
G1 X177.95 Y133.111 E27.2459
G1 X177.597 Y133.789 E27.31572
G1 X177.015 Y134.356 E27.38994
G1 X176.503 Y134.65 E27.44387
G1 X176.705 Y134.744 E27.46422
G1 X177.12 Y135.025 E27.51
G1 X177.617 Y135.566 E27.5771
G1 X177.918 Y136.124 E27.63501
G1 X178.067 Y136.622 E27.68249
G1 X178.12 Y137.361 E27.75017
G1 X177.95 Y138.111 E27.82041
G1 X177.597 Y138.789 E27.89023
G1 X177.015 Y139.356 E27.96445
G1 X176.503 Y139.65 E28.01837
G1 F1500 E27.01837
G0 F6000 X176.556 Y139.633
G0 X177.945 Y138.881
G0 X178.272 Y136.046
G0 X177.233 Y134.65
G0 X178.462 Y132.252
G0 X177.233 Y129.65
G0 X178.459 Y127.451
G0 X177.558 Y124.955
G0 X175.919 Y123.977
G0 X188.721 Y123.778
G0 X188.732 Y155.433
G0 X188.261 Y156.388
G0 X180.392 Y148.788
G0 X149.266 Y149.139
G0 X142.588 Y155.816
G0 X142.588 Y187.281
G0 X149.269 Y193.961
G0 X161.477 Y193.961
G0 X162.497 Y194.981
G0 X162.674 Y202.161
G0 X162.732 Y202.161
G1 F1500 E28.01837
G1 F1800 X162.732 Y195.226 E28.65182
G1 X161.473 Y193.967 E28.81445
G1 X149.791 Y193.967 E29.88149
G1 F1802.1 X149.324 Y193.879 E29.92485
G1 F1810.7 X149.026 Y193.718 E29.95561
G1 F1828.1 X142.958 Y187.65 E30.72738
G1 F1756.4 X142.643 Y187.238 E30.77593
G1 F1505.9 X142.446 Y186.759 E30.83248
G1 F1283.5 X142.377 Y186.429 E30.87566
G1 F1212.9 X142.377 Y156.668 E34.90981
G1 F1283.5 X142.446 Y156.338 E34.953
G1 F1505.9 X142.644 Y155.859 E35.00959
G1 F1748.3 X142.841 Y155.564 E35.04295
G1 F1825.9 X148.897 Y149.508 E35.81412
G1 F1817.2 X149.321 Y149.221 E35.86044
G1 F1800 X149.788 Y149.133 E35.90385
G1 X180.362 Y149.136 E38.6965
G1 X180.849 Y149.277 E38.74281
G1 X181.158 Y149.503 E38.77778
G1 X187.046 Y155.391 E39.53836
G1 X187.312 Y155.784 E39.58171
G1 F1448.6 X187.621 Y156.288 E39.64881
G1 F1212 X187.621 Y186.465 E43.74261
G1 F1282.5 X187.552 Y186.798 E43.78621
G1 F1507.4 X187.355 Y187.276 E43.8426
G1 F1750.3 X187.151 Y187.578 E43.87683
G1 F1817.2 X181.012 Y193.717 E44.66233
G1 F1810.7 X180.715 Y193.879 E44.69305
G1 F1802.1 X180.247 Y193.967 E44.7365
G1 F1800 X168.525 Y193.967 E45.80719
G1 X167.267 Y195.227 E45.96982
G1 X167.266 Y197.568 E46.18365
G1 F1596 X167.375 Y198.261 E46.25592
G1 F1445.8 X167.365 Y198.635 E46.29846
G1 F1458.3 X167.365 Y202.062 E46.68483
G1 X168.409 Y202.062 E46.80254
G1 F1452.7 X168.409 Y198.411 E47.21574
G1 F1604.4 X168.668 Y197.707 E47.29261
G1 F1800 X168.857 Y197.251 E47.3377
G1 X169.339 Y196.53 E47.41692
G1 X170.063 Y196.045 E47.49652
G1 X170.524 Y195.854 E47.54209
G1 X171.235 Y195.714 E47.60829
G1 X179.993 Y195.713 E48.40825
G1 X180.223 Y195.666 E48.42969
G1 F1817.2 X181.724 Y194.177 E48.62098
G1 F1819.4 X187.828 Y188.066 E49.40151
G1 F1744.3 X188.092 Y187.76 E49.43961
G1 F1507.4 X188.505 Y187.193 E49.51612
G1 F1282.5 X188.877 Y186.695 E49.59581
G1 F1212 X188.877 Y156.288 E53.72081
G1 F1448.6 X189.082 Y155.418 E53.82226
G1 F1800 X189.082 Y123.417 E56.74525
G1 X177.106 Y123.418 E57.83915
G1 F1781 X176.508 Y123.427 E57.89436
G1 F1684.4 X175.99 Y123.467 E57.94507
G1 F1644.3 X175.503 Y123.449 E57.9938
G1 F1656.9 X174.814 Y123.46 E58.06218
G1 F1716.7 X174.052 Y123.417 E58.13527
G1 F1800 X161.616 Y123.417 E59.27119
G1 X161.616 Y146.15 E61.34763
G1 X161.586 Y146.429 E61.37326
G1 X161.467 Y146.747 E61.40428
G1 X161.223 Y147.068 E61.44111
G1 X160.837 Y147.32 E61.48321
G1 X160.507 Y147.417 E61.51463
G1 X150.075 Y147.417 E62.4675
G1 X149.843 Y147.463 E62.4891
G1 X149.65 Y147.593 E62.51035
G1 F1817.2 X148.311 Y148.922 E62.68104
G1 X142.169 Y155.07 E63.46731
G1 F1742.3 X141.905 Y155.375 E63.50538
G1 F1505.9 X141.492 Y155.943 E63.58205
G1 F1283.5 X141.124 Y156.447 E63.66199
G1 F1212.9 X141.129 Y186.655 E67.75673
G1 F1283.5 X141.492 Y187.154 E67.83577
G1 F1505.9 X141.905 Y187.722 E67.91244
G1 F1756.4 X142.372 Y188.236 E67.97745
G1 F1817.2 X149.683 Y195.537 E68.91227
G1 F1800 X149.876 Y195.666 E68.93348
G1 X150.103 Y195.712 E68.95463
G1 X152.54 Y195.713 E69.17723
G1 X153.257 Y195.854 E69.24398
G1 X153.718 Y196.045 E69.28955
G1 X154.233 Y196.39 E69.34618
G1 X154.58 Y196.737 E69.391
G1 X154.925 Y197.252 E69.44762
G1 X155.085 Y197.554 E69.47884
G1 X155.257 Y198.433 E69.56065
G1 X155.257 Y202.162 E69.90126
G1 X162.732 Y202.161 E70.58403
G1 F1500 E69.58403
G0 F6000 X162.674 Y202.161
G0 X162.738 Y195.222
G0 X161.477 Y193.961
G0 X149.269 Y193.961
G0 X142.588 Y187.281
G0 X142.588 Y155.816
G0 X149.266 Y149.139
G0 X180.783 Y149.139
G0 X187.41 Y155.766
G0 X187.41 Y187.32
G0 X180.769 Y193.961
G0 X168.521 Y193.961
G0 X167.26 Y195.222
G0 X167.26 Y197.182
G0 X168.48 Y202.133
G0 X169.353 Y203.006
;TYPE:WALL-OUTER
G1 F1500 E70.58403
G1 F1800 X169.353 Y198.592 E70.98721
G1 X169.497 Y197.873 E71.05418
G1 X169.56 Y197.721 E71.06921
G1 X169.949 Y197.139 E71.13315
G1 X170.606 Y196.699 E71.20538
G1 X171.29 Y196.565 E71.26904
G1 X180.077 Y196.558 E72.07165
G1 X180.554 Y196.462 E72.1161
G1 X180.76 Y196.324 E72.13875
G1 X189.631 Y187.455 E73.28453
G1 X189.927 Y187.014 E73.33304
G1 X189.927 Y122.572 E79.21922
G1 X160.771 Y122.572 E81.88235
G1 X160.771 Y146.216 E84.042
G1 X160.641 Y146.456 E84.06693
G1 X160.422 Y146.566 E84.08932
G1 X149.993 Y146.572 E85.04191
G1 X149.513 Y146.667 E85.08661
G1 X149.111 Y146.937 E85.13084
G1 X140.364 Y155.684 E86.26073
G1 X140.139 Y156.038 E86.29905
G1 X140.074 Y156.362 E86.32923
G1 X140.073 Y186.734 E89.10343
G1 X140.138 Y187.057 E89.13352
G1 X140.375 Y187.424 E89.17343
G1 X149.144 Y196.193 E90.30616
G1 X149.545 Y196.462 E90.35027
G1 X150.019 Y196.557 E90.39443
G1 X152.459 Y196.558 E90.6173
G1 X153.175 Y196.699 E90.68395
G1 X153.832 Y197.139 E90.75618
G1 X154.27 Y197.794 E90.82815
G1 X154.407 Y198.488 E90.89276
G1 X154.412 Y203.007 E91.30553
G1 X163.577 Y203.006 E92.14267
G1 X163.577 Y194.876 E92.88527
G1 X161.823 Y193.122 E93.11184
G1 X149.791 Y193.122 E94.21085
G1 X149.528 Y193.035 E94.23616
G1 X143.55 Y187.058 E95.0083
G1 X143.456 Y186.915 E95.02393
G1 X143.427 Y186.759 E95.03843
G1 X143.427 Y156.338 E97.8171
G1 X143.514 Y156.075 E97.8424
G1 X149.489 Y150.101 E98.61416
G1 X149.632 Y150.007 E98.62979
G1 X149.788 Y149.978 E98.64428
G1 X180.325 Y149.982 E101.43355
G1 X180.509 Y150.058 E101.45174
G1 X186.448 Y155.989 E102.21839
G1 X186.537 Y156.12 E102.23286
G1 X186.571 Y156.288 E102.24851
G1 X186.571 Y186.798 E105.03532
G1 X186.484 Y187.061 E105.06062
G1 X180.509 Y193.036 E105.83244
G1 X180.247 Y193.122 E105.85763
G1 X168.175 Y193.122 E106.96029
G1 X166.422 Y194.876 E107.1868
G1 X166.421 Y203.006 E107.9294
G1 X169.353 Y203.006 E108.19721
G0 F6000 X169.353 Y202.706
G1 F1500 E107.19721
G0 F6000 X168.48 Y202.133
G0 X167.616 Y197.579
G0 X167.62 Y195.373
G0 X168.671 Y194.32
G0 X180.769 Y193.961
G0 X187.41 Y187.32
G0 X188.732 Y155.433
G0 X188.721 Y123.778
G0 X176.502 Y123.787
G0 X178.187 Y125.877
G0 X178.288 Y128.221
G0 X177.233 Y129.65
G0 X178.462 Y132.252
G0 X177.233 Y134.65
G0 X178.462 Y137.252
G0 X177.467 Y139.194
G0 X176.519 Y139.636
G0 X175.549 Y140.154
G1 F1500 E108.19721
G1 F1639 X176.236 Y140.447 E108.27213
G1 F1800 X176.606 Y140.695 E108.31282
G1 X176.878 Y140.988 E108.34934
G1 X177.155 Y141.488 E108.40155
G1 X177.234 Y141.768 E108.42812
G1 X177.267 Y142.286 E108.47553
G1 X177.146 Y142.83 E108.52643
G1 X176.9 Y143.294 E108.5744
G1 X176.438 Y143.736 E108.63281
G1 X175.906 Y143.989 E108.68661
G1 X175.583 Y144.058 E108.71678
G1 X175.08 Y144.049 E108.76273
G1 X174.582 Y143.908 E108.81001
G1 X174.114 Y143.621 E108.86016
G1 X173.821 Y143.314 E108.89892
G1 X173.541 Y142.804 E108.95206
G1 X173.43 Y142.278 E109.00116
G1 X173.467 Y141.76 E109.0486
G1 X173.539 Y141.501 E109.07315
G1 X173.796 Y141.008 E109.12394
G1 F1787.3 X174.263 Y140.556 E109.18372
G1 F1758.4 X174.79 Y140.298 E109.23859
G1 F1618.1 X175.188 Y140.154 E109.28159
G1 F1507.4 X175.549 Y140.154 E109.32097
G0 F6000 X175.825 Y140.271
G0 X176.519 Y139.636
G0 X177.183 Y140.068
G0 X177.938 Y141.162
G0 X178.117 Y142.345
G0 X177.959 Y143.098
G0 X177.585 Y143.802
G0 X176.928 Y144.438
G0 X176.235 Y144.779
G0 X175.021 Y144.906
G0 X174.159 Y144.662
G0 X173.515 Y144.232
G0 X172.739 Y143.098
G0 X172.579 Y142.335
G0 X172.759 Y141.163
G0 X173.113 Y140.498
G0 X173.704 Y139.926
G0 X175.191 Y139.146
G1 F1642.5 X174.462 Y138.853 E109.39961
G1 F1800 X174.092 Y138.604 E109.44034
G1 X173.783 Y138.266 E109.48218
G1 X173.538 Y137.797 E109.53051
G1 X173.43 Y137.281 E109.57866
G1 X173.467 Y136.76 E109.62637
G1 X173.539 Y136.501 E109.65092
G1 X173.796 Y136.008 E109.7017
G1 F1787.3 X174.263 Y135.556 E109.76149
G1 F1758.4 X174.79 Y135.298 E109.81635
G1 F1618.1 X175.188 Y135.154 E109.85936
G1 F1507.4 X175.549 Y135.154 E109.89873
G1 F1639 X176.236 Y135.447 E109.97365
G1 F1800 X176.606 Y135.695 E110.01434
G1 X176.878 Y135.988 E110.05086
G1 X177.155 Y136.488 E110.10307
G1 X177.234 Y136.768 E110.12964
G1 X177.267 Y137.286 E110.17705
G1 X177.16 Y137.795 E110.22456
G1 X176.9 Y138.291 E110.27571
G1 F1774.8 X176.438 Y138.741 E110.33546
G1 F1726.4 X175.911 Y139.013 E110.39194
G1 F1597.7 X175.552 Y139.146 E110.43133
G1 F1507.4 X175.191 Y139.146 E110.47071
G0 F6000 X174.913 Y139.035
G1 F1500 E109.47071
G0 F6000 X174.179 Y139.664
G0 X173.515 Y139.232
G0 X172.739 Y138.098
G0 X172.579 Y137.335
G0 X172.759 Y136.163
G0 X173.113 Y135.498
G0 X173.704 Y134.926
G0 X175.191 Y134.146
G1 F1500 E110.47071
G1 F1642.5 X174.462 Y133.853 E110.54935
G1 F1800 X174.092 Y133.604 E110.59009
G1 X173.783 Y133.266 E110.63192
G1 X173.538 Y132.797 E110.68025
G1 X173.436 Y132.325 E110.72436
G1 X173.467 Y131.76 E110.77604
G1 X173.539 Y131.501 E110.8006
G1 X173.796 Y131.008 E110.85138
G1 F1787.3 X174.263 Y130.556 E110.91116
G1 F1758.4 X174.79 Y130.298 E110.96603
G1 F1618.1 X175.188 Y130.154 E111.00903
G1 F1507.4 X175.549 Y130.154 E111.04841
G1 F1639 X176.236 Y130.447 E111.12333
G1 F1800 X176.606 Y130.695 E111.16401
G1 X176.878 Y130.988 E111.20053
G1 X177.155 Y131.488 E111.25274
G1 X177.234 Y131.768 E111.27932
G1 X177.267 Y132.286 E111.32673
G1 X177.16 Y132.795 E111.37423
G1 X176.9 Y133.291 E111.42539
G1 F1774.8 X176.438 Y133.741 E111.48513
G1 F1726.4 X175.911 Y134.013 E111.54161
G1 F1597.7 X175.552 Y134.146 E111.58101
