;FLAVOR:Marlin
;TIME:3157
;Filament used: 7.03218m
;Layer height: 0.26
;MINX:113.952
;MINY:108.651
;MINZ:0.26
;MAXX:216.061
;MAXY:217.68
;MAXZ:15.86
;Generated with Cura_SteamEngine 5.4.0
M140 S60


; Pre-Processed for Cancel-Object support by preprocess_cancellation v0.2.0
; 1 known objects
EXCLUDE_OBJECT_DEFINE NAME=nema17_mount_gantry_stl CENTER=164.977,162.054 POLYGON=[[113.952,108.651],[113.952,217.68],[216.061,217.68],[216.061,108.651]]
M105
M190 S60
M104 S210
M105
M109 S210
M82 ;absolute extrusion mode
START_GCODE
G92 E0
G92 E0
G1 F1500 E-1
;LAYER_COUNT:61
;LAYER:0
M107
G0 F6000 X114.951 Y130.843 Z0.26
;TYPE:SKIRT
G1 F1500 E0
G1 F1800 X135.707 Y110.088 E2.6811
G1 X136.188 Y109.62 E2.74239
G1 X136.589 Y109.285 E2.79012
G1 X137.037 Y109.016 E2.83785
G1 X137.521 Y108.817 E2.88565
G1 X138.029 Y108.695 E2.93337
G1 X138.55 Y108.651 E2.98113
G1 X139.072 Y108.687 E3.02892
G1 X139.582 Y108.803 E3.0767
G1 X140.068 Y108.994 E3.12439
G1 X140.52 Y109.258 E3.17221
G1 X141.005 Y109.65 E3.22917
G1 X159.028 Y127.673 E5.55729
G1 X160.989 Y129.579 E5.80708
G1 X163.001 Y131.428 E6.05667
G1 X165.058 Y133.211 E6.30532
G1 X167.182 Y134.953 E6.55623
G1 X169.325 Y136.61 E6.80366
G1 X171.539 Y138.223 E7.05387
G1 X173.811 Y139.782 E7.30555
G1 X176.065 Y141.237 E7.5506
G1 X178.446 Y142.681 E7.80496
G1 X180.795 Y144.016 E8.05174
G1 X183.218 Y145.304 E8.30239
G1 X185.675 Y146.522 E8.55287
G1 X188.117 Y147.646 E8.79842
G1 X190.664 Y148.734 E9.0514
G1 X193.222 Y149.741 E9.30251
G1 X195.758 Y150.658 E9.54882
G1 X198.38 Y151.523 E9.80102
G1 X200.947 Y152.291 E10.04576
G1 X203.831 Y153.066 E10.31853
G1 X204.324 Y153.24 E10.36628
G1 X204.845 Y153.527 E10.42061
G1 X205.353 Y153.867 E10.47645
G1 X205.831 Y154.253 E10.53257
G1 X206.288 Y154.696 E10.5907
G1 X214.209 Y162.619 E11.61403
G1 X214.693 Y163.115 E11.67733
G1 X215.129 Y163.665 E11.74144
G1 X215.423 Y164.126 E11.79138
G1 X215.67 Y164.587 E11.83915
G1 X215.955 Y165.482 E11.92494
G1 X216.05 Y166.355 E12.00516
G1 X216.061 Y167.077 E12.07111
G1 X216.061 Y196.179 E14.72931
G1 X216.05 Y196.922 E14.79718
G1 X215.964 Y197.731 E14.87149
G1 X215.762 Y198.453 E14.93997
G1 X215.439 Y199.113 E15.00709
G1 X215.125 Y199.61 E15.06079
G1 X214.656 Y200.212 E15.13049
G1 X211.013 Y203.855 E15.60108
G1 X209.107 Y205.816 E15.85086
G1 X207.258 Y207.828 E16.10046
G1 X205.476 Y209.884 E16.34897
G1 X203.734 Y212.007 E16.59982
G1 X201.629 Y214.754 E16.91593
G1 X201.046 Y215.543 E17.00553
G1 X200.704 Y215.938 E17.05326
G1 X200.306 Y216.277 E17.10101
G1 X199.861 Y216.551 E17.14874
G1 X199.379 Y216.754 E17.19652
G1 X198.872 Y216.882 E17.24428
G1 X198.293 Y216.94 E17.29743
G1 X186.863 Y216.934 E18.34145
G1 X183.131 Y216.941 E18.68234
G1 X182.465 Y216.931 E18.74318
G1 X181.944 Y216.883 E18.79097
G1 X181.437 Y216.756 E18.83871
G1 X180.841 Y216.506 E18.89774
G1 X178.603 Y215.002 E19.14403
G1 X176.284 Y213.531 E19.39487
G1 X173.93 Y212.13 E19.64509
G1 X171.527 Y210.79 E19.8964
G1 X170.675 Y210.345 E19.9842
G1 X169.96 Y209.959 E20.05842
G1 X169.367 Y209.581 E20.12265
G1 X168.888 Y209.196 E20.17878
G1 X168.41 Y208.734 E20.2395
G1 X160.387 Y200.712 E21.27581
G1 X159.888 Y200.197 E21.34131
G1 X159.504 Y199.724 E21.39696
G1 X159.163 Y199.217 E21.45277
G1 X158.905 Y198.762 E21.50055
G1 X158.7 Y198.206 E21.55467
G1 X158.448 Y197.28 E21.64233
G1 X157.692 Y194.642 E21.89299
G1 X156.863 Y192.036 E22.14278
G1 X155.966 Y189.463 E22.39167
G1 X155.014 Y186.96 E22.63627
G1 X153.95 Y184.391 E22.89025
G1 X152.834 Y181.896 E23.13991
G1 X151.65 Y179.437 E23.3892
G1 X150.397 Y177.013 E23.63844
G1 X149.083 Y174.64 E23.8862
G1 X147.674 Y172.257 E24.13907
G1 X146.222 Y169.949 E24.38813
G1 X144.712 Y167.695 E24.63594
G1 X143.124 Y165.464 E24.88607
G1 X141.483 Y163.293 E25.13465
G1 X139.768 Y161.15 E25.38536
G1 X138.003 Y159.067 E25.63474
G1 X136.201 Y157.062 E25.88097
G1 X133.502 Y154.253 E26.23679
G1 X115.389 Y136.14 E28.57654
G1 X114.921 Y135.659 E28.63784
G1 X114.586 Y135.258 E28.68557
G1 X114.317 Y134.81 E28.7333
G1 X114.118 Y134.326 E28.7811
G1 X113.996 Y133.818 E28.82882
G1 X113.952 Y133.297 E28.87657
G1 X113.988 Y132.775 E28.92437
G1 X114.104 Y132.265 E28.97214
G1 X114.295 Y131.779 E29.01984
G1 X114.559 Y131.327 E29.06765
G1 X114.951 Y130.843 E29.12454
G1 F1500 E28.12454
;MESH:nema17-mount-gantry.stl
EXCLUDE_OBJECT_START NAME=nema17_mount_gantry_stl
G0 F6000 X118.265 Y133.273
G0 X129.168 Y123.858
G0 X129.378 Y128.49
G0 X131.937 Y129.309
G0 X134.313 Y132.77
G0 X135.486 Y132.836
G0 X137.043 Y134.812
G0 X138.103 Y135.394
G0 X139.346 Y135.291
G0 X141.231 Y134.211
G0 X141.176 Y134.19
;TYPE:WALL-INNER
G1 F1500 E29.12454
G1 F1800 X141.938 Y134.036 E29.19555
G1 X142.684 Y134.093 E29.26389
G1 X143.286 Y134.295 E29.32189
G1 X143.94 Y134.713 E29.39278
G1 X144.454 Y135.324 E29.46571
G1 X144.724 Y135.885 E29.52258
G1 X144.873 Y136.571 E29.5867
G1 X144.843 Y137.311 E29.65435
G1 X144.598 Y138.036 E29.72425
G1 X144.222 Y138.607 E29.7867
G1 X143.671 Y139.101 E29.85429
G1 X143.021 Y139.434 E29.921
G1 X142.268 Y139.577 E29.99101
G1 X141.506 Y139.523 E30.06079
G1 X140.886 Y139.296 E30.1211
G1 X140.274 Y138.894 E30.18798
G1 X139.707 Y138.205 E30.26948
G1 X139.396 Y137.428 E30.34593
G1 X139.341 Y136.658 E30.41644
G1 X139.481 Y135.879 E30.48873
G1 X138.875 Y136.033 E30.54584
G1 X137.974 Y135.993 E30.62822
G1 X137.217 Y135.698 E30.70243
G1 X136.619 Y135.232 E30.77168
G1 X136.166 Y134.656 E30.83861
G1 X135.864 Y133.897 E30.91323
G1 X135.807 Y133.243 E30.97319
G1 X135.882 Y132.606 E31.03178
G1 X135.971 Y132.356 E31.05602
G1 X135.183 Y132.517 E31.12948
G1 X134.402 Y132.432 E31.20124
G1 X133.806 Y132.215 E31.25917
G1 X133.228 Y131.846 E31.32181
G1 X132.758 Y131.314 E31.38665
G1 X132.431 Y130.695 E31.45059
G1 X132.268 Y129.939 E31.52123
G1 X132.324 Y129.192 E31.58966
G1 X132.452 Y128.794 E31.62784
G1 X131.766 Y128.968 E31.69249
G1 X130.882 Y128.912 E31.7734
G1 X130.167 Y128.637 E31.84337
G1 X129.576 Y128.19 E31.91105
G1 X129.259 Y127.817 E31.95576
G1 X128.919 Y127.178 E32.02188
G1 X128.815 Y126.838 E32.05435
G1 X128.75 Y126.423 E32.09272
G1 X128.768 Y125.803 E32.14938
G1 X128.965 Y125.111 E32.2151
G1 F1772.7 X129.117 Y124.783 E32.24863
G1 F1695.7 X129.387 Y124.35 E32.2981
G1 F1640.8 X129.9 Y123.9 E32.36648
G1 F1714.8 X130.573 Y123.602 E32.43705
G1 F1800 X130.977 Y123.49 E32.47535
G1 X131.38 Y123.446 E32.51238
G1 X131.898 Y123.472 E32.55975
G1 X132.251 Y123.541 E32.5926
G1 X132.854 Y123.799 E32.65251
G1 X133.452 Y124.213 E32.71895
G1 X133.947 Y124.877 E32.79459
G1 X134.226 Y125.65 E32.86966
G1 X134.26 Y126.428 E32.94079
G1 X134.107 Y127.11 E33.00463
G1 X134.888 Y126.969 E33.07712
G1 X135.597 Y127.018 E33.14204
G1 X136.211 Y127.223 E33.20116
G1 X136.86 Y127.634 E33.27133
G1 X137.441 Y128.341 E33.35492
G1 X137.751 Y129.116 E33.43116
G1 X137.808 Y129.883 E33.50141
G1 X137.665 Y130.668 E33.57429
G1 X138.273 Y130.513 E33.63161
G1 X139.174 Y130.553 E33.71398
G1 X139.93 Y130.847 E33.78808
G1 X140.529 Y131.313 E33.8574
G1 X140.982 Y131.89 E33.9244
G1 X141.281 Y132.639 E33.99807
G1 X141.35 Y133.294 E34.05822
G1 X141.245 Y134 E34.12342
G1 X141.176 Y134.19 E34.14188
G1 F1500 E33.14188
G0 F6000 X141.231 Y134.211
G0 X142.704 Y134.099
G0 X143.927 Y134.707
G0 X144.425 Y135.28
G0 X144.875 Y136.567
G0 X144.835 Y137.338
G0 X144.51 Y138.804
G0 X142.292 Y139.929
G0 X140.01 Y139.136
G0 X139.01 Y136.399
G0 X136.371 Y135.48
G0 X135.486 Y132.836
G0 X132.913 Y132.017
G0 X131.937 Y129.309
G0 X129.378 Y128.49
G0 X128.392 Y126.078
G0 X129.251 Y123.942
G0 X128.197 Y124.726
G0 X119.664 Y133.273
G0 X164.053 Y177.953
G0 X164.524 Y176.998
G0 X164.88 Y165.856
G0 X171.507 Y159.229
G0 X203.024 Y159.229
G0 X209.702 Y165.906
G0 X209.702 Y197.371
G0 X203.021 Y204.051
G0 X190.963 Y204.41
G0 X189.911 Y205.462
G0 X189.919 Y211.89
G0 X196.975 Y212.251
G0 X197.033 Y212.251
G1 F1500 E34.14188
G1 F1800 X197.033 Y208.523 E34.4824
G1 X197.204 Y207.648 E34.56384
G1 X197.365 Y207.342 E34.59542
G1 X197.71 Y206.827 E34.65204
G1 X198.057 Y206.48 E34.69686
G1 X198.572 Y206.135 E34.75348
G1 X199.033 Y205.944 E34.79906
G1 X199.745 Y205.804 E34.86534
G1 X202.182 Y205.803 E35.08794
G1 X202.414 Y205.756 E35.10956
G1 X202.607 Y205.627 E35.13077
G1 F1817.2 X203.976 Y204.268 E35.30529
G1 X210.121 Y198.117 E36.09194
G1 F1742.3 X210.385 Y197.812 E36.13001
G1 F1505.9 X210.798 Y197.244 E36.20668
G1 F1283.5 X211.162 Y196.746 E36.2857
G1 F1212.9 X211.167 Y166.537 E40.38058
G1 F1283.5 X210.798 Y166.033 E40.46059
G1 F1505.9 X210.385 Y165.465 E40.53726
G1 F1756.4 X209.918 Y164.951 E40.60227
G1 F1817.2 X202.64 Y157.683 E41.53287
G1 F1800 X202.447 Y157.553 E41.55412
G1 X202.219 Y157.508 E41.57535
G1 X182.754 Y157.508 E43.3533
G1 X182.25 Y157.403 E43.40032
G1 X181.858 Y157.136 E43.44364
G1 X138.574 Y113.853 E49.0348
G1 F1793.6 X129.669 Y122.765 E50.18964
G1 F1707.1 X129.279 Y123.211 E50.2467
G1 F1714.8 X127.949 Y124.479 E50.42289
G1 F1800 X119.154 Y133.273 E51.55892
G1 X162.838 Y176.956 E57.20174
G1 X163.104 Y177.349 E57.24509
G1 F1448.6 X163.413 Y177.853 E57.31219
G1 F1212 X163.413 Y196.785 E59.8805
G1 F1282.5 X163.784 Y197.283 E59.96011
G1 F1505.9 X164.196 Y197.85 E60.03663
G1 F1756.4 X164.664 Y198.365 E60.10178
G1 F1834.7 X170.566 Y204.267 E60.84973
G1 F1817.2 X172.066 Y205.755 E61.04089
G1 F1800 X172.292 Y205.802 E61.06198
G1 X181.052 Y205.803 E61.86212
G1 X181.766 Y205.944 E61.9286
G1 X182.227 Y206.135 E61.97418
G1 X182.951 Y206.62 E62.05378
G1 X183.433 Y207.341 E62.13299
G1 X183.622 Y207.797 E62.17808
G1 F1604.4 X183.881 Y208.501 E62.25495
G1 F1452.7 X183.881 Y212.152 E62.66816
G1 F1458.3 X184.925 Y212.152 E62.78586
G1 X184.925 Y208.725 E63.17223
G1 F1445.8 X184.915 Y208.351 E63.21478
G1 F1596 X185.024 Y207.658 E63.28704
G1 F1800 X185.024 Y205.316 E63.50096
G1 X183.765 Y204.057 E63.6636
G1 X172.043 Y204.057 E64.73429
G1 F1802.1 X171.576 Y203.968 E64.77766
G1 F1810.7 X171.278 Y203.807 E64.80842
G1 F1828.1 X165.25 Y197.779 E65.57511
G1 F1756.4 X164.935 Y197.366 E65.62373
G1 F1505.9 X164.738 Y196.888 E65.68017
G1 F1282.5 X164.669 Y196.555 E65.72377
G1 F1212 X164.669 Y177.853 E68.26088
G1 F1448.6 X164.874 Y176.983 E68.36233
G1 F1800 X164.874 Y166.262 E69.34159
G1 X164.948 Y165.95 E69.37088
G1 X165.179 Y165.552 E69.41292
G1 X171.203 Y159.528 E70.19107
G1 X171.601 Y159.297 E70.2331
G1 X171.913 Y159.223 E70.26239
G1 X202.502 Y159.222 E73.05641
G1 X202.969 Y159.309 E73.0998
G1 F1817.2 X203.393 Y159.598 E73.14622
G1 F1834.7 X209.332 Y165.537 E73.89887
G1 F1756.4 X209.647 Y165.949 E73.94742
G1 F1505.9 X209.844 Y166.428 E74.00396
G1 F1283.5 X209.913 Y166.758 E74.04715
G1 F1212.9 X209.913 Y196.519 E78.0813
G1 F1283.5 X209.844 Y196.849 E78.12449
G1 F1505.9 X209.647 Y197.327 E78.18093
G1 F1748.3 X209.449 Y197.623 E78.21442
G1 F1815 X203.265 Y203.807 E79.00662
G1 F1808.6 X202.967 Y203.969 E79.03746
G1 F1802.1 X202.499 Y204.058 E79.08092
G1 F1800 X190.817 Y204.057 E80.14796
G1 X189.558 Y205.316 E80.31059
G1 X189.558 Y212.251 E80.94404
G1 X197.033 Y212.251 E81.62681
G0 F6000 X196.975 Y212.251
G0 X197.878 Y213.096
;TYPE:WALL-OUTER
G1 F1800 X197.878 Y208.635 E82.03428
G1 X198.018 Y207.886 E82.10388
G1 X198.459 Y207.229 E82.17616
G1 X199.043 Y206.837 E82.2404
G1 X199.196 Y206.773 E82.25555
G1 X199.8 Y206.655 E82.31176
G1 X202.266 Y206.648 E82.53701
G1 X202.745 Y206.552 E82.58163
G1 X203.146 Y206.283 E82.62574
G1 X211.914 Y197.515 E83.75835
G1 X212.152 Y197.147 E83.79838
G1 X212.217 Y196.824 E83.82847
G1 X212.217 Y166.452 E86.60267
G1 X212.151 Y166.128 E86.63287
G1 X211.926 Y165.774 E86.67118
G1 X203.179 Y157.027 E87.80108
G1 X202.777 Y156.757 E87.84531
G1 X202.302 Y156.663 E87.88954
G1 X182.754 Y156.663 E89.67507
G1 X182.586 Y156.628 E89.69074
G1 X182.455 Y156.539 E89.70521
G1 X138.574 Y112.658 E95.37354
G1 X117.959 Y133.273 E98.03649
G1 X162.24 Y177.554 E103.7565
G1 X162.329 Y177.685 E103.77096
G1 X162.363 Y177.853 E103.78662
G1 X162.363 Y197.104 E105.54502
G1 X162.659 Y197.545 E105.59353
G1 X171.528 Y206.413 E106.73912
G1 X171.734 Y206.551 E106.76177
G1 X172.208 Y206.647 E106.80594
G1 X180.968 Y206.648 E107.60609
G1 X181.684 Y206.789 E107.67274
G1 X182.34 Y207.228 E107.74484
G1 X182.73 Y207.811 E107.80891
G1 X182.793 Y207.963 E107.82394
G1 X182.937 Y208.682 E107.89092
G1 X182.937 Y213.096 E108.2941
G1 X185.869 Y213.096 E108.56191
G1 X185.869 Y204.966 E109.30451
G1 X184.115 Y203.212 E109.53108
G1 X172.043 Y203.212 E110.63374
G1 X171.781 Y203.126 E110.65893
G1 X165.842 Y197.187 E111.4261
G1 X165.748 Y197.044 E111.44173
G1 X165.719 Y196.888 E111.45623
G1 X165.722 Y166.326 E114.24778
G1 X165.82 Y166.103 E114.27003
G1 X171.754 Y160.169 E115.03655
G1 X171.977 Y160.071 E115.0588
G1 X202.502 Y160.067 E117.84698
G1 X202.658 Y160.096 E117.86147
G1 X202.801 Y160.191 E117.87715
G1 X208.74 Y166.129 E118.64426
G1 X208.834 Y166.272 E118.65989
G1 X208.863 Y166.428 E118.67438
G1 X208.863 Y196.849 E121.45306
G1 X208.776 Y197.112 E121.47836
G1 X202.743 Y203.136 E122.25709
G1 X202.499 Y203.213 E122.28046
G1 X190.467 Y203.212 E123.37947
G1 X188.713 Y204.966 E123.60605
G1 X188.713 Y213.096 E124.34865
G1 X197.878 Y213.096 E125.18578
G0 F6000 X197.878 Y212.796
G1 F1500 E124.18578
G0 F6000 X197.005 Y212.223
G0 X189.919 Y211.89
G0 X189.911 Y205.462
G0 X190.845 Y204.046
G0 X203.021 Y204.051
G0 X209.702 Y197.371
G0 X209.702 Y165.906
G0 X203.024 Y159.229
G0 X171.507 Y159.229
G0 X164.88 Y165.856
G0 X164.524 Y176.998
G0 X164.053 Y177.953
G0 X119.664 Y133.273
G0 X128.587 Y124.37
G0 X129.168 Y123.858
G0 X128.469 Y126.887
G0 X129.999 Y128.943
G0 X131.937 Y129.309
G0 X132.913 Y132.017
G0 X135.486 Y132.836
G0 X136.371 Y135.48
G0 X138.508 Y136.224
G0 X139.494 Y135.871
G0 X140.559 Y135.531
G1 F1500 E125.18578
G1 F1505.9 X140.907 Y135.215 E125.2371
G1 F1647.9 X141.497 Y134.985 E125.30028
G1 F1800 X141.998 Y134.889 E125.34688
G1 X142.492 Y134.925 E125.39212
G1 X142.939 Y135.074 E125.43516
G1 X143.391 Y135.375 E125.48476
G1 X143.718 Y135.753 E125.53041
G1 X143.909 Y136.13 E125.56902
G1 X144.023 Y136.624 E125.61532
G1 X144.001 Y137.156 E125.66396
G1 X143.831 Y137.661 E125.71263
G1 X143.615 Y138.004 E125.74965
G1 X143.219 Y138.382 E125.79966
G1 X142.714 Y138.635 E125.85125
G1 X142.235 Y138.726 E125.89578
G1 X141.69 Y138.686 E125.9457
G1 X141.298 Y138.552 E125.98354
G1 X140.843 Y138.262 E126.03282
G1 X140.445 Y137.768 E126.09077
G1 X140.237 Y137.247 E126.14201
G1 X140.191 Y136.692 E126.19288
G1 X140.295 Y136.171 E126.2414
G1 X140.35 Y136.063 E126.25247
G1 F1632 X140.559 Y135.531 E126.31006
G0 F6000 X140.781 Y135.33
G0 X141.164 Y134.206
G0 X140.09 Y134.587
G1 F1492.6 X139.854 Y134.803 E126.3453
G1 F1586 X139.565 Y134.981 E126.38048
G1 F1744.3 X138.793 Y135.188 E126.45582
G1 F1800 X138.16 Y135.156 E126.51371
G1 X137.655 Y134.962 E126.56313
G1 X137.216 Y134.635 E126.61313
G1 X136.888 Y134.196 E126.66318
G1 X136.71 Y133.742 E126.70772
G1 X136.652 Y133.279 E126.75034
G1 X136.718 Y132.772 E126.79705
G1 F1738.3 X136.866 Y132.335 E126.84068
G1 F1581.1 X137.058 Y131.959 E126.88459
G1 F1498.5 X137.212 Y131.813 E126.90787
G1 F1574.5 X137.509 Y131.63 E126.9443
G1 F1722.5 X137.869 Y131.487 E126.98127
G1 F1800 X138.355 Y131.358 E127.0272
G1 X138.988 Y131.39 E127.08509
G1 X139.493 Y131.584 E127.1345
G1 X139.932 Y131.911 E127.1845
G1 X140.26 Y132.35 E127.23456
G1 X140.438 Y132.804 E127.2791
G1 X140.494 Y133.302 E127.32488
G1 X140.43 Y133.774 E127.36838
G1 F1738.3 X140.282 Y134.211 E127.41202
G1 F1581.1 X140.09 Y134.587 E127.45592
G0 F6000 X139.869 Y134.79
G1 F1500 E126.45592
G0 F6000 X139.494 Y135.871
G0 X139.338 Y136.661
G0 X139.402 Y137.425
G0 X139.69 Y138.175
G0 X140.274 Y138.897
G0 X140.926 Y139.317
G0 X142.261 Y139.58
G0 X143.021 Y139.432
G0 X143.708 Y139.078
G0 X144.59 Y138.048
G0 X144.835 Y137.338
G0 X144.875 Y136.567
G0 X144.707 Y135.836
G0 X143.927 Y134.707
G0 X143.293 Y134.3
G0 X141.259 Y133.968
G0 X141.275 Y132.636
G0 X141.002 Y131.927
G0 X140.533 Y131.304
G0 X139.912 Y130.84
G0 X139.17 Y130.557
G0 X138.342 Y130.517
G0 X136.549 Y131.051
G1 F1500 E127.45592
G1 F1511.9 X136.241 Y131.33 E127.50112
G1 F1647.9 X135.651 Y131.561 E127.56433
G1 F1800 X135.115 Y131.657 E127.61407
G1 X134.656 Y131.621 E127.65612
G1 X134.209 Y131.472 E127.69916
G1 X133.757 Y131.171 E127.74876
