;FLAVOR:Marlin
;TIME:1766
;Filament used: 8.1759m
;Layer height: 0.26
;MINX:111.532
;MINY:111.532
;MINZ:0.26
;MAXX:218.468
;MAXY:218.468
;MAXZ:3.12
;Generated with Cura_SteamEngine 5.4.0
M140 S60


; Pre-Processed for Cancel-Object support by preprocess_cancellation v0.2.0
; 1 known objects
EXCLUDE_OBJECT_DEFINE NAME=Cube CENTER=164.997,164.880 POLYGON=[[111.532,111.532],[111.532,218.468],[218.468,218.468],[218.468,111.532]]
M105
M190 S60
M104 S210
M105
M109 S210
M82 ;absolute extrusion mode
START_GCODE
G92 E0
G92 E0
G1 F1500 E-1
;LAYER_COUNT:12
;LAYER:0
M107
G0 F6000 X112.527 Y112.587 Z0.26
;TYPE:SKIRT
G1 F1500 E0
G1 F2400 X112.922 Y112.239 E0.05326
G1 X113.365 Y111.955 E0.1065
G1 X113.846 Y111.742 E0.15973
G1 X114.354 Y111.603 E0.21302
G1 X114.994 Y111.533 E0.27816
G1 X214.343 Y111.532 E10.33002
G1 X215.041 Y111.542 E10.40065
G1 X215.565 Y111.59 E10.45389
G1 X216.076 Y111.716 E10.50714
G1 X216.562 Y111.918 E10.56039
G1 X217.012 Y112.192 E10.6137
G1 X217.415 Y112.53 E10.66691
G1 X217.762 Y112.925 E10.72011
G1 X218.046 Y113.369 E10.77344
G1 X218.259 Y113.85 E10.82666
G1 X218.397 Y114.358 E10.87992
G1 X218.467 Y114.995 E10.94476
G1 X218.468 Y214.307 E20.99288
G1 X218.459 Y215.034 E21.06644
G1 X218.412 Y215.558 E21.11967
G1 X218.287 Y216.069 E21.1729
G1 X218.086 Y216.556 E21.2262
G1 X217.813 Y217.006 E21.27946
G1 X217.476 Y217.41 E21.33269
G1 X217.081 Y217.758 E21.38595
G1 X216.638 Y218.043 E21.43925
G1 X216.158 Y218.257 E21.49242
G1 X215.65 Y218.396 E21.54571
G1 X215.006 Y218.467 E21.61126
G1 X115.662 Y218.468 E31.66262
G1 X114.964 Y218.459 E31.73325
G1 X114.44 Y218.412 E31.78648
G1 X113.929 Y218.286 E31.83973
G1 X113.443 Y218.085 E31.89294
G1 X112.992 Y217.812 E31.94628
G1 X112.589 Y217.475 E31.99943
G1 X112.241 Y217.08 E32.05269
G1 X111.956 Y216.637 E32.10599
G1 X111.742 Y216.156 E32.15926
G1 X111.604 Y215.648 E32.21252
G1 X111.533 Y215.003 E32.27817
G1 X111.532 Y115.627 E42.33277
G1 X111.541 Y114.962 E42.40006
G1 X111.588 Y114.438 E42.45329
G1 X111.714 Y113.927 E42.50654
G1 X111.916 Y113.441 E42.55979
G1 X112.189 Y112.991 E42.61304
G1 X112.527 Y112.587 E42.66634
G1 F1500 E41.66634
;MESH:Cube
EXCLUDE_OBJECT_START NAME=Cube
G0 F6000 X114.335 Y116.836
G0 X116.836 Y116.836
G0 X213.192 Y116.808
G0 X213.596 Y213.596
;TYPE:WALL-INNER
G1 F1500 E42.66634
G1 F2400 X213.596 Y116.404 E52.49996
G1 X116.404 Y116.404 E62.33359
G1 X116.404 Y213.596 E72.16722
G1 X213.596 Y213.596 E82.00084
G0 F6000 X214.532 Y214.532
;TYPE:WALL-OUTER
G1 F2400 X214.532 Y115.468 E92.02388
G1 X115.468 Y115.468 E102.04691
G1 X115.468 Y214.532 E112.06994
G1 X214.532 Y214.532 E122.09297
G0 F6000 X214.532 Y214.232
G0 X213.67 Y213.67
G0 X213.264 Y212.696
G0 X212.696 Y212.696
;TYPE:SKIN
G1 F2400 X117.304 Y212.696 E131.74448
G1 X117.304 Y117.304 E141.39599
G1 X212.696 Y117.304 E151.04749
G1 X212.696 Y212.696 E160.699
G1 F1500 E159.699
G0 F6000 X213.264 Y212.696
G0 X213.264 Y118.244
G0 X212.227 Y118.244
G1 F1500 E160.699
G1 F2400 X211.755 Y117.772 E160.76654
G0 F6000 X211.755 Y116.736
G0 X210.431 Y116.736
G0 X210.431 Y117.772
G1 F2400 X212.227 Y119.568 E161.02352
G0 F6000 X213.264 Y119.568
G0 X213.264 Y120.891
G0 X212.227 Y120.891
G1 F2400 X209.107 Y117.772 E161.46988
G0 F6000 X209.107 Y116.736
G0 X207.784 Y116.736
G0 X207.784 Y117.772
G1 F2400 X212.227 Y122.215 E162.10561
G0 F6000 X213.264 Y122.215
G0 X213.264 Y123.539
G0 X212.227 Y123.539
G1 F2400 X206.46 Y117.772 E162.93079
G0 F6000 X206.46 Y116.736
G0 X205.136 Y116.736
G0 X205.136 Y117.772
G1 F2400 X212.227 Y124.863 E163.94542
G0 F6000 X213.264 Y124.863
G0 X213.264 Y126.186
G0 X212.227 Y126.186
G1 F2400 X203.812 Y117.772 E165.14942
G0 F6000 X203.812 Y116.736
G0 X202.489 Y116.736
G0 X202.489 Y117.772
G1 F2400 X212.227 Y127.51 E166.54279
G0 F6000 X213.264 Y127.51
G0 X213.264 Y128.834
G0 X212.227 Y128.834
G1 F2400 X201.165 Y117.772 E168.12561
G0 F6000 X201.165 Y116.736
G0 X199.841 Y116.736
G0 X199.841 Y117.772
G1 F2400 X212.227 Y130.157 E169.89781
G0 F6000 X213.264 Y130.157
G0 X213.264 Y131.481
G0 X212.227 Y131.481
G1 F2400 X198.518 Y117.772 E171.85938
G0 F6000 X198.518 Y116.736
G0 X197.194 Y116.736
G0 X197.194 Y117.772
G1 F2400 X212.227 Y132.805 E174.0104
G0 F6000 X213.264 Y132.805
G0 X213.264 Y134.128
G0 X212.227 Y134.128
G1 F2400 X195.87 Y117.772 E176.35079
G0 F6000 X195.87 Y116.736
G0 X194.546 Y116.736
G0 X194.546 Y117.772
G1 F2400 X212.227 Y135.452 E178.88063
G0 F6000 X213.264 Y135.452
G0 X213.264 Y136.776
G0 X212.227 Y136.776
G1 F2400 X193.223 Y117.772 E181.59984
G0 F6000 X193.223 Y116.736
G0 X191.899 Y116.736
G0 X191.899 Y117.772
G1 F2400 X212.227 Y138.1 E184.5085
G0 F6000 X213.264 Y138.1
G0 X213.264 Y139.423
G0 X212.227 Y139.423
G1 F2400 X190.575 Y117.772 E187.60653
G0 F6000 X190.575 Y116.736
G0 X189.252 Y116.736
G0 X189.252 Y117.772
G1 F2400 X212.227 Y140.747 E190.89394
G0 F6000 X213.264 Y140.747
G0 X213.264 Y142.071
G0 X212.227 Y142.071
G1 F2400 X187.928 Y117.772 E194.3708
G0 F6000 X187.928 Y116.736
G0 X186.604 Y116.736
G0 X186.604 Y117.772
G1 F2400 X212.227 Y143.394 E198.03703
G0 F6000 X213.264 Y143.394
G0 X213.264 Y144.718
G0 X212.227 Y144.718
G1 F2400 X185.281 Y117.772 E201.89263
G0 F6000 X185.281 Y116.736
G0 X183.957 Y116.736
G0 X183.957 Y117.772
G1 F2400 X212.227 Y146.042 E205.93768
G0 F6000 X213.264 Y146.042
G0 X213.264 Y147.366
G0 X212.227 Y147.366
G1 F2400 X182.633 Y117.772 E210.17218
G0 F6000 X182.633 Y116.736
G0 X181.309 Y116.736
G0 X181.309 Y117.772
G1 F2400 X212.227 Y148.689 E214.59605
G0 F6000 X213.264 Y148.689
G0 X213.264 Y150.013
G0 X212.227 Y150.013
G1 F2400 X179.986 Y117.772 E219.2093
G0 F6000 X179.986 Y116.736
G0 X178.662 Y116.736
G0 X178.662 Y117.772
G1 F2400 X212.227 Y151.337 E224.01199
G0 F6000 X213.264 Y151.337
G0 X213.264 Y152.66
G0 X212.227 Y152.66
G1 F2400 X177.338 Y117.772 E229.00406
G0 F6000 X177.338 Y116.736
G0 X176.015 Y116.736
G0 X176.015 Y117.772
G1 F2400 X212.227 Y153.984 E234.18551
G0 F6000 X213.264 Y153.984
G0 X213.264 Y155.308
G0 X212.227 Y155.308
G1 F2400 X174.691 Y117.772 E239.55639
G0 F6000 X174.691 Y116.736
G0 X173.367 Y116.736
G0 X173.367 Y117.772
G1 F2400 X212.227 Y156.631 E245.11666
G0 F6000 X213.264 Y156.631
G0 X213.264 Y157.955
G0 X212.227 Y157.955
G1 F2400 X172.044 Y117.772 E250.8663
G0 F6000 X172.044 Y116.736
G0 X170.72 Y116.736
G0 X170.72 Y117.772
G1 F2400 X212.227 Y159.279 E256.80538
G0 F6000 X213.264 Y159.279
G0 X213.264 Y160.603
G0 X212.227 Y160.603
G1 F2400 X169.396 Y117.772 E262.93391
G0 F6000 X169.396 Y116.736
G0 X168.072 Y116.736
G0 X168.072 Y117.772
G1 F2400 X212.227 Y161.926 E269.25182
G0 F6000 X213.264 Y161.926
G0 X213.264 Y163.25
G0 X212.227 Y163.25
G1 F2400 X166.749 Y117.772 E275.7591
G0 F6000 X166.749 Y116.736
G0 X165.425 Y116.736
G0 X165.425 Y117.772
G1 F2400 X212.227 Y164.574 E282.45583
G0 F6000 X213.264 Y164.574
G0 X213.264 Y165.897
G0 X212.227 Y165.897
G1 F2400 X164.101 Y117.772 E289.34193
G0 F6000 X164.101 Y116.736
G0 X162.778 Y116.736
G0 X162.778 Y117.772
G1 F2400 X212.227 Y167.221 E296.41741
G0 F6000 X213.264 Y167.221
G0 X213.264 Y168.545
G0 X212.227 Y168.545
G1 F2400 X161.454 Y117.772 E303.68233
G0 F6000 X161.454 Y116.736
G0 X160.13 Y116.736
G0 X160.13 Y117.772
G1 F2400 X212.227 Y169.868 E311.13663
G0 F6000 X213.264 Y169.868
G0 X213.264 Y171.192
G0 X212.227 Y171.192
G1 F2400 X158.806 Y117.772 E318.78038
G0 F6000 X158.806 Y116.736
G0 X157.483 Y116.736
G0 X157.483 Y117.772
G1 F2400 X212.227 Y172.516 E326.61349
G0 F6000 X213.264 Y172.516
G0 X213.264 Y173.84
G0 X212.227 Y173.84
G1 F2400 X156.159 Y117.772 E334.63606
G0 F6000 X156.159 Y116.736
G0 X154.835 Y116.736
G0 X154.835 Y117.772
G1 F2400 X212.227 Y175.163 E342.848
G0 F6000 X213.264 Y175.163
G0 X213.264 Y176.487
G0 X212.227 Y176.487
G1 F2400 X153.512 Y117.772 E351.24932
G0 F6000 X153.512 Y116.736
G0 X152.188 Y116.736
G0 X152.188 Y117.772
G1 F2400 X212.227 Y177.811 E359.84008
G0 F6000 X213.264 Y177.811
G0 X213.264 Y179.134
G0 X212.227 Y179.134
G1 F2400 X150.864 Y117.772 E368.62021
G0 F6000 X150.864 Y116.736
G0 X149.541 Y116.736
G0 X149.541 Y117.772
G1 F2400 X212.227 Y180.458 E377.58972
G0 F6000 X213.264 Y180.458
G0 X213.264 Y181.782
G0 X212.227 Y181.782
G1 F2400 X148.217 Y117.772 E386.74868
G0 F6000 X148.217 Y116.736
G0 X146.893 Y116.736
G0 X146.893 Y117.772
G1 F2400 X212.227 Y183.106 E396.09709
G0 F6000 X213.264 Y183.106
G0 X213.264 Y184.429
G0 X212.227 Y184.429
G1 F2400 X145.569 Y117.772 E405.63486
G0 F6000 X145.569 Y116.736
G0 X144.246 Y116.736
G0 X144.246 Y117.772
G1 F2400 X212.227 Y185.753 E415.36202
G0 F6000 X213.264 Y185.753
G0 X213.264 Y187.077
G0 X212.227 Y187.077
G1 F2400 X142.922 Y117.772 E425.27862
G0 F6000 X142.922 Y116.736
G0 X141.598 Y116.736
G0 X141.598 Y117.772
G1 F2400 X212.227 Y188.4 E435.38459
G0 F6000 X213.264 Y188.4
G0 X213.264 Y189.724
G0 X212.227 Y189.724
G1 F2400 X140.275 Y117.772 E445.67994
G0 F6000 X140.275 Y116.736
G0 X138.951 Y116.736
G0 X138.951 Y117.772
G1 F2400 X212.227 Y191.048 E456.16474
G0 F6000 X213.264 Y191.048
G0 X213.264 Y192.371
G0 X212.227 Y192.371
G1 F2400 X137.627 Y117.772 E466.83891
G0 F6000 X137.627 Y116.736
G0 X136.304 Y116.736
G0 X136.304 Y117.772
G1 F2400 X212.227 Y193.695 E477.70245
G0 F6000 X213.264 Y193.695
G0 X213.264 Y195.019
G0 X212.227 Y195.019
G1 F2400 X134.98 Y117.772 E488.75544
G0 F6000 X134.98 Y116.736
G0 X133.656 Y116.736
G0 X133.656 Y117.772
G1 F2400 X212.227 Y196.343 E499.99788
G0 F6000 X213.264 Y196.343
G0 X213.264 Y197.666
G0 X212.227 Y197.666
G1 F2400 X132.332 Y117.772 E511.4297
G0 F6000 X132.332 Y116.736
G0 X131.009 Y116.736
G0 X131.009 Y117.772
G1 F2400 X212.227 Y198.99 E523.05088
G0 F6000 X213.264 Y198.99
G0 X213.264 Y200.314
G0 X212.227 Y200.314
G1 F2400 X129.685 Y117.772 E534.86152
G0 F6000 X129.685 Y116.736
G0 X128.361 Y116.736
G0 X128.361 Y117.772
G1 F2400 X212.227 Y201.637 E546.86152
G0 F6000 X213.264 Y201.637
G0 X213.264 Y202.961
G0 X212.227 Y202.961
G1 F2400 X127.038 Y117.772 E559.05091
G0 F6000 X127.038 Y116.736
G0 X125.714 Y116.736
G0 X125.714 Y117.772
G1 F2400 X212.227 Y204.285 E571.42974
G0 F6000 X213.264 Y204.285
G0 X213.264 Y205.608
G0 X212.227 Y205.608
G1 F2400 X124.39 Y117.772 E583.99794
G0 F6000 X124.39 Y116.736
G0 X123.066 Y116.736
G0 X123.066 Y117.772
G1 F2400 X212.227 Y206.932 E596.75559
G0 F6000 X213.264 Y206.932
G0 X213.264 Y208.256
G0 X212.227 Y208.256
G1 F2400 X121.743 Y117.772 E609.70262
G0 F6000 X121.743 Y116.736
G0 X120.419 Y116.736
G0 X120.419 Y117.772
G1 F2400 X212.227 Y209.58 E622.83909
G0 F6000 X213.264 Y209.58
G0 X213.264 Y210.903
G0 X212.227 Y210.903
G1 F2400 X119.095 Y117.772 E636.16494
G0 F6000 X119.095 Y116.736
G0 X116.808 Y116.808
G0 X116.736 Y117.771
G0 X117.771 Y117.771
G1 F2400 X212.227 Y212.227 E649.6803
G0 F6000 X213.264 Y212.227
G0 X213.192 Y213.192
G0 X210.903 Y213.264
G0 X210.903 Y212.227
G1 F2400 X117.771 Y119.095 E663.00622
G0 F6000 X116.736 Y119.095
G0 X116.736 Y120.418
G0 X117.771 Y120.418
G1 F2400 X209.58 Y212.227 E676.14284
G0 F6000 X209.58 Y213.264
G0 X208.256 Y213.264
G0 X208.256 Y212.227
G1 F2400 X117.771 Y121.742 E689.09
G0 F6000 X116.736 Y121.742
G0 X116.736 Y123.066
G0 X117.771 Y123.066
G1 F2400 X206.932 Y212.227 E701.84773
G0 F6000 X206.932 Y213.264
G0 X205.608 Y213.264
G0 X205.608 Y212.227
G1 F2400 X117.771 Y124.389 E714.41607
G0 F6000 X116.736 Y124.389
G0 X116.736 Y125.713
G0 X117.771 Y125.713
G1 F2400 X204.285 Y212.227 E726.79505
G0 F6000 X204.285 Y213.264
G0 X202.961 Y213.264
G0 X202.961 Y212.227
G1 F2400 X117.771 Y127.037 E738.98457
G0 F6000 X116.736 Y127.037
G0 X116.736 Y128.361
G0 X117.771 Y128.361
G1 F2400 X201.637 Y212.227 E750.98465
G0 F6000 X201.637 Y213.264
G0 X200.314 Y213.264
G0 X200.314 Y212.227
G1 F2400 X117.771 Y129.684 E762.79543
G0 F6000 X116.736 Y129.684
G0 X116.736 Y131.008
G0 X117.771 Y131.008
G1 F2400 X198.99 Y212.227 E774.41676
G0 F6000 X198.99 Y213.264
G0 X197.666 Y213.264
G0 X197.666 Y212.227
G1 F2400 X117.771 Y132.332 E785.84865
G0 F6000 X116.736 Y132.332
G0 X116.736 Y133.655
G0 X117.771 Y133.655
G1 F2400 X196.343 Y212.227 E797.09123
G0 F6000 X196.343 Y213.264
G0 X195.019 Y213.264
G0 X195.019 Y212.227
G1 F2400 X117.771 Y134.979 E808.14436
G0 F6000 X116.736 Y134.979
G0 X116.736 Y136.303
G0 X117.771 Y136.303
G1 F2400 X193.695 Y212.227 E819.00805
G0 F6000 X193.695 Y213.264
G0 X192.371 Y213.264
G0 X192.371 Y212.227
G1 F2400 X117.771 Y137.627 E829.68229
G0 F6000 X116.736 Y137.627
G0 X116.736 Y138.95
G0 X117.771 Y138.95
G1 F2400 X191.048 Y212.227 E840.16723
G0 F6000 X191.048 Y213.264
G0 X189.724 Y213.264
G0 X189.724 Y212.227
G1 F2400 X117.771 Y140.274 E850.46272
G0 F6000 X116.736 Y140.274
G0 X116.736 Y141.598
G0 X117.771 Y141.598
G1 F2400 X188.4 Y212.227 E860.56877
G0 F6000 X188.4 Y213.264
G0 X187.077 Y213.264
G0 X187.077 Y212.227
G1 F2400 X117.771 Y142.921 E870.48551
G0 F6000 X116.736 Y142.921
G0 X116.736 Y144.245
G0 X117.771 Y144.245
G1 F2400 X185.753 Y212.227 E880.21281
G0 F6000 X185.753 Y213.264
G0 X184.429 Y213.264
G0 X184.429 Y212.227
G1 F2400 X117.771 Y145.569 E889.75066
G0 F6000 X116.736 Y145.569
G0 X116.736 Y146.892
G0 X117.771 Y146.892
G1 F2400 X183.106 Y212.227 E899.0992
G0 F6000 X183.106 Y213.264
G0 X181.782 Y213.264
G0 X181.782 Y212.227
G1 F2400 X117.771 Y148.216 E908.2583
G0 F6000 X116.736 Y148.216
G0 X116.736 Y149.54
G0 X117.771 Y149.54
G1 F2400 X180.458 Y212.227 E917.22796
G0 F6000 X180.458 Y213.264
G0 X179.134 Y213.264
G0 X179.134 Y212.227
G1 F2400 X117.771 Y150.864 E926.00817
G0 F6000 X116.736 Y150.864
G0 X116.736 Y152.187
G0 X117.771 Y152.187
G1 F2400 X177.811 Y212.227 E934.59907
G0 F6000 X177.811 Y213.264
G0 X176.487 Y213.264
G0 X176.487 Y212.227
G1 F2400 X117.771 Y153.511 E943.00053
G0 F6000 X116.736 Y153.511
G0 X116.736 Y154.835
G0 X117.771 Y154.835
G1 F2400 X175.163 Y212.227 E951.21254
G0 F6000 X175.163 Y213.264
G0 X173.84 Y213.264
G0 X173.84 Y212.227
G1 F2400 X117.771 Y156.158 E959.23525
G0 F6000 X116.736 Y156.158
G0 X116.736 Y157.482
G0 X117.771 Y157.482
G1 F2400 X172.516 Y212.227 E967.06851
G0 F6000 X172.516 Y213.264
G0 X171.192 Y213.264
G0 X171.192 Y212.227
G1 F2400 X117.771 Y158.806 E974.71233
G0 F6000 X116.736 Y158.806
G0 X116.736 Y160.129
G0 X117.771 Y160.129
G1 F2400 X169.868 Y212.227 E982.16677
G0 F6000 X169.868 Y213.264
G0 X168.545 Y213.264
G0 X168.545 Y212.227
G1 F2400 X117.771 Y161.453 E989.43184
G0 F6000 X116.736 Y161.453
G0 X116.736 Y162.777
G0 X117.771 Y162.777
G1 F2400 X167.221 Y212.227 E996.50746
G0 F6000 X167.221 Y213.264
G0 X165.897 Y213.264
G0 X165.897 Y212.227
G1 F2400 X117.771 Y164.101 E1003.39363
G0 F6000 X116.736 Y164.101
G0 X116.736 Y165.424
G0 X117.771 Y165.424
G1 F2400 X164.574 Y212.227 E1010.0905
G0 F6000 X164.574 Y213.264
G0 X163.25 Y213.264
G0 X163.25 Y212.227
G1 F2400 X117.771 Y166.748 E1016.59793
G0 F6000 X116.736 Y166.748
G0 X116.736 Y168.072
G0 X117.771 Y168.072
G1 F2400 X161.926 Y212.227 E1022.9159
G0 F6000 X161.926 Y213.264
G0 X160.603 Y213.264
G0 X160.603 Y212.227
G1 F2400 X117.771 Y169.395 E1029.04458
G0 F6000 X116.736 Y169.395
G0 X116.736 Y170.719
G0 X117.771 Y170.719
G1 F2400 X159.279 Y212.227 E1034.98381
G0 F6000 X159.279 Y213.264
G0 X157.955 Y213.264
G0 X157.955 Y212.227
G1 F2400 X117.771 Y172.043 E1040.73359
G0 F6000 X116.736 Y172.043
G0 X116.736 Y173.367
G0 X117.771 Y173.367
G1 F2400 X156.631 Y212.227 E1046.29392
G0 F6000 X156.631 Y213.264
G0 X155.308 Y213.264
G0 X155.308 Y212.227
G1 F2400 X117.771 Y174.69 E1051.66496
G0 F6000 X116.736 Y174.69
G0 X116.736 Y176.014
G0 X117.771 Y176.014
G1 F2400 X153.984 Y212.227 E1056.84654
G0 F6000 X153.984 Y213.264
G0 X152.66 Y213.264
G0 X152.66 Y212.227
G1 F2400 X117.771 Y177.338 E1061.83868
G0 F6000 X116.736 Y177.338
G0 X116.736 Y178.661
G0 X117.771 Y178.661
G1 F2400 X151.337 Y212.227 E1066.64152
G0 F6000 X151.337 Y213.264
G0 X150.013 Y213.264
G0 X150.013 Y212.227
G1 F2400 X117.771 Y179.985 E1071.25491
G0 F6000 X116.736 Y179.985
G0 X116.736 Y181.309
G0 X117.771 Y181.309
G1 F2400 X148.689 Y212.227 E1075.67885
G0 F6000 X148.689 Y213.264
G0 X147.366 Y213.264
G0 X147.366 Y212.227
G1 F2400 X117.771 Y182.632 E1079.91349
G0 F6000 X116.736 Y182.632
G0 X116.736 Y183.956
G0 X117.771 Y183.956
G1 F2400 X146.042 Y212.227 E1083.95869
G0 F6000 X146.042 Y213.264
G0 X144.718 Y213.264
G0 X144.718 Y212.227
