;FLAVOR:Marlin
;TIME:5756
;Filament used: 8.7583m
;Layer height: 0.26
;MINX:124.601
;MINY:134.351
;MINZ:0.26
;MAXX:188.35
;MAXY:196.319
;MAXZ:13.78
;Generated with Cura_SteamEngine 5.4.0
M140 S60


; Pre-Processed for Cancel-Object support by preprocess_cancellation v0.2.0
; 4 known objects
EXCLUDE_OBJECT_DEFINE NAME=Upper_Belt_F_Primo_STL_1 CENTER=134.238,162.859 POLYGON=[[127.96,137.71],[127.96,192.29],[141.24,192.29],[141.24,137.71]]
EXCLUDE_OBJECT_DEFINE NAME=Upper_Belt_F_Primo_Mirrored_stl_1 CENTER=150.221,162.866 POLYGON=[[143.26,137.71],[143.26,192.29],[156.54,192.29],[156.54,137.71]]
EXCLUDE_OBJECT_DEFINE NAME=Upper_Belt_F_Primo_Mirrored_stl CENTER=165.387,162.900 POLYGON=[[158.41,137.71],[158.41,192.29],[171.69,192.29],[171.69,137.71]]
EXCLUDE_OBJECT_DEFINE NAME=Upper_Belt_F_Primo_STL CENTER=179.771,162.907 POLYGON=[[125.147,134.897],[125.147,195.773],[187.804,195.773],[187.804,134.897]]
M105
M190 S60
M104 S210
M105
M109 S210
M82 ;absolute extrusion mode
START_GCODE
G92 E0
G92 E0
G1 F1500 E-1
;LAYER_COUNT:53
;LAYER:0
M107
M204 S500
G0 F6000 X126.173 Y135.269 Z0.26
;TYPE:SKIRT
G1 F1500 E0
G1 F3600 X126.94 Y134.791 E0.05334
G1 X127.595 Y134.537 E0.0948
G1 X128.35 Y134.366 E0.14049
G1 X129.461 Y134.351 E0.20607
G1 X138.136 Y134.355 E0.71807
G1 X139.655 Y134.377 E0.80773
G1 X140.9 Y134.412 E0.88124
G1 X144.149 Y134.403 E1.073
G1 X146.705 Y134.354 E1.22388
G1 X155.141 Y134.353 E1.72177
G1 X157.04 Y134.382 E1.83386
G1 X160.639 Y134.378 E2.04628
G1 X161.891 Y134.354 E2.12018
G1 X170.287 Y134.353 E2.61572
G1 X170.988 Y134.363 E2.65709
G1 X173.712 Y134.363 E2.81787
G1 X174.694 Y134.351 E2.87583
G1 X183.732 Y134.355 E3.40925
G1 X184.44 Y134.366 E3.45104
G1 X184.949 Y134.413 E3.48121
G1 X185.571 Y134.564 E3.51899
G1 X186.271 Y134.871 E3.5641
G1 X186.889 Y135.285 E3.608
G1 X187.328 Y135.691 E3.6433
G1 X187.648 Y136.089 E3.67344
G1 X187.973 Y136.641 E3.71124
G1 X188.194 Y137.239 E3.74887
G1 X188.333 Y137.894 E3.78839
G1 X188.35 Y138.75 E3.83892
G1 X188.35 Y191.818 E6.971
G1 X188.338 Y192.586 E7.01633
G1 X188.291 Y193.095 E7.0465
G1 X188.14 Y193.716 E7.08422
G1 X187.922 Y194.226 E7.11696
G1 X187.559 Y194.804 E7.15724
G1 X187.222 Y195.189 E7.18744
G1 X186.769 Y195.576 E7.2226
G1 X186.262 Y195.888 E7.25774
G1 X185.672 Y196.135 E7.29549
G1 X185.058 Y196.271 E7.3326
G1 X184.501 Y196.319 E7.3656
G1 X171.984 Y196.31 E8.10435
G1 X170.848 Y196.319 E8.1714
G1 X161.396 Y196.319 E8.72926
G1 X159.718 Y196.295 E8.82831
G1 X156.978 Y196.295 E8.99002
G1 X155.907 Y196.317 E9.05325
G1 X146.223 Y196.319 E9.6248
G1 X144.612 Y196.296 E9.71989
G1 X143.598 Y196.267 E9.77976
G1 X140.896 Y196.265 E9.93923
G1 X138.625 Y196.319 E10.0733
G1 X129.072 Y196.319 E10.63712
G1 X128.331 Y196.307 E10.68086
G1 X127.822 Y196.259 E10.71104
G1 X127.201 Y196.108 E10.74876
G1 X126.693 Y195.89 E10.78138
G1 X126.115 Y195.527 E10.82167
G1 X125.73 Y195.19 E10.85186
G1 X125.343 Y194.737 E10.88703
G1 X125.031 Y194.229 E10.92221
G1 X124.784 Y193.639 E10.95996
G1 X124.648 Y193.023 E10.9972
G1 X124.601 Y192.458 E11.03066
G1 X124.605 Y139.084 E14.1808
G1 X124.617 Y138.366 E14.22318
G1 X124.665 Y137.856 E14.25341
G1 X124.806 Y137.277 E14.28858
G1 X125.081 Y136.623 E14.33046
G1 X125.334 Y136.178 E14.36067
G1 X125.702 Y135.708 E14.3959
G1 X126.173 Y135.269 E14.4339
G0 F6000 X126.128 Y136.049
G1 F3600 X126.506 Y135.704 E14.46411
G1 X127.185 Y135.281 E14.51132
G1 X127.792 Y135.046 E14.54974
G1 X128.412 Y134.911 E14.58719
G1 X129.461 Y134.897 E14.6491
G1 X138.128 Y134.901 E15.16063
G1 X139.64 Y134.923 E15.24988
G1 X140.887 Y134.958 E15.32351
G1 X144.16 Y134.949 E15.51668
G1 X146.705 Y134.9 E15.66691
G1 X155.133 Y134.899 E16.16434
G1 X157.033 Y134.928 E16.27649
G1 X160.65 Y134.924 E16.48996
G1 X161.891 Y134.9 E16.56322
G1 X170.279 Y134.899 E17.05828
G1 X170.98 Y134.909 E17.09966
G1 X173.719 Y134.909 E17.26131
G1 X174.694 Y134.897 E17.31886
G1 X183.725 Y134.901 E17.85187
G1 X184.39 Y134.91 E17.89113
G1 X184.899 Y134.957 E17.92129
G1 X185.395 Y135.083 E17.9515
G1 X186.006 Y135.351 E17.99088
G1 X186.523 Y135.69 E18.02736
G1 X186.902 Y136.033 E18.05753
G1 X187.222 Y136.431 E18.08767
G1 X187.477 Y136.874 E18.11784
G1 X187.66 Y137.352 E18.14805
G1 X187.788 Y137.955 E18.18443
G1 X187.804 Y138.761 E18.23201
G1 X187.804 Y191.81 E21.36297
G1 X187.794 Y192.536 E21.40582
G1 X187.747 Y193.045 E21.43599
G1 X187.621 Y193.541 E21.4662
G1 X187.42 Y194.011 E21.49637
G1 X187.148 Y194.444 E21.52655
G1 X186.811 Y194.829 E21.55674
G1 X186.419 Y195.157 E21.58691
G1 X185.981 Y195.42 E21.61706
G1 X185.507 Y195.612 E21.64725
G1 X185.009 Y195.727 E21.67741
G1 X184.501 Y195.773 E21.70752
G1 X171.98 Y195.764 E22.44651
G1 X170.844 Y195.773 E22.51356
G1 X161.404 Y195.773 E23.07071
G1 X159.726 Y195.749 E23.16975
G1 X156.967 Y195.749 E23.33259
G1 X155.907 Y195.771 E23.39516
G1 X146.231 Y195.773 E23.96624
G1 X144.628 Y195.75 E24.06086
G1 X143.614 Y195.721 E24.12073
G1 X140.883 Y195.719 E24.28192
G1 X138.612 Y195.773 E24.41599
G1 X129.08 Y195.773 E24.97857
G1 X128.382 Y195.763 E25.01977
G1 X127.873 Y195.715 E25.04994
G1 X127.377 Y195.589 E25.08015
G1 X126.908 Y195.388 E25.11026
G1 X126.475 Y195.116 E25.14044
G1 X126.09 Y194.779 E25.17064
G1 X125.762 Y194.387 E25.20081
G1 X125.499 Y193.948 E25.23101
G1 X125.307 Y193.474 E25.26119
G1 X125.192 Y192.976 E25.29136
G1 X125.147 Y192.458 E25.32205
G1 X125.151 Y139.092 E28.47171
G1 X125.161 Y138.417 E28.51156
G1 X125.209 Y137.907 E28.54179
G1 X125.335 Y137.412 E28.57194
G1 X125.556 Y136.893 E28.60523
G1 X125.809 Y136.448 E28.63544
G1 X126.128 Y136.049 E28.66559
G1 F1500 E27.66559
;MESH:Upper Belt F Primo.STL(1)
EXCLUDE_OBJECT_START NAME=Upper_Belt_F_Primo_STL_1
G0 F6000 X127.852 Y138.101
G0 X128.848 Y138.594
G0 X130.01 Y190.911
G0 X137.566 Y191.135
;TYPE:WALL-INNER
G1 F1500 E28.66559
G1 F3600 X137.566 Y139.539 E31.71079
G1 X129.79 Y139.537 E32.16973
G1 X129.786 Y191.135 E35.21505
G1 X137.566 Y191.135 E35.67423
G0 F6000 X138.112 Y191.681
G1 F3600 X138.112 Y138.993 E38.78388
G1 X129.244 Y138.991 E39.30727
G1 X129.24 Y191.681 E42.41704
G1 X138.112 Y191.681 E42.94067
G0 F6000 X138.658 Y192.227
;TYPE:WALL-OUTER
G1 F3600 X138.658 Y138.447 E46.11477
G1 X128.796 Y138.444 E46.69683
G1 X128.697 Y138.488 E46.70322
G1 X128.694 Y192.227 E49.8749
G1 X138.658 Y192.227 E50.46298
G0 F6000 X138.658 Y192.027
G0 X138.051 Y191.62
G0 X137.414 Y190.61
G0 X137.041 Y190.61
;TYPE:SKIN
G1 F3600 X130.311 Y190.61 E50.86018
G1 X130.315 Y140.063 E53.84347
G1 X137.041 Y140.064 E54.24044
G1 X137.041 Y190.61 E57.22367
G0 F6000 X137.414 Y190.61
G0 X130.879 Y190.983
G0 X130.879 Y190.336
G1 F3600 X130.584 Y190.04 E57.24834
G0 F6000 X130.584 Y189.268
G1 F3600 X131.651 Y190.336 E57.33744
G0 F6000 X132.424 Y190.336
G1 F3600 X130.584 Y188.496 E57.49102
G0 F6000 X130.584 Y187.724
G1 F3600 X133.196 Y190.336 E57.70903
G0 F6000 X133.968 Y190.336
G1 F3600 X130.584 Y186.951 E57.99153
G0 F6000 X130.584 Y186.179
G1 F3600 X134.74 Y190.336 E58.33846
G0 F6000 X135.512 Y190.336
G1 F3600 X130.584 Y185.407 E58.74983
G0 F6000 X130.584 Y184.635
G1 F3600 X136.284 Y190.336 E59.22563
G0 F6000 X136.767 Y190.046
G1 F3600 X130.584 Y183.863 E59.74171
G0 F6000 X130.584 Y183.091
G1 F3600 X136.767 Y189.274 E60.25778
G0 F6000 X136.767 Y188.502
G1 F3600 X130.584 Y182.318 E60.7739
G0 F6000 X130.584 Y181.547
G1 F3600 X136.767 Y187.73 E61.28998
G0 F6000 X136.767 Y186.958
G1 F3600 X130.584 Y180.775 E61.80605
G0 F6000 X130.584 Y180.003
G1 F3600 X136.767 Y186.186 E62.32213
G0 F6000 X136.767 Y185.414
G1 F3600 X130.584 Y179.231 E62.83821
G0 F6000 X130.584 Y178.458
G1 F3600 X136.767 Y184.641 E63.35428
G0 F6000 X136.767 Y183.869
G1 F3600 X130.584 Y177.686 E63.87036
G0 F6000 X130.584 Y176.914
G1 F3600 X136.767 Y183.097 E64.38644
G0 F6000 X136.767 Y182.325
G1 F3600 X130.584 Y176.142 E64.90251
G0 F6000 X130.584 Y175.37
G1 F3600 X136.767 Y181.553 E65.41859
G0 F6000 X136.767 Y180.781
G1 F3600 X130.584 Y174.598 E65.93467
G0 F6000 X130.584 Y173.825
G1 F3600 X136.767 Y180.008 E66.45074
G0 F6000 X136.767 Y179.236
G1 F3600 X130.585 Y173.054 E66.96674
G0 F6000 X130.585 Y172.282
G1 F3600 X136.767 Y178.464 E67.48273
G0 F6000 X136.767 Y177.692
G1 F3600 X130.585 Y171.51 E67.99872
G0 F6000 X130.585 Y170.738
G1 F3600 X136.767 Y176.92 E68.51472
G0 F6000 X136.767 Y176.148
G1 F3600 X130.585 Y169.965 E69.03075
G0 F6000 X130.585 Y169.193
G1 F3600 X136.767 Y175.375 E69.54675
G0 F6000 X136.767 Y174.603
G1 F3600 X130.585 Y168.421 E70.06274
G0 F6000 X130.585 Y167.649
G1 F3600 X136.767 Y173.831 E70.57873
G0 F6000 X136.767 Y173.059
G1 F3600 X130.585 Y166.877 E71.09473
G0 F6000 X130.585 Y166.105
G1 F3600 X136.767 Y172.287 E71.61072
G0 F6000 X136.767 Y171.515
G1 F3600 X130.586 Y165.333 E72.12667
G0 F6000 X130.586 Y164.561
G1 F3600 X136.767 Y170.742 E72.64258
G0 F6000 X136.767 Y169.97
G1 F3600 X130.586 Y163.789 E73.15849
G0 F6000 X130.586 Y163.017
G1 F3600 X136.767 Y169.198 E73.6744
G0 F6000 X136.767 Y168.426
G1 F3600 X130.586 Y162.244 E74.19035
G0 F6000 X130.586 Y161.472
G1 F3600 X136.767 Y167.654 E74.7063
G0 F6000 X136.767 Y166.882
G1 F3600 X130.586 Y160.7 E75.22225
G0 F6000 X130.586 Y159.928
G1 F3600 X136.767 Y166.109 E75.73816
G0 F6000 X136.767 Y165.337
G1 F3600 X130.586 Y159.156 E76.25407
G0 F6000 X130.586 Y158.384
G1 F3600 X136.767 Y164.565 E76.76998
G0 F6000 X136.767 Y163.793
G1 F3600 X130.586 Y157.611 E77.28593
G0 F6000 X130.587 Y156.84
G1 F3600 X136.767 Y163.021 E77.8018
G0 F6000 X136.767 Y162.249
G1 F3600 X130.587 Y156.068 E78.31767
G0 F6000 X130.587 Y155.296
G1 F3600 X136.767 Y161.477 E78.83354
G0 F6000 X136.767 Y160.704
G1 F3600 X130.587 Y154.524 E79.34937
G0 F6000 X130.587 Y153.751
G1 F3600 X136.767 Y159.932 E79.86523
G0 F6000 X136.767 Y159.16
G1 F3600 X130.587 Y152.979 E80.3811
G0 F6000 X130.587 Y152.207
G1 F3600 X136.767 Y158.388 E80.89697
G0 F6000 X136.767 Y157.616
G1 F3600 X130.587 Y151.435 E81.41284
G0 F6000 X130.587 Y150.663
G1 F3600 X136.767 Y156.844 E81.92871
G0 F6000 X136.767 Y156.071
G1 F3600 X130.587 Y149.891 E82.44453
G0 F6000 X130.587 Y149.118
G1 F3600 X136.767 Y155.299 E82.9604
G0 F6000 X136.767 Y154.527
G1 F3600 X130.587 Y148.347 E83.47623
G0 F6000 X130.587 Y147.575
G1 F3600 X136.767 Y153.755 E83.99205
G0 F6000 X136.767 Y152.983
G1 F3600 X130.587 Y146.803 E84.50788
G0 F6000 X130.587 Y146.03
G1 F3600 X136.767 Y152.211 E85.02375
G0 F6000 X136.767 Y151.438
G1 F3600 X130.587 Y145.258 E85.53957
G0 F6000 X130.587 Y144.486
G1 F3600 X136.767 Y150.666 E86.0554
G0 F6000 X136.767 Y149.894
G1 F3600 X130.587 Y143.714 E86.57123
G0 F6000 X130.587 Y142.942
G1 F3600 X136.767 Y149.122 E87.08705
G0 F6000 X136.767 Y148.35
G1 F3600 X130.587 Y142.17 E87.60288
G0 F6000 X130.587 Y141.398
G1 F3600 X136.767 Y147.578 E88.1187
G0 F6000 X136.767 Y146.805
G1 F3600 X130.587 Y140.625 E88.63453
G0 F6000 X131.07 Y140.335
G1 F3600 X136.767 Y146.033 E89.11008
G0 F6000 X136.767 Y145.261
G1 F3600 X131.842 Y140.335 E89.5212
G0 F6000 X132.614 Y140.335
G1 F3600 X136.767 Y144.489 E89.86788
G0 F6000 X136.767 Y143.717
G1 F3600 X133.386 Y140.335 E90.15013
G0 F6000 X134.158 Y140.335
G1 F3600 X136.767 Y142.945 E90.36793
G0 F6000 X136.767 Y142.173
G1 F3600 X134.93 Y140.335 E90.5213
G0 F6000 X135.702 Y140.335
G1 F3600 X136.767 Y141.4 E90.6102
G0 F6000 X136.767 Y140.628
G1 F3600 X136.475 Y140.335 E90.63461
G0 F6000 X136.476 Y139.529
G1 F1500 E89.63461
;MESH:Upper Belt F Primo Mirrored.stl(1)
EXCLUDE_OBJECT_END NAME=Upper_Belt_F_Primo_STL_1
EXCLUDE_OBJECT_START NAME=Upper_Belt_F_Primo_Mirrored_stl_1
G0 F6000 X137.342 Y139.763
G0 X138.501 Y191.135
G0 X139.596 Y191.135
G0 X144.905 Y191.136
G0 X145.98 Y191.135
G0 X154.715 Y191.135
;TYPE:WALL-INNER
G1 F1500 E90.63461
G1 F3600 X154.715 Y139.536 E93.67999
G1 X146.933 Y139.537 E94.13928
G1 X146.935 Y191.135 E97.1846
G1 X154.715 Y191.135 E97.64378
G0 F6000 X155.261 Y191.681
G1 F3600 X155.261 Y138.99 E100.75361
G1 X146.387 Y138.991 E101.27735
G1 X146.389 Y191.681 E104.38712
G1 X155.261 Y191.681 E104.91075
G0 F6000 X155.807 Y192.227
;TYPE:WALL-OUTER
G1 F3600 X155.806 Y138.533 E108.07977
G1 X155.758 Y138.445 E108.08569
G1 X145.841 Y138.445 E108.67099
G1 X145.843 Y192.227 E111.84521
G1 X155.807 Y192.227 E112.43329
G0 F6000 X155.807 Y192.027
G0 X155.2 Y191.62
G0 X154.563 Y190.61
G0 X154.19 Y190.61
;TYPE:SKIN
G1 F3600 X147.46 Y190.61 E112.83049
G1 X147.458 Y140.062 E115.81384
G1 X154.19 Y140.061 E116.21117
G1 X154.19 Y190.61 E119.19457
G0 F6000 X154.563 Y190.61
G0 X147.867 Y190.983
G0 X147.867 Y190.336
G1 F3600 X147.732 Y190.201 E119.20584
G0 F6000 X147.732 Y189.428
G1 F3600 X148.639 Y190.336 E119.28159
G0 F6000 X149.411 Y190.336
G1 F3600 X147.732 Y188.656 E119.42177
G0 F6000 X147.732 Y187.884
G1 F3600 X150.183 Y190.336 E119.62639
G0 F6000 X150.955 Y190.336
G1 F3600 X147.732 Y187.112 E119.89545
G0 F6000 X147.732 Y186.34
G1 F3600 X151.728 Y190.336 E120.22898
G0 F6000 X152.5 Y190.336
G1 F3600 X147.732 Y185.568 E120.62695
G0 F6000 X147.732 Y184.795
G1 F3600 X153.272 Y190.336 E121.0894
G0 F6000 X153.917 Y190.208
G1 F3600 X147.732 Y184.023 E121.60564
G0 F6000 X147.732 Y183.251
G1 F3600 X153.917 Y189.436 E122.12189
G0 F6000 X153.917 Y188.664
G1 F3600 X147.732 Y182.479 E122.63813
G0 F6000 X147.732 Y181.707
G1 F3600 X153.917 Y187.892 E123.15437
G0 F6000 X153.917 Y187.12
G1 F3600 X147.732 Y180.935 E123.67062
G0 F6000 X147.732 Y180.163
G1 F3600 X153.917 Y186.348 E124.18686
G0 F6000 X153.917 Y185.575
G1 F3600 X147.732 Y179.39 E124.70311
G0 F6000 X147.732 Y178.618
G1 F3600 X153.917 Y184.803 E125.21935
G0 F6000 X153.917 Y184.031
G1 F3600 X147.732 Y177.846 E125.73559
G0 F6000 X147.731 Y177.073
G1 F3600 X153.917 Y183.259 E126.25192
G0 F6000 X153.917 Y182.487
G1 F3600 X147.731 Y176.301 E126.76825
G0 F6000 X147.731 Y175.529
G1 F3600 X153.917 Y181.715 E127.28457
G0 F6000 X153.917 Y180.942
G1 F3600 X147.731 Y174.757 E127.80086
G0 F6000 X147.731 Y173.985
G1 F3600 X153.917 Y180.17 E128.31715
G0 F6000 X153.917 Y179.398
G1 F3600 X147.731 Y173.212 E128.83347
G0 F6000 X147.731 Y172.44
G1 F3600 X153.917 Y178.626 E129.3498
G0 F6000 X153.917 Y177.854
G1 F3600 X147.731 Y171.668 E129.86613
G0 F6000 X147.731 Y170.896
G1 F3600 X153.917 Y177.082 E130.38245
G0 F6000 X153.917 Y176.31
G1 F3600 X147.731 Y170.124 E130.89878
G0 F6000 X147.731 Y169.352
G1 F3600 X153.917 Y175.537 E131.41507
G0 F6000 X153.917 Y174.765
G1 F3600 X147.731 Y168.579 E131.93139
G0 F6000 X147.731 Y167.807
G1 F3600 X153.917 Y173.993 E132.44772
G0 F6000 X153.917 Y173.221
G1 F3600 X147.731 Y167.035 E132.96405
G0 F6000 X147.731 Y166.263
G1 F3600 X153.917 Y172.449 E133.48037
G0 F6000 X153.917 Y171.677
G1 F3600 X147.731 Y165.491 E133.9967
G0 F6000 X147.73 Y164.718
G1 F3600 X153.917 Y170.904 E134.51307
G0 F6000 X153.917 Y170.132
G1 F3600 X147.73 Y163.946 E135.02944
G0 F6000 X147.73 Y163.174
G1 F3600 X153.917 Y169.36 E135.54581
G0 F6000 X153.917 Y168.588
G1 F3600 X147.73 Y162.401 E136.06222
G0 F6000 X147.73 Y161.629
G1 F3600 X153.917 Y167.816 E136.57863
G0 F6000 X153.917 Y167.044
G1 F3600 X147.73 Y160.857 E137.09504
G0 F6000 X147.73 Y160.085
G1 F3600 X153.917 Y166.271 E137.61141
G0 F6000 X153.917 Y165.499
G1 F3600 X147.73 Y159.313 E138.12778
G0 F6000 X147.73 Y158.541
G1 F3600 X153.916 Y164.726 E138.64406
G0 F6000 X153.916 Y163.954
G1 F3600 X147.73 Y157.768 E139.16039
G0 F6000 X147.73 Y156.996
G1 F3600 X153.916 Y163.182 E139.67672
G0 F6000 X153.916 Y162.41
G1 F3600 X147.73 Y156.224 E140.19304
G0 F6000 X147.73 Y155.452
G1 F3600 X153.916 Y161.638 E140.70937
G0 F6000 X153.916 Y160.866
G1 F3600 X147.73 Y154.68 E141.2257
G0 F6000 X147.73 Y153.908
G1 F3600 X153.916 Y160.093 E141.74198
G0 F6000 X153.916 Y159.321
G1 F3600 X147.73 Y153.135 E142.25831
G0 F6000 X147.73 Y152.363
G1 F3600 X153.916 Y158.549 E142.77464
G0 F6000 X153.916 Y157.777
G1 F3600 X147.73 Y151.59 E143.29101
G0 F6000 X147.73 Y150.818
G1 F3600 X153.916 Y157.005 E143.80738
G0 F6000 X153.916 Y156.233
G1 F3600 X147.73 Y150.046 E144.32374
G0 F6000 X147.73 Y149.274
G1 F3600 X153.916 Y155.46 E144.84007
G0 F6000 X153.916 Y154.688
G1 F3600 X147.73 Y148.502 E145.3564
G0 F6000 X147.73 Y147.73
G1 F3600 X153.916 Y153.916 E145.87273
G0 F6000 X153.916 Y153.144
G1 F3600 X147.73 Y146.958 E146.38905
G0 F6000 X147.73 Y146.185
G1 F3600 X153.916 Y152.372 E146.90542
