;FLAVOR:Marlin
;TIME:357
;Filament used: 0.878272m
;Layer height: 0.26
;MINX:137.665
;MINY:142.428
;MINZ:0.26
;MAXX:176.235
;MAXY:187.582
;MAXZ:4.42
;Generated with Cura_SteamEngine 5.4.0
M140 S60


; Pre-Processed for Cancel-Object support by preprocess_cancellation v0.2.0
; 2 known objects
EXCLUDE_OBJECT_DEFINE NAME=Wire_Darryl_STL_1 CENTER=148.882,160.544 POLYGON=[[141.961,146.705],[141.961,183.289],[155.84,183.289],[155.84,146.705]]
EXCLUDE_OBJECT_DEFINE NAME=Wire_Darryl_STL CENTER=164.648,160.836 POLYGON=[[138.601,143.365],[138.601,186.648],[175.299,186.648],[175.299,143.365]]
M105
M190 S60
M104 S210
M105
M109 S210
M82 ;absolute extrusion mode
START_GCODE
G92 E0
G92 E0
G1 F1500 E-1
;LAYER_COUNT:17
;LAYER:0
M107
G0 F6000 X140.757 Y145.922 Z0.26
;TYPE:SKIRT
G1 F1500 E0
G1 F2400 X141.631 Y145.099 E0.12754
G1 X142.18 Y144.667 E0.20175
G1 X143.138 Y144.012 E0.32504
G1 X144.085 Y143.514 E0.43871
G1 X144.988 Y143.115 E0.54359
G1 X145.687 Y142.89 E0.6216
G1 X146.898 Y142.604 E0.75379
G1 X148.299 Y142.428 E0.9038
G1 X149.204 Y142.439 E0.99995
G1 X149.797 Y142.465 E1.06301
G1 X152.911 Y142.644 E1.39437
G1 X155.669 Y142.72 E1.68748
G1 X158.319 Y142.718 E1.96901
G1 X161.064 Y142.638 E2.26075
G1 X163.357 Y142.512 E2.50472
G1 X164.544 Y142.433 E2.6311
G1 X165.546 Y142.441 E2.73755
G1 X166.173 Y142.495 E2.80441
G1 X167.139 Y142.632 E2.90806
G1 X168.453 Y142.943 E3.05151
G1 X169.296 Y143.279 E3.14792
G1 X170.22 Y143.683 E3.25505
G1 X171.216 Y144.301 E3.37958
G1 X171.784 Y144.709 E3.45387
G1 X172.552 Y145.337 E3.55927
G1 X173.284 Y146.076 E3.66977
G1 X174.117 Y147.103 E3.81025
G1 X174.824 Y148.209 E3.94971
G1 X175.48 Y149.604 E4.11347
G1 X175.708 Y150.258 E4.18705
G1 X175.875 Y150.876 E4.25506
G1 X176.054 Y151.689 E4.3435
G1 X176.211 Y152.863 E4.46933
G1 X176.234 Y154.025 E4.5928
G1 X176.235 Y176.896 E7.02253
G1 X176.222 Y177.63 E7.10052
G1 X176.164 Y178.235 E7.16509
G1 X175.952 Y179.482 E7.29947
G1 X175.6 Y180.571 E7.42105
G1 X175.195 Y181.53 E7.53164
G1 X174.694 Y182.451 E7.64303
G1 X173.864 Y183.574 E7.79138
G1 X172.954 Y184.543 E7.9326
G1 X172.016 Y185.315 E8.06166
G1 X171.238 Y185.833 E8.16096
G1 X170.372 Y186.314 E8.26619
G1 X169.534 Y186.693 E8.3639
G1 X168.986 Y186.901 E8.42617
G1 X167.545 Y187.328 E8.58584
G1 X166.607 Y187.468 E8.68659
G1 X165.757 Y187.55 E8.77731
G1 X164.944 Y187.582 E8.86375
G1 X161.164 Y187.363 E9.26599
G1 X158.401 Y187.284 E9.55964
G1 X155.751 Y187.282 E9.84117
G1 X153.011 Y187.359 E10.13237
G1 X150.692 Y187.495 E10.37916
G1 X150.592 Y187.493 E10.38978
G1 X149.146 Y187.58 E10.54368
G1 X148.352 Y187.559 E10.62806
G1 X147.656 Y187.509 E10.70219
G1 X146.481 Y187.337 E10.82835
G1 X145.741 Y187.163 E10.90911
G1 X144.831 Y186.87 E11.01067
G1 X144.157 Y186.605 E11.08761
G1 X143.48 Y186.29 E11.16694
G1 X142.88 Y185.973 E11.23903
G1 X142.298 Y185.613 E11.31173
G1 X141.372 Y184.912 E11.43511
G1 X140.934 Y184.522 E11.49742
G1 X140.324 Y183.894 E11.59043
G1 X139.723 Y183.167 E11.69063
G1 X139.33 Y182.624 E11.76184
G1 X138.756 Y181.647 E11.88222
G1 X138.209 Y180.371 E12.02971
G1 X137.837 Y179.022 E12.17837
G1 X137.678 Y177.666 E12.32342
G1 X137.665 Y176.834 E12.41182
G1 X137.67 Y154.028 E14.83464
G1 X137.68 Y153.348 E14.90689
G1 X137.764 Y152.233 E15.02568
G1 X137.93 Y151.212 E15.13557
G1 X138.1 Y150.574 E15.20571
G1 X138.348 Y149.849 E15.28711
G1 X138.612 Y149.154 E15.3661
G1 X139 Y148.355 E15.46046
G1 X139.51 Y147.497 E15.56649
G1 X140.08 Y146.703 E15.67033
G1 X140.757 Y145.922 E15.78013
G0 F6000 X141.399 Y146.603
G1 F2400 X142.273 Y145.78 E15.90767
G1 X142.708 Y145.44 E15.96633
G1 X143.666 Y144.785 E16.08961
G1 X144.467 Y144.368 E16.18555
G1 X145.278 Y144.005 E16.27994
G1 X145.906 Y143.8 E16.35013
G1 X147.015 Y143.533 E16.47131
G1 X148.354 Y143.365 E16.61467
G1 X149.164 Y143.374 E16.70073
G1 X149.743 Y143.399 E16.7623
G1 X152.885 Y143.58 E17.09665
G1 X155.644 Y143.656 E17.38986
G1 X158.346 Y143.654 E17.67691
G1 X161.103 Y143.574 E17.96993
G1 X163.408 Y143.447 E18.21517
G1 X164.606 Y143.367 E18.34273
G1 X165.536 Y143.377 E18.44153
G1 X166.045 Y143.422 E18.49582
G1 X166.924 Y143.543 E18.59008
G1 X168.172 Y143.838 E18.72632
G1 X168.921 Y144.137 E18.812
G1 X169.786 Y144.515 E18.91228
G1 X170.722 Y145.096 E19.02932
G1 X171.195 Y145.437 E19.09126
G1 X171.89 Y145.999 E19.18622
G1 X172.557 Y146.666 E19.28643
G1 X173.39 Y147.693 E19.42691
G1 X174.001 Y148.659 E19.54834
G1 X174.597 Y149.915 E19.69603
G1 X174.804 Y150.502 E19.76216
G1 X174.971 Y151.12 E19.83017
G1 X175.126 Y151.813 E19.90561
G1 X175.283 Y152.987 E20.03144
G1 X175.298 Y154.025 E20.14172
G1 X175.299 Y176.883 E22.57007
G1 X175.29 Y177.544 E22.6403
G1 X175.241 Y178.078 E22.69727
G1 X175.04 Y179.262 E22.82485
G1 X174.736 Y180.211 E22.93071
G1 X174.373 Y181.083 E23.03106
G1 X173.904 Y181.946 E23.1354
G1 X173.181 Y182.933 E23.26538
G1 X172.311 Y183.86 E23.40044
G1 X171.421 Y184.592 E23.52286
G1 X170.781 Y185.016 E23.60442
G1 X169.984 Y185.462 E23.70145
G1 X169.197 Y185.82 E23.7933
G1 X168.72 Y186.004 E23.84761
G1 X167.347 Y186.411 E23.99975
G1 X166.517 Y186.536 E24.08892
G1 X165.667 Y186.618 E24.17964
G1 X164.998 Y186.648 E24.25078
G1 X161.191 Y186.427 E24.65591
G1 X158.428 Y186.348 E24.94956
G1 X155.726 Y186.346 E25.23661
G1 X152.985 Y186.423 E25.52791
G1 X150.706 Y186.559 E25.77046
G1 X150.574 Y186.557 E25.78448
G1 X149.17 Y186.644 E25.93392
G1 X148.419 Y186.625 E26.01373
G1 X147.723 Y186.575 E26.08786
G1 X146.695 Y186.426 E26.19822
G1 X145.955 Y186.252 E26.27897
G1 X145.171 Y185.998 E26.36653
G1 X144.551 Y185.756 E26.43723
G1 X143.915 Y185.461 E26.51171
G1 X143.367 Y185.173 E26.57748
G1 X142.861 Y184.865 E26.64041
G1 X141.991 Y184.21 E26.7561
G1 X141.603 Y183.868 E26.81105
G1 X141.045 Y183.297 E26.89587
G1 X140.477 Y182.612 E26.9904
G1 X140.137 Y182.15 E27.05134
G1 X139.593 Y181.223 E27.16553
G1 X139.094 Y180.06 E27.29997
G1 X138.758 Y178.842 E27.4342
G1 X138.614 Y177.651 E27.56165
G1 X138.601 Y176.834 E27.64846
G1 X138.606 Y154.042 E30.06979
G1 X138.616 Y153.362 E30.14204
G1 X138.689 Y152.378 E30.24686
G1 X138.835 Y151.45 E30.34666
G1 X138.986 Y150.876 E30.40972
G1 X139.225 Y150.176 E30.4883
G1 X139.455 Y149.56 E30.55815
G1 X139.806 Y148.831 E30.64411
G1 X140.273 Y148.04 E30.74169
G1 X140.791 Y147.312 E30.83661
G1 X141.399 Y146.603 E30.93584
G1 F1500 E29.93584
;MESH:Wire Darryl.STL(1)
EXCLUDE_OBJECT_START NAME=Wire_Darryl_STL_1
G0 F6000 X144.435 Y149.419
G0 X145.191 Y154.462
G0 X145.758 Y155.784
G0 X146.697 Y156.744
G0 X147.489 Y157.177
G0 X150.623 Y157.814
;TYPE:WALL-INNER
G1 F1500 E30.93584
G1 F2400 X149.896 Y158.034 E31.01653
G1 X149.244 Y158.142 E31.08674
G1 X148.514 Y158.132 E31.1643
G1 X147.876 Y158.029 E31.23296
G1 X147.215 Y157.832 E31.30623
G1 X146.291 Y157.327 E31.4181
G1 X145.676 Y156.798 E31.50428
G1 X145.168 Y156.18 E31.58926
G1 F2377.1 X144.691 Y155.259 E31.70051
G1 F2327.9 X144.467 Y154.516 E31.78551
G1 F2354.7 X144.411 Y153.895 E31.85302
G1 F2412.9 X144.415 Y153.338 E31.91188
G1 X144.502 Y152.668 E31.98327
G1 X144.73 Y151.983 E32.05956
G1 F2418.1 X145.14 Y151.174 E32.15519
G1 X145.57 Y150.622 E32.22897
G1 F2412.9 X146.19 Y150.055 E32.31775
G1 F2410.3 X146.816 Y149.661 E32.396
G1 F2412.9 X147.711 Y149.306 E32.49774
G1 F2423.3 X148.404 Y149.184 E32.57177
G1 F2428.5 X149.219 Y149.162 E32.65737
G1 F2423.3 X149.852 Y149.255 E32.72468
G1 F2412.9 X150.397 Y149.404 E32.78439
G1 F2402.6 X150.983 Y149.661 E32.85229
G1 F2407.7 X151.538 Y150.002 E32.92127
G1 F2415.5 X152.203 Y150.598 E33.01553
G1 F2420.7 X152.67 Y151.179 E33.09405
G1 F2423.3 X153.123 Y152.082 E33.20034
G1 F2415.5 X153.302 Y152.707 E33.26896
G1 F2410.3 X153.402 Y153.559 E33.35971
G1 F2377.1 X153.363 Y154.306 E33.43994
G1 F2357.2 X153.138 Y155.182 E33.53777
G1 F2387.2 X152.735 Y155.991 E33.6343
G1 F2400 X152.255 Y156.661 E33.72186
G1 X151.462 Y157.36 E33.83416
G1 X150.623 Y157.814 E33.93551
G1 F1500 E32.93551
G0 F6000 X147.757 Y158.404
G0 X144.405 Y155.56
G0 X144.447 Y151.62
G0 X143.976 Y152.523
G0 X143.892 Y153.484
G0 X143.473 Y174.598
G1 F1500 E33.93551
G1 F2400 X143.712 Y174.228 E33.9823
G1 X144.065 Y173.802 E34.04108
G1 X144.558 Y173.314 E34.11477
G1 X145.322 Y172.759 E34.21509
G1 X146.082 Y172.361 E34.30623
G1 X146.766 Y172.105 E34.38382
G1 X147.412 Y171.934 E34.45481
G1 X148.254 Y171.789 E34.54558
G1 X149.488 Y171.778 E34.67668
G1 X150.625 Y171.984 E34.79944
G1 X151.485 Y172.263 E34.89549
G1 X152.258 Y172.63 E34.98639
G1 X152.949 Y173.077 E35.07382
G1 X153.79 Y173.852 E35.19532
G1 X154.327 Y174.551 E35.28896
G1 X154.327 Y155.16 E37.34899
G1 F2372.1 X154.316 Y154.388 E37.43197
G1 F2354.7 X154.334 Y153.421 E37.5367
G1 F2392.3 X154.2 Y152.485 E37.63747
G1 F2405.1 X154.038 Y151.862 E37.70571
G1 F2392.3 X153.655 Y151.047 E37.80168
G1 F2402.6 X153.39 Y150.603 E37.85656
G1 F2415.5 X152.885 Y149.967 E37.94228
G1 F2405.1 X152.507 Y149.602 E37.99798
G1 F2407.7 X152.045 Y149.228 E38.06093
G1 F2410.3 X151.417 Y148.831 E38.13952
G1 F2402.6 X150.582 Y148.483 E38.23552
G1 F2407.7 X149.986 Y148.334 E38.30058
G1 F2412.9 X149.44 Y148.252 E38.35892
G1 F2410.3 X148.67 Y148.234 E38.44039
G1 F2407.7 X147.937 Y148.311 E38.51844
G1 F2394.9 X147.191 Y148.493 E38.60019
G1 F2387.2 X146.31 Y148.863 E38.70225
G1 F2402.6 X145.527 Y149.401 E38.80307
G1 F2410.3 X144.963 Y149.916 E38.88386
G1 F2412.9 X144.468 Y150.493 E38.96419
G1 F2402.6 X144.107 Y151.117 E39.0407
G1 F2394.9 X143.877 Y151.59 E39.09669
G1 F2397.4 X143.629 Y152.324 E39.17909
G1 F2402.6 X143.523 Y152.926 E39.24396
G1 F2407.7 X143.476 Y153.469 E39.30167
G1 F2394.9 X143.482 Y154.156 E39.37481
G1 F2342.4 X143.497 Y154.586 E39.42165
G1 F2352.3 X143.478 Y155.293 E39.49831
G1 F2400 X143.473 Y174.598 E41.5492
G0 F6000 X142.612 Y176.185
;TYPE:WALL-OUTER
G1 F2119.2 X142.588 Y176.885 E41.63347
G1 F2166.2 X142.588 Y177.386 E41.69243
G1 F2164.2 X142.69 Y178.137 E41.78172
G1 F2170.4 X142.849 Y178.732 E41.85407
G1 F2176.7 X143.117 Y179.372 E41.93534
G1 F2187.3 X143.557 Y180.108 E42.0353
G1 X143.902 Y180.528 E42.09865
G1 F2176.7 X144.423 Y181.067 E42.18646
G1 F2172.5 X145.252 Y181.669 E42.3067
G1 X146.021 Y182.062 E42.40805
G1 F2178.9 X146.64 Y182.301 E42.4857
G1 F2168.3 X147.399 Y182.521 E42.57862
G1 F2160 X148.235 Y182.64 E42.67829
G1 F2166.2 X149.022 Y182.674 E42.77101
G1 F2174.6 X149.717 Y182.619 E42.85275
G1 F2166.2 X150.375 Y182.52 E42.93107
G1 F2162.1 X151.337 Y182.256 E43.04871
G1 F2172.5 X152.13 Y181.895 E43.15096
G1 F2174.6 X152.864 Y181.465 E43.2507
G1 X153.418 Y181.013 E43.33453
G1 F2176.7 X154.023 Y180.382 E43.43693
G1 F2166.2 X154.342 Y179.949 E43.50023
G1 F2170.4 X154.613 Y179.511 E43.56073
G1 F2174.6 X154.817 Y179.069 E43.61781
G1 F2172.5 X155.066 Y178.33 E43.70933
G1 F2166.2 X155.21 Y177.519 E43.80628
G1 F2151.7 X155.209 Y176.674 E43.9064
G1 F2262.2 X155.26 Y175.998 E43.98281
G1 F2392.3 X155.262 Y153.284 E46.40359
G1 F2400 X155.122 Y152.326 E46.50645
G1 X154.938 Y151.601 E46.58591
G1 X154.485 Y150.606 E46.70206
G1 X154.156 Y150.067 E46.76914
G1 X153.58 Y149.342 E46.86751
G1 X153.13 Y148.899 E46.9346
G1 X152.588 Y148.468 E47.00816
G1 X151.853 Y147.999 E47.10079
G1 X150.876 Y147.591 E47.21327
G1 X150.166 Y147.417 E47.29093
G1 X149.522 Y147.321 E47.3601
G1 X148.632 Y147.297 E47.45468
G1 X147.779 Y147.389 E47.54583
G1 X146.896 Y147.597 E47.6422
G1 X146.097 Y147.94 E47.73458
G1 X145.676 Y148.166 E47.78534
G1 X144.945 Y148.667 E47.87949
G1 X144.291 Y149.265 E47.97363
G1 X143.721 Y149.93 E48.06668
G1 X143.279 Y150.672 E48.15843
G1 X143.067 Y151.112 E48.21032
G1 X142.718 Y152.085 E48.32013
G1 X142.595 Y152.808 E48.39805
G1 X142.542 Y153.43 E48.46437
G1 X142.538 Y175.167 E50.77362
G1 F2276 X142.589 Y175.97 E50.86376
G1 F2117.2 X142.612 Y176.185 E50.8898
G0 F6000 X142.602 Y176.485
G1 F1500 E49.8898
G0 F6000 X143.345 Y175.049
G0 X143.742 Y174.359
G0 X144.625 Y173.396
G0 X145.377 Y172.849
G0 X146.117 Y172.46
G0 X147.37 Y172.047
G0 X148.264 Y171.894
G0 X149.477 Y171.883
G0 X150.596 Y172.086
G0 X151.436 Y172.356
G0 X152.205 Y172.722
G0 X152.89 Y173.166
G0 X153.712 Y173.924
G0 X154.447 Y175.055
G0 X154.18 Y176.796
G1 F1500 E50.8898
G1 F2162.1 X154.163 Y177.608 E50.98558
G1 F2189.5 X154.012 Y178.285 E51.06635
G1 F2195.9 X153.673 Y179.093 E51.16809
G1 F2185.2 X153.168 Y179.799 E51.26937
G1 X152.688 Y180.284 E51.34899
G1 F2178.9 X152.279 Y180.607 E51.40997
G1 X151.459 Y181.094 E51.52157
G1 F2187.3 X150.578 Y181.404 E51.63044
G1 X149.718 Y181.583 E51.73283
G1 F2191.6 X148.91 Y181.646 E51.82712
G1 F2176.7 X148.335 Y181.604 E51.89465
G1 F2172.5 X147.773 Y181.54 E51.96103
G1 F2183.1 X147.057 Y181.354 E52.04743
G1 X146.328 Y181.071 E52.13876
G1 F2176.7 X145.774 Y180.772 E52.2125
G1 F2178.9 X145.031 Y180.233 E52.31992
G1 F2193.8 X144.374 Y179.494 E52.43484
G1 X143.987 Y178.804 E52.52679
G1 F2187.3 X143.779 Y178.259 E52.59478
G1 F2181 X143.625 Y177.472 E52.68853
G1 F2164.2 X143.626 Y176.797 E52.76806
G1 F2113.3 X143.689 Y176.271 E52.83197
G1 F2224.2 X144.104 Y175.359 E52.94684
G1 F2400 X144.442 Y174.814 E53.01497
G1 X144.724 Y174.467 E53.06247
G1 X145.194 Y174.009 E53.13219
G1 X145.845 Y173.541 E53.21736
G1 X146.433 Y173.233 E53.28788
G1 X147.016 Y173.007 E53.35431
G1 X147.571 Y172.856 E53.41541
G1 X148.303 Y172.73 E53.49432
G1 X149.408 Y172.714 E53.61172
G1 X150.424 Y172.903 E53.72151
G1 X151.157 Y173.143 E53.80345
G1 X151.828 Y173.466 E53.88256
G1 X152.376 Y173.822 E53.95199
G1 X153.1 Y174.49 E54.05664
G1 X153.486 Y175.001 E54.12467
G1 F2332.7 X153.899 Y175.768 E54.21989
G1 F2208.8 X154.18 Y176.796 E54.3429
G0 F6000 X154.174 Y177.096
G1 F1500 E53.3429
G0 F6000 X154.413 Y177.102
G0 X154.399 Y153.867
G0 X153.407 Y153.753
G0 X150.195 Y157.929
G0 X147.153 Y157.744
G0 X147.579 Y156.964
G1 F1500 E54.3429
G1 F2400 X146.824 Y156.551 E54.43433
G1 X146.324 Y156.112 E54.50501
G1 X145.954 Y155.662 E54.5669
G1 X145.56 Y154.899 E54.65813
G1 X145.412 Y154.378 E54.71567
G1 X145.35 Y153.953 E54.7613
G1 X145.344 Y153.416 E54.81835
G1 X145.407 Y152.942 E54.86915
G1 X145.543 Y152.453 E54.92307
G1 X145.92 Y151.694 E55.0131
G1 X146.23 Y151.288 E55.06737
G1 X146.797 Y150.772 E55.14882
G1 X147.21 Y150.513 E55.20061
G1 X148.022 Y150.195 E55.29325
G1 X148.505 Y150.109 E55.34537
G1 X149.114 Y150.094 E55.41009
G1 X149.631 Y150.163 E55.4655
G1 X150.131 Y150.306 E55.52074
G1 X150.577 Y150.506 E55.57267
G1 X151 Y150.771 E55.6257
G1 X151.517 Y151.231 E55.69922
G1 X151.855 Y151.657 E55.75699
G1 X152.228 Y152.376 E55.84304
G1 X152.379 Y152.873 E55.89822
G1 X152.464 Y153.63 E55.97915
G1 X152.43 Y154.143 E56.03377
G1 X152.257 Y154.854 E56.1115
G1 X151.898 Y155.573 E56.19688
G1 X151.555 Y156.031 E56.25767
G1 X150.92 Y156.59 E56.34754
G1 X150.227 Y156.957 E56.43085
G1 X149.813 Y157.094 E56.47718
G1 X149.14 Y157.205 E56.54964
G1 X148.638 Y157.204 E56.60297
G1 X148.143 Y157.132 E56.65611
G1 X147.579 Y156.964 E56.71863
G0 F6000 X147.316 Y156.82
G1 F1500 E55.71863
G0 F6000 X146.89 Y157.601
G0 X144.746 Y156.22
G0 X144.157 Y152.461
G0 X144.447 Y151.62
G0 X143.976 Y152.523
G0 X143.892 Y153.484
G0 X143.81 Y156.583
G0 X144.378 Y156.584
;TYPE:SKIN
G1 F1500 E56.71863
G1 F2400 X144.563 Y156.862 E56.75411
G1 X145.032 Y157.431 E56.83244
G1 X145.773 Y158.07 E56.93639
G1 X146.87 Y158.67 E57.06923
G1 X147.613 Y158.891 E57.15158
G1 X148.378 Y159.023 E57.23405
G1 X149.31 Y159.043 E57.33308
G1 X150.044 Y158.922 E57.41211
G1 X150.96 Y158.654 E57.51351
G1 X151.743 Y158.23 E57.6081
G1 X152.134 Y157.963 E57.6584
G1 X152.733 Y157.438 E57.74302
G1 X153.427 Y156.625 E57.85658
G1 X153.427 Y172.312 E59.52311
G1 X152.738 Y171.866 E59.6103
G1 X151.781 Y171.411 E59.72287
G1 X150.862 Y171.115 E59.82544
G1 X149.568 Y170.876 E59.96524
G1 X148.133 Y170.895 E60.1177
G1 X147.172 Y171.062 E60.22132
G1 X146.442 Y171.26 E60.30168
G1 X145.72 Y171.537 E60.38383
G1 X144.819 Y172.01 E60.49194
G1 X144.375 Y172.334 E60.55033
G1 X144.378 Y156.584 E62.22355
G1 F1500 E61.22355
G0 F6000 X143.81 Y156.583
G0 X143.866 Y153.38
G0 X144.015 Y152.413
G0 X144.337 Y151.573
G0 X144.405 Y155.56
G0 X146.354 Y157.24
G0 X147.257 Y157.733
G0 X148.001 Y157.956
G0 X149.246 Y158.035
G0 X152.067 Y157.269
G0 X152.749 Y158.044
G1 F1500 E62.22355
G1 F2400 X152.959 Y158.254 E62.2551
G0 F6000 X153.995 Y158.254
G0 X153.9 Y154.329
G0 X151.468 Y157.734
